P3
127 156
255
125
141
121
132
149
130
126
147
124
112
134
107
88
106
76
73
88
61
58
69
45
60
71
44
94
109
66
154
178
98
200
227
130
232
253
163
246
255
191
251
255
208
253
255
212
252
255
203
250
254
193
243
249
181
230
237
166
212
221
144
193
205
128
181
193
123
173
182
119
153
161
104
138
148
96
133
141
94
120
124
82
106
110
71
115
116
86
152
150
133
161
159
147
162
159
150
163
160
152
166
163
155
159
156
148
148
145
136
145
142
124
135
133
99
140
143
96
159
165
122
173
181
144
174
189
149
173
193
141
185
205
158
210
227
203
234
248
242
223
239
236
209
224
223
193
204
198
164
175
161
168
180
165
178
189
175
164
175
155
138
159
121
110
144
88
88
129
60
82
117
57
78
105
60
76
96
65
78
94
68
76
94
67
74
93
64
80
98
64
94
109
76
114
127
102
123
136
118
129
139
126
153
164
156
166
176
170
162
174
163
161
174
158
131
153
102
114
147
71
116
151
83
122
158
90
117
155
79
105
144
60
101
137
55
106
133
66
124
140
106
127
142
123
125
147
127
117
142
117
94
121
86
97
125
85
112
139
93
118
148
89
120
153
85
123
155
79
127
161
82
130
164
85
137
169
89
146
175
84
147
176
63
144
172
42
142
169
37
145
165
42
153
167
63
177
190
102
198
214
120
208
230
131
218
241
144
233
251
166
237
253
171
233
251
165
230
249
162
227
245
153
210
228
128
185
202
104
156
177
81
139
163
79
132
159
80
124
154
69
116
148
55
117
140
60
126
141
79
133
143
85
147
156
93
162
168
104
169
171
105
174
176
112
178
181
125
179
179
129
180
178
134
175
175
126
160
167
105
182
190
150
132
142
132
135
147
136
128
143
128
118
134
112
99
113
86
84
94
69
69
76
54
74
81
55
90
99
65
129
145
89
177
204
116
214
242
143
236
254
171
247
255
198
253
255
214
251
255
204
246
253
187
235
245
166
219
228
149
200
210
132
187
197
127
181
188
130
175
178
128
156
162
117
146
152
110
138
143
104
125
127
93
113
113
83
115
113
91
136
134
118
161
158
146
168
165
156
169
166
157
165
162
154
158
154
146
154
150
142
148
144
127
135
135
101
151
155
118
171
177
148
178
189
153
180
196
152
179
200
142
182
204
142
195
216
175
210
228
209
198
218
193
184
203
175
171
186
160
161
174
150
166
178
158
171
183
164
154
172
144
133
159
116
112
145
91
91
128
68
88
118
72
82
107
73
77
97
70
85
105
75
91
113
79
90
113
75
86
108
68
99
115
78
117
131
103
120
133
110
123
138
115
145
158
141
157
168
155
157
169
154
147
162
133
111
134
73
113
142
79
125
155
103
134
163
120
133
162
117
118
150
90
110
140
78
106
134
73
94
114
73
97
117
93
106
130
104
101
129
96
100
131
88
111
141
88
121
150
91
131
159
102
130
158
100
112
144
69
110
145
67
115
153
66
117
156
63
123
156
67
125
155
55
123
149
40
126
144
40
125
133
41
139
148
61
171
186
98
194
210
117
203
226
124
208
235
127
220
244
138
229
250
151
227
248
152
225
247
150
218
241
138
201
225
119
179
199
108
147
166
77
129
150
65
121
146
60
112
140
53
105
134
45
116
138
63
130
141
86
147
154
99
169
174
115
185
186
127
190
190
126
188
190
123
185
188
126
183
187
130
176
183
126
160
175
106
145
163
83
173
186
134
139
146
140
140
149
141
135
145
132
122
133
115
105
114
92
96
101
79
95
98
75
113
118
89
125
132
94
135
148
97
165
188
112
197
229
136
223
248
165
245
255
204
252
255
221
250
255
215
243
254
200
228
242
170
214
228
147
194
205
126
185
191
127
183
183
135
172
171
130
159
160
124
151
153
119
140
142
109
127
128
98
118
118
91
125
124
101
134
131
113
149
146
132
160
157
146
162
159
148
158
155
147
155
152
143
151
148
136
151
149
131
156
157
126
168
174
139
185
194
164
193
206
173
188
206
159
180
202
135
181
205
129
183
208
129
189
213
152
176
201
145
156
183
117
155
177
129
172
188
162
183
196
176
177
191
170
151
172
140
129
158
111
103
138
80
91
125
75
92
118
84
87
109
81
86
109
80
102
127
92
107
134
90
107
135
84
99
123
72
101
120
74
114
130
96
124
138
112
131
145
118
137
150
125
131
145
116
134
150
116
123
141
100
108
126
79
116
138
97
123
150
106
132
158
121
138
163
134
134
158
127
123
147
110
110
132
95
88
110
77
92
117
86
107
135
102
113
145
104
110
148
87
121
158
89
132
163
95
149
172
117
148
167
123
123
148
89
105
137
65
105
141
57
107
145
52
112
146
56
114
143
55
115
136
50
115
121
53
113
111
55
121
123
60
155
166
85
187
203
113
198
219
116
199
225
115
203
232
111
206
238
104
206
238
115
204
236
121
198
231
117
191
222
117
172
198
109
146
167
81
132
149
75
128
146
74
121
141
69
113
133
60
120
137
74
138
146
92
166
170
115
185
190
136
198
199
148
203
205
148
203
207
140
198
203
137
186
195
134
168
182
117
151
173
99
144
168
89
175
192
139
140
143
139
144
147
142
134
138
129
119
124
109
108
111
90
106
107
85
118
119
95
137
141
110
143
149
109
147
161
106
162
184
114
194
222
140
222
246
177
242
254
210
246
255
217
242
254
211
234
251
201
223
243
179
209
228
155
192
203
130
177
178
124
172
168
129
168
166
129
165
163
129
154
156
122
142
143
110
130
131
98
125
125
94
133
130
105
137
134
114
144
143
124
143
140
124
143
139
124
148
145
132
145
142
129
152
150
135
166
167
152
182
184
163
199
209
173
209
221
188
204
218
190
203
221
184
195
218
160
195
219
148
203
227
152
205
231
156
197
222
149
190
211
154
207
220
199
224
234
227
230
239
238
215
227
223
172
192
171
130
160
108
100
140
75
95
130
84
95
122
87
94
118
85
100
124
90
115
142
98
118
148
91
119
149
86
110
138
74
106
128
70
112
128
85
131
144
113
139
149
124
145
153
129
135
146
118
126
140
110
116
133
99
107
123
90
121
137
111
117
140
108
120
146
112
136
159
135
133
156
135
121
145
121
111
134
107
100
127
91
109
139
100
127
156
118
129
162
119
121
162
93
125
166
83
135
167
93
151
172
121
159
174
136
142
158
116
120
141
91
110
138
66
107
138
55
107
140
53
110
140
54
117
132
55
113
113
58
114
110
64
115
112
67
125
128
71
151
160
83
175
188
97
179
197
98
176
198
83
176
206
73
183
219
94
187
224
117
187
223
120
181
215
117
167
198
108
157
181
99
149
165
98
145
158
100
138
151
97
130
142
89
129
139
86
143
150
96
177
185
129
188
196
143
202
205
153
210
214
157
211
217
153
205
214
148
187
202
141
167
188
123
154
180
112
156
181
118
187
202
161
142
143
141
143
143
140
131
132
123
117
118
102
112
111
90
118
117
94
130
133
104
147
153
117
156
164
120
166
183
125
170
198
126
189
221
143
216
244
179
235
253
205
239
255
209
236
253
208
231
251
203
221
242
183
200
219
152
179
193
127
168
171
120
167
164
127
170
166
130
167
162
127
150
151
115
142
143
108
135
134
99
134
133
99
135
132
105
136
133
111
137
136
114
132
131
110
131
128
109
137
133
117
140
138
121
154
154
138
167
168
157
188
192
179
206
215
189
213
226
189
211
226
186
207
225
182
212
233
181
216
239
183
226
245
198
231
249
210
237
250
219
246
250
238
252
254
253
253
255
255
253
255
255
245
252
252
209
223
216
150
179
132
117
157
88
111
148
92
99
133
81
97
128
82
116
145
102
128
156
109
134
163
109
136
163
106
127
152
92
111
133
75
104
121
73
123
133
93
139
144
112
143
147
123
135
141
118
128
139
117
125
139
114
117
131
103
120
136
108
120
141
112
115
139
108
128
152
127
128
153
127
122
148
115
117
144
102
111
141
95
123
155
111
134
167
124
136
171
122
131
171
104
131
172
84
132
166
80
140
163
101
158
172
131
154
164
132
137
147
114
125
140
96
113
132
73
105
126
60
103
122
55
113
116
59
111
105
61
117
111
71
128
123
82
136
134
91
142
142
99
153
155
108
159
165
110
158
170
105
158
179
102
164
194
103
172
208
110
177
213
122
182
218
129
184
218
133
184
211
130
180
199
121
177
191
114
168
177
102
148
152
89
135
143
90
143
152
97
178
186
133
192
198
148
204
207
156
212
217
160
214
220
160
207
218
157
193
212
151
178
202
143
170
196
145
173
197
155
196
211
186
145
145
143
139
139
134
129
128
117
117
115
100
116
116
94
126
128
102
141
146
114
159
169
128
173
188
136
178
200
140
180
211
137
190
225
143
207
239
166
224
249
190
229
251
197
231
252
201
230
250
203
218
238
184
195
213
148
178
187
129
173
176
126
170
168
129
170
166
129
162
157
118
145
142
101
138
137
95
136
136
95
140
139
103
144
143
113
141
139
115
135
132
111
126
124
104
123
120
101
124
120
101
128
127
106
143
142
127
158
160
150
186
191
177
206
218
188
213
229
180
219
234
182
209
230
176
219
239
184
229
245
200
229
247
208
235
249
219
249
254
245
255
255
255
255
255
255
255
255
255
255
255
255
255
255
255
240
249
248
189
211
190
143
176
123
119
160
92
102
141
76
104
141
83
121
156
99
135
168
112
144
174
124
140
165
115
127
151
98
103
126
74
94
110
65
107
114
74
126
128
94
136
136
112
137
142
121
136
146
126
138
149
128
130
144
118
118
137
100
111
135
91
106
131
88
111
139
99
121
149
109
126
154
108
126
155
95
120
153
83
128
162
106
138
176
120
141
180
117
136
177
109
138
176
99
138
171
86
138
161
91
148
161
112
152
159
122
149
153
122
138
144
110
122
128
87
110
117
71
105
110
64
109
108
65
111
104
68
121
114
81
139
134
102
154
151
121
167
164
142
177
174
156
178
176
155
179
181
152
174
184
137
173
198
124
178
212
122
189
227
145
205
240
168
215
246
180
223
247
179
223
243
161
215
232
137
207
223
124
187
197
101
150
160
86
142
153
100
167
177
127
189
194
144
203
207
154
211
217
161
211
220
163
203
215
158
194
214
156
185
210
156
180
204
163
179
199
167
202
214
196
144
144
141
131
130
122
119
117
104
115
113
97
119
119
95
130
136
99
149
159
113
169
186
129
181
204
136
182
210
138
180
213
133
183
219
131
198
233
151
213
244
173
220
248
186
225
250
196
222
245
190
200
223
159
180
198
132
170
179
124
170
175
127
166
166
125
164
161
123
149
148
107
139
139
93
140
139
93
147
147
104
149
148
111
150
148
118
149
146
122
140
137
115
126
124
102
115
113
91
108
107
87
114
114
93
128
128
112
152
154
140
177
183
164
208
220
194
214
230
188
215
230
185
203
224
177
219
239
189
230
248
205
227
244
206
235
249
219
251
255
248
255
255
255
255
255
255
255
255
255
255
255
255
255
255
255
249
255
254
207
225
211
167
195
160
130
168
100
103
146
63
106
150
73
127
166
97
147
179
123
151
179
133
138
163
117
119
141
96
88
109
68
73
90
49
81
94
55
104
111
78
124
126
103
132
137
118
136
147
129
140
151
132
136
150
121
115
137
91
101
127
72
96
125
66
98
129
71
114
145
90
126
156
98
127
160
86
130
165
76
136
173
94
143
183
116
146
187
122
145
184
121
141
178
107
140
172
104
141
165
101
142
155
94
147
152
104
151
152
114
143
142
106
130
129
93
114
115
75
110
112
72
109
107
72
112
105
74
126
117
91
148
141
118
169
163
145
184
180
164
191
189
174
194
190
175
197
196
174
193
198
162
186
205
143
192
222
143
205
242
165
216
249
181
226
253
190
236
255
199
241
255
190
237
253
156
225
242
136
210
227
123
178
192
95
156
163
101
166
174
123
182
187
138
192
196
148
200
205
156
204
211
164
200
210
161
193
209
159
187
207
162
183
202
166
181
197
166
204
214
197
152
152
149
125
122
114
114
111
97
116
114
96
124
125
93
134
144
92
150
165
105
167
190
121
177
205
128
179
209
127
176
210
121
175
214
116
185
225
126
192
228
136
195
229
146
196
229
149
188
219
137
173
200
124
163
182
118
161
174
116
162
170
119
162
164
121
159
159
120
150
152
110
144
144
98
146
145
98
152
151
109
153
153
117
151
149
121
150
147
123
140
137
113
123
120
98
110
108
88
108
108
88
109
111
90
119
122
102
142
145
128
163
168
151
196
205
190
211
224
206
206
220
197
202
218
192
213
230
197
222
241
195
227
244
206
232
245
218
251
255
250
255
255
255
254
255
255
255
255
255
255
255
255
255
254
255
251
255
253
209
228
209
179
206
171
132
168
98
102
144
57
111
151
71
140
172
114
153
182
133
150
177
133
138
158
121
118
136
103
85
101
70
60
76
46
61
76
45
74
85
59
102
109
89
120
128
111
132
142
125
139
151
128
136
152
118
119
140
88
100
126
65
92
123
61
93
129
63
109
146
80
125
157
89
133
165
85
146
181
91
150
186
98
150
189
109
153
191
125
151
189
128
147
184
115
142
177
112
144
172
115
145
162
105
146
154
101
152
154
110
148
147
107
134
133
97
115
115
79
106
106
74
103
101
70
104
99
69
124
119
92
150
146
125
171
168
152
185
182
167
195
192
179
198
196
182
200
199
179
200
205
169
196
210
152
198
223
153
211
243
175
216
248
178
224
251
181
237
255
197
243
255
194
239
254
161
231
250
138
219
236
128
202
211
123
179
180
129
180
179
148
187
188
153
189
191
150
189
192
147
195
198
158
195
200
164
192
199
163
189
198
166
190
198
174
188
196
173
211
214
201
172
172
175
142
141
136
114
112
97
118
116
98
131
135
95
140
153
92
148
166
96
162
188
113
173
204
122
175
208
121
176
211
117
176
216
110
171
213
92
164
206
82
162
201
91
168
201
105
170
197
111
163
185
110
159
175
113
155
168
109
157
167
115
162
168
126
159
164
126
159
161
122
157
157
111
155
155
108
154
155
112
153
153
119
149
148
121
142
139
117
134
129
108
119
115
95
114
112
92
112
112
91
113
116
95
120
127
106
132
139
119
141
149
128
151
162
143
172
184
168
184
197
178
180
195
172
179
197
167
192
212
169
218
235
198
224
238
209
243
249
241
253
255
253
255
255
255
255
255
255
255
255
255
255
255
255
241
249
242
201
222
197
169
196
155
117
153
68
106
142
55
129
161
95
161
186
146
168
191
157
160
182
151
144
161
136
124
138
116
95
111
89
84
100
79
70
84
63
66
78
56
82
93
74
99
111
93
116
130
108
133
149
118
137
155
115
125
146
94
98
125
62
88
120
56
94
130
65
112
150
80
130
164
91
144
178
97
163
198
107
168
204
114
163
199
113
157
193
116
156
194
128
151
190
119
148
187
116
146
180
117
151
175
124
152
168
123
152
160
124
148
149
116
135
134
96
114
113
80
102
101
72
92
89
59
93
91
59
117
115
84
145
145
118
169
168
150
183
180
165
195
192
178
199
197
182
201
201
178
200
204
165
194
204
147
189
210
139
202
232
168
212
244
172
220
251
167
231
254
184
240
255
188
236
253
153
229
249
125
221
237
127
204
212
138
188
189
157
188
186
171
192
190
174
191
190
170
185
183
155
185
182
156
186
185
162
185
187
162
184
185
163
186
186
168
191
190
175
213
211
202
165
164
167
157
157
154
120
119
102
123
124
103
135
145
107
144
160
105
149
171
100
156
187
107
170
206
121
174
209
122
174
211
116
171
211
104
161
201
75
156
194
67
160
194
89
167
193
107
170
188
111
165
178
109
167
177
118
172
179
125
170
176
129
163
169
130
160
166
126
168
170
128
170
171
126
165
167
118
160
162
116
156
157
119
147
145
116
136
132
110
123
117
99
113
108
89
114
112
89
114
115
90
118
125
101
122
131
108
130
141
117
133
146
119
136
150
124
136
149
123
131
145
120
132
147
121
144
162
131
162
182
143
179
196
169
186
202
178
205
219
193
231
240
227
245
252
247
250
255
254
249
254
253
236
245
237
208
223
201
186
205
175
146
172
104
112
144
50
119
151
79
148
175
135
176
198
175
184
203
185
174
192
175
153
168
150
139
151
137
121
138
128
116
136
125
101
115
101
76
89
69
72
86
66
100
116
96
109
129
101
112
134
92
125
148
101
116
142
86
92
122
58
84
120
53
89
126
61
103
143
72
131
169
87
155
189
100
168
203
112
176
211
122
177
212
125
169
205
120
155
195
115
147
189
112
145
186
112
146
185
119
150
181
126
151
174
127
151
166
126
142
150
115
125
128
91
107
106
73
87
85
54
79
78
46
89
89
55
111
112
75
135
137
100
157
157
131
176
175
155
188
186
171
194
192
176
197
196
171
193
197
153
183
194
131
175
192
118
182
211
136
197
229
158
212
246
159
218
249
159
223
250
157
224
250
124
219
244
103
209
227
117
194
201
140
188
188
166
190
189
176
193
191
180
187
187
176
181
180
159
173
172
149
171
170
150
171
170
151
173
170
152
178
171
155
185
175
160
207
200
190
162
162
161
157
158
150
121
121
102
129
131
107
140
150
116
143
161
111
151
177
108
156
191
110
161
200
110
164
202
108
162
198
102
155
192
91
152
185
78
153
181
74
159
182
94
164
183
107
170
182
113
175
180
121
181
185
136
190
192
151
189
189
152
178
179
142
172
174
131
179
183
132
182
185
132
176
180
126
169
171
120
161
163
120
146
144
112
135
130
106
116
110
90
109
105
83
112
112
85
114
119
90
121
130
104
123
134
111
121
132
109
119
134
105
123
140
104
111
129
89
94
111
82
108
124
101
140
155
129
158
175
151
153
168
155
159
174
157
166
184
153
179
199
162
197
214
181
205
219
184
202
217
173
190
209
163
180
200
151
159
184
116
134
164
67
127
157
69
133
161
109
161
185
159
182
202
187
181
200
185
169
187
169
154
167
152
147
160
150
138
155
148
146
162
158
138
153
151
128
143
137
99
113
100
98
117
98
111
132
106
106
129
88
115
141
96
103
132
78
89
120
58
87
124
57
84
125
55
91
135
58
119
162
69
153
191
95
168
204
111
176
211
121
179
214
127
171
207
122
150
190
104
140
184
96
141
184
102
148
185
120
153
185
126
152
178
124
148
167
122
138
152
110
117
124
85
96
97
62
80
80
49
78
76
46
90
89
57
105
108
67
121
127
81
139
144
103
153
158
123
166
169
139
174
178
147
178
180
145
176
182
137
173
184
124
165
180
110
160
180
104
164
184
115
174
199
120
187
219
110
188
225
106
192
226
112
193
220
117
185
202
121
176
182
135
182
185
165
187
189
177
189
190
180
181
183
172
174
177
158
167
170
144
161
163
135
162
161
139
167
162
144
174
165
149
177
166
150
201
193
181
168
167
160
141
142
126
122
124
102
134
137
114
142
151
122
145
161
120
147
173
117
153
186
115
155
191
108
154
190
102
151
187
97
148
183
90
148
177
89
150
170
88
156
171
95
164
174
107
175
180
124
181
181
135
191
191
150
200
197
163
199
196
166
195
192
158
186
186
138
190
194
138
192
197
138
184
189
131
176
180
126
166
169
122
141
139
107
126
121
99
108
103
82
103
99
76
109
107
78
114
120
87
119
132
100
120
133
108
117
133
108
114
132
97
104
124
78
88
109
58
79
99
52
112
127
101
166
181
178
171
188
194
164
182
187
164
181
180
155
175
152
150
178
129
162
189
134
177
200
142
173
199
115
171
199
110
167
192
109
152
181
89
140
173
71
135
166
86
145
170
128
165
188
164
183
203
190
175
193
179
164
181
164
150
164
147
149
164
154
159
177
173
160
177
177
156
173
177
169
183
194
145
157
158
104
118
104
111
130
108
114
133
101
124
146
112
104
130
86
92
122
66
95
130
68
89
130
59
87
134
47
104
152
49
143
182
79
162
198
101
171
206
116
174
208
121
166
201
115
146
185
97
135
178
81
139
181
91
153
190
118
163
197
130
166
197
132
160
186
127
146
165
107
117
130
78
91
95
61
81
82
54
82
81
54
93
92
60
102
105
62
114
122
77
176
182
157
192
196
177
185
190
163
179
187
154
175
186
150
168
181
138
160
172
119
156
169
113
157
170
114
150
163
106
140
154
97
145
166
97
164
190
123
162
191
128
163
187
139
172
184
145
168
176
136
175
179
155
187
189
178
190
193
182
183
188
175
170
177
158
171
179
151
169
176
139
165
169
137
171
167
146
175
167
150
170
163
147
196
190
178
138
144
115
123
128
98
124
128
106
133
137
114
140
149
117
143
160
121
146
170
123
149
177
117
152
183
110
150
184
104
151
186
102
148
181
97
145
171
91
146
161
92
149
157
96
165
168
118
183
182
141
188
185
147
204
201
164
209
205
170
206
202
169
206
201
165
198
199
148
197
203
144
194
199
139
184
189
131
180
184
129
167
170
119
131
130
98
113
107
87
103
96
76
100
95
73
106
103
75
118
125
87
124
139
100
127
142
107
136
154
119
134
156
106
115
137
77
80
99
48
74
90
47
147
159
154
185
204
219
188
207
222
188
207
224
183
204
215
170
190
183
149
174
135
163
192
145
190
215
171
174
203
120
170
200
111
166
194
100
150
179
75
137
171
71
136
169
93
149
175
130
165
186
160
178
195
182
180
198
186
166
182
169
157
169
155
168
180
173
185
197
196
172
181
183
181
191
197
186
198
207
189
199
207
172
180
179
147
158
149
148
159
145
150
164
149
115
138
104
99
128
83
101
130
85
96
132
77
89
134
49
95
143
35
122
163
57
147
184
88
162
196
106
164
198
111
153
187
103
139
177
86
135
176
76
141
182
86
154
193
108
164
201
127
172
205
135
169
198
130
152
176
104
134
149
83
99
103
63
84
85
57
88
88
61
99
99
68
110
112
72
145
149
121
226
227
222
242
241
245
237
235
241
245
244
247
246
247
247
240
244
237
208
215
195
180
188
160
171
180
147
160
169
135
146
156
121
148
159
132
154
170
150
150
172
146
152
173
150
167
179
158
167
179
138
165
173
130
174
181
157
177
185
166
176
189
167
165
182
150
165
182
144
167
185
140
160
175
125
158
165
125
161
160
135
158
155
135
187
186
172
126
137
95
127
133
99
128
132
107
133
137
111
138
149
110
140
157
115
146
165
123
145
166
109
144
171
104
148
178
106
151
181
107
148
176
102
143
165
94
141
156
95
143
147
98
164
162
123
187
182
150
196
189
157
210
202
170
211
206
173
213
209
173
212
209
166
204
205
150
200
205
146
191
198
134
180
189
127
181
187
130
160
162
116
116
113
86
103
95
74
99
91
71
104
98
74
106
104
74
122
128
83
136
149
99
138
154
108
146
166
114
140
164
106
119
142
86
88
105
58
79
90
53
151
160
159
195
213
230
205
223
243
203
223
243
191
212
225
179
197
197
181
202
184
195
219
197
205
226
200
175
202
131
170
200
119
168
196
114
146
178
78
135
170
74
141
172
103
155
178
135
162
178
153
187
200
188
199
211
205
178
188
181
188
195
190
208
214
217
226
230
236
232
234
238
234
237
243
229
235
241
234
240
247
227
232
237
208
212
216
201
208
208
182
192
186
131
150
127
116
139
110
108
134
100
104
136
94
98
140
64
94
142
35
104
149
41
128
163
65
146
175
86
151
182
100
149
179
101
139
173
84
139
178
80
148
187
89
153
189
101
159
196
113
163
197
119
162
192
114
155
181
100
140
157
82
117
122
72
93
93
64
103
101
74
117
115
86
161
160
140
195
194
194
181
181
185
183
182
187
188
187
193
190
187
196
199
196
204
214
211
218
240
239
244
250
250
251
244
245
242
235
237
232
222
225
218
225
229
223
198
207
199
167
182
169
163
179
165
167
185
166
163
180
145
155
171
121
155
172
122
165
183
141
178
197
158
172
199
152
166
193
140
163
189
133
162
184
124
155
170
118
156
162
133
148
150
128
178
179
165
122
134
92
126
132
99
132
135
105
135
139
106
134
148
102
137
154
107
139
156
109
137
156
95
140
162
95
145
169
102
144
168
102
141
163
98
137
155
94
134
147
97
137
140
101
155
152
118
180
174
146
193
185
157
205
197
169
210
203
171
212
208
170
210
208
159
201
204
146
200
204
145
190
197
131
181
191
126
176
181
128
144
145
105
106
100
77
100
91
70
99
91
68
106
102
73
117
116
77
140
144
94
151
162
107
153
172
109
147
169
104
134
156
97
117
136
84
95
109
68
83
90
58
128
134
126
201
215
232
208
225
245
203
221
240
192
211
222
200
219
226
204
224
223
211
233
223
211
233
218
194
216
181
173
200
136
169
197
130
155
186
112
137
172
88
149
174
122
188
202
184
202
211
203
212
218
216
207
212
213
226
228
232
223
223
227
237
236
243
241
240
249
246
243
250
249
246
253
250
248
253
247
247
251
238
237
247
217
220
227
201
203
210
181
185
187
168
178
174
152
169
153
115
138
110
109
138
101
104
140
83
91
135
47
91
137
35
111
145
53
129
155
75
138
163
90
143
166
97
143
169
91
142
175
90
151
184
97
154
185
107
159
190
111
158
189
109
157
184
105
157
179
98
143
160
83
126
134
73
110
112
72
126
127
93
133
133
108
112
112
109
88
87
87
115
115
112
131
131
127
112
112
108
123
123
121
111
108
109
126
124
122
159
157
157
208
206
210
242
241
245
251
250
253
238
237
241
238
236
241
248
249
251
242
244
243
236
240
237
220
227
219
205
214
198
200
212
188
187
202
162
182
199
157
186
207
163
179
207
157
175
204
150
168
197
141
166
190
134
160
176
127
158
166
137
150
153
133
179
180
168
120
126
90
129
131
98
135
137
104
139
144
105
136
149
102
133
149
100
128
143
88
128
145
82
135
154
89
140
160
95
139
159
98
138
156
97
134
149
95
132
142
99
130
133
100
142
140
110
162
159
129
178
174
143
196
191
158
205
202
164
208
206
162
204
205
153
198
200
143
191
193
135
183
189
126
176
183
119
158
159
115
120
117
87
97
91
69
94
89
68
95
92
65
104
106
70
123
129
83
143
150
100
153
165
113
152
171
111
146
169
101
128
151
91
115
135
87
98
110
77
94
100
73
113
117
100
188
196
208
208
222
245
202
220
239
203
222
237
201
220
226
200
222
217
206
230
220
206
228
215
203
220
210
190
211
184
168
194
138
162
186
132
147
171
118
154
175
137
197
205
199
229
233
237
230
234
240
220
223
231
226
225
234
234
231
243
227
225
238
225
223
235
214
213
223
208
207
217
218
216
230
228
225
238
226
224
236
221
221
233
218
221
230
214
216
222
199
205
208
165
179
173
140
159
141
129
150
125
110
138
97
83
121
52
81
124
37
101
138
61
120
150
80
127
152
85
132
156
88
141
164
95
140
166
93
138
169
88
145
176
97
154
180
103
158
184
104
154
178
96
149
169
87
141
158
77
135
144
78
137
142
95
152
158
120
108
110
95
30
31
26
40
38
32
80
77
71
75
73
66
58
56
51
33
33
28
21
21
17
38
37
31
66
64
59
124
121
120
185
183
186
217
216
222
220
217
225
220
216
225
224
222
231
238
237
243
241
241
246
253
252
254
255
255
255
248
248
251
247
249
246
230
236
224
204
218
185
190
214
165
184
209
157
178
201
152
168
186
138
160
174
134
157
164
138
148
152
133
176
178
166
121
129
89
132
136
100
135
138
103
138
141
101
136
147
93
130
143
81
123
138
75
122
140
77
131
149
85
137
155
92
138
156
98
134
152
98
133
148
97
134
142
103
131
132
100
136
132
104
152
150
120
167
165
131
184
183
145
194
193
152
200
200
154
199
200
148
193
196
141
181
185
128
170
175
120
162
164
112
132
129
96
97
94
71
86
85
60
83
85
57
83
89
54
98
108
63
115
129
77
130
145
89
144
160
107
145
165
109
139
164
96
123
149
82
105
126
77
95
107
75
105
111
85
114
119
95
149
154
146
175
185
190
193
205
213
202
216
218
205
220
214
222
233
227
229
241
236
232
243
238
220
231
225
214
225
217
215
225
208
221
226
211
211
214
206
201
209
202
228
233
236
228
230
241
224
225
238
214
213
225
213
210
223
204
202
216
200
198
211
195
193
205
186
183
196
160
159
167
180
179
189
204
202
215
194
191
205
212
211
224
222
222
234
235
236
245
218
221
229
206
212
218
186
196
195
148
161
145
119
142
109
89
121
67
95
130
73
102
138
78
114
149
84
123
153
87
129
157
86
133
162
87
132
160
83
123
152
71
129
157
74
138
162
84
143
162
85
136
155
76
132
150
70
133
150
72
141
153
92
155
164
117
158
165
130
49
52
39
15
14
7
38
34
26
35
36
28
24
24
17
16
16
10
16
16
12
16
15
10
21
20
16
11
12
6
24
24
19
55
53
50
130
126
128
199
196
200
227
226
232
230
229
236
225
223
231
218
216
225
239
237
244
242
240
248
226
225
235
241
239
245
252
252
253
245
248
243
223
231
210
195
211
172
179
197
155
169
183
145
160
171
141
152
158
135
144
148
129
172
175
162
126
141
83
132
142
90
136
142
94
140
142
93
136
142
86
137
146
85
130
144
82
126
145
85
128
146
86
128
146
83
134
151
93
133
148
95
130
143
95
135
140
103
137
134
104
138
134
105
148
144
114
163
161
127
180
179
139
186
187
143
193
195
145
189
192
138
184
188
135
176
180
126
161
164
118
145
143
105
105
104
71
82
86
53
75
82
47
75
84
44
76
90
43
98
117
57
113
137
73
122
145
84
134
152
101
136
155
105
118
142
84
97
122
66
79
101
55
89
104
66
108
119
86
115
121
94
127
134
111
140
148
128
160
169
144
206
215
204
239
248
245
250
255
254
250
255
254
251
255
254
249
253
253
250
254
253
252
255
255
254
255
255
254
253
254
248
250
251
243
246
251
226
228
238
220
219
234
221
218
233
204
201
215
189
187
199
198
196
207
197
195
209
198
196
209
178
175
183
183
180
189
173
171
179
176
174
183
200
198
208
224
222
235
242
240
253
239
237
248
234
234
244
223
226
232
182
190
187
161
177
163
130
151
120
100
127
87
101
136
80
114
151
82
127
161
88
133
164
87
136
165
81
137
163
79
134
159
77
134
157
78
137
156
84
134
151
78
120
137
61
125
142
64
136
153
78
148
162
106
163
174
134
159
168
140
63
65
56
74
70
63
95
90
80
5
6
3
22
23
22
84
85
84
134
134
132
96
95
91
58
57
53
39
40
35
21
20
16
1
1
0
24
23
20
63
62
63
175
174
180
253
253
255
253
253
254
253
252
253
247
247
249
241
240
245
227
226
234
227
225
234
242
241
246
252
252
255
251
252
251
218
225
207
183
198
166
177
188
164
169
175
160
157
162
146
144
148
130
174
179
164
141
164
82
144
160
85
145
154
93
146
151
103
144
147
106
144
147
104
141
149
102
136
149
98
134
150
97
128
142
85
126
139
83
128
138
87
131
136
94
137
133
101
142
135
105
146
141
110
151
149
117
160
160
125
182
183
148
192
191
156
185
186
142
183
184
140
182
183
146
170
172
128
149
150
110
134
133
110
99
102
71
98
109
67
102
118
71
87
107
50
82
106
40
105
131
58
121
148
79
131
154
93
138
156
106
131
150
106
103
123
79
81
104
60
76
100
54
89
108
63
102
115
74
111
122
87
122
133
100
139
150
115
174
186
151
222
233
220
245
252
249
253
255
255
254
255
255
255
255
255
255
255
255
255
255
255
255
255
255
255
255
255
252
252
254
247
248
253
238
236
246
221
219
232
202
201
215
195
193
206
196
194
206
178
177
186
181
179
191
191
189
203
195
193
203
175
170
176
165
159
166
175
169
178
186
181
191
201
198
208
233
230
244
243
241
252
245
244
251
248
247
251
248
248
250
243
243
248
221
224
225
172
183
171
133
156
131
109
146
88
116
156
75
137
170
103
137
166
95
140
165
85
146
166
90
147
165
92
142
160
90
140
156
88
141
160
90
141
161
84
146
165
80
157
175
97
159
174
112
164
177
135
164
173
150
154
150
148
158
142
138
158
153
155
104
104
107
118
121
131
203
205
219
182
182
196
85
84
86
14
14
11
19
19
15
4
5
2
2
2
0
0
0
0
65
64
66
216
215
217
255
255
255
250
250
250
251
250
253
254
252
255
252
251
252
246
245
248
238
237
242
241
240
244
247
247
250
251
251
253
239
242
236
207
215
198
187
194
176
178
182
169
171
174
162
156
159
142
179
183
167
163
190
95
170
189
108
164
178
117
155
163
119
154
156
127
154
155
127
151
155
116
144
152
107
141
152
109
138
146
102
123
127
80
121
122
80
128
124
88
131
124
94
141
134
102
147
143
109
156
156
125
163
165
136
187
189
166
217
217
205
212
212
197
201
202
188
205
206
195
196
196
185
172
173
161
184
182
178
200
203
197
165
177
149
130
152
100
114
142
72
100
132
51
113
143
66
127
153
86
138
161
103
147
165
115
128
147
103
103
124
79
90
111
65
85
107
61
90
107
63
95
112
67
119
135
100
138
149
120
154
165
134
198
207
185
234
240
235
248
252
251
254
255
255
255
255
255
255
254
255
255
254
255
254
254
254
254
254
254
253
253
253
241
241
247
224
222
234
209
205
219
184
182
193
177
176
185
181
179
185
194
192
200
167
166
173
177
176
184
155
154
160
128
125
127
133
129
128
162
156
158
186
181
188
200
195
207
217
213
224
213
210
222
222
219
231
235
232
243
246
244
253
249
248
253
251
251
253
249
251
251
236
239
242
209
218
216
136
166
125
140
173
116
142
172
108
135
163
85
143
162
92
156
168
111
158
170
113
147
159
98
144
157
95
147
165
101
153
172
91
160
180
90
169
188
107
174
192
120
170
186
131
131
136
115
122
115
116
151
136
132
114
107
100
119
115
116
149
146
155
165
168
184
180
180
203
165
164
183
106
105
111
49
49
49
71
71
70
24
24
23
81
81
84
224
224
226
255
255
255
250
249
252
247
246
249
230
229
236
228
226
234
242
241
244
254
254
255
253
253
255
252
252
253
251
251
252
252
251
252
254
254
253
234
237
232
204
207
197
192
193
184
180
182
172
167
170
154
183
187
172
184
214
123
190
212
137
187
203
141
170
177
126
159
160
123
159
159
132
161
161
131
151
156
122
146
153
121
145
152
116
130
133
93
124
122
83
123
118
84
126
119
89
135
131
98
148
146
110
169
169
150
194
195
186
220
221
216
242
241
243
239
238
241
235
235
238
230
230
234
231
230
234
231
231
235
233
232
239
233
233
239
226
229
231
197
201
195
182
192
167
136
159
100
130
156
91
132
157
93
144
164
112
154
171
123
130
147
102
120
134
101
119
132
98
123
136
105
146
156
137
170
177
164
193
199
192
208
212
207
219
223
216
235
234
236
244
243
248
246
246
247
244
244
246
245
245
248
243
242
247
236
236
241
241
239
246
240
239
245
243
242
248
238
237
246
208
205
220
188
186
198
162
161
168
158
157
162
183
182
187
186
186
191
167
167
172
148
147
151
141
137
138
132
126
127
136
132
128
169
165
163
192
186
192
200
195
203
190
185
192
163
160
163
170
166
171
193
187
197
217
214
228
242
240
250
250
249
254
253
252
254
254
254
253
249
250
250
226
232
226
181
197
171
133
159
83
137
159
80
148
160
104
160
167
125
163
171
123
151
159
108
150
159
106
156
171
113
160
177
92
160
178
89
168
184
106
174
191
119
173
186
126
117
116
89
114
103
100
112
103
98
88
72
60
99
78
65
118
100
92
149
135
135
155
152
158
154
152
166
158
155
171
116
114
121
133
133
134
187
187
190
235
234
240
243
242
249
239
238
244
231
229
237
223
222
230
199
198
205
190
189
197
217
215
224
238
236
243
238
237
244
247
246
249
255
254
255
254
254
254
254
254
254
249
249
246
220
221
215
198
199
192
185
187
177
172
176
160
189
195
182
185
216
122
189
216
132
191
209
142
182
189
133
163
165
124
160
159
134
159
158
131
155
157
129
151
156
127
145
153
119
131
135
102
120
118
85
120
115
87
132
127
103
149
145
116
169
166
141
195
195
186
221
220
221
240
239
243
250
249
252
236
235
240
230
228
237
230
228
240
235
234
244
236
235
242
235
233
240
227
226
235
228
226
236
232
231
238
227
228
229
209
214
207
194
206
185
169
182
156
162
174
142
178
188
159
176
184
167
198
201
195
197
200
198
221
223
223
238
238
241
248
247
249
243
243
247
244
244
249
244
243
248
240
235
243
238
234
240
237
234
239
233
229
237
218
216
226
227
226
236
217
215
223
217
213
223
232
229
239
236
235
245
223
221
234
198
196
206
171
169
177
154
153
158
157
157
161
164
164
168
165
165
166
142
142
142
114
111
111
158
153
153
152
148
149
154
151
150
156
152
153
166
161
163
177
172
174
198
192
198
199
194
201
189
184
191
171
165
173
181
177
186
214
210
221
243
239
250
248
247
252
249
248
251
253
253
254
254
254
255
233
236
236
176
188
155
143
155
93
152
158
111
159
161
129
164
165
133
160
163
127
156
162
124
163
173
125
163
178
95
155
170
85
162
176
99
167
179
107
166
175
112
110
103
78
77
60
52
70
53
45
87
73
65
128
98
84
123
88
76
97
71
59
77
69
61
135
125
127
200
194
211
216
212
224
227
226
231
238
237
246
230
228
238
233
231
242
221
219
230
206
205
213
191
190
197
183
182
189
196
194
205
222
220
231
234
233
241
227
226
233
218
217
225
239
238
244
255
255
255
255
255
255
255
255
255
238
239
236
202
203
196
180
181
170
164
172
148
185
194
175
180
212
119
182
213
117
184
207
127
179
191
129
162
165
126
160
159
134
157
155
129
158
157
134
155
157
132
142
145
114
128
131
103
124
122
98
139
135
120
181
179
171
204
203
197
208
208
205
223
224
223
232
230
237
240
239
245
243
242
246
230
229
234
220
219
226
208
206
219
211
210
223
217
216
228
216
214
227
219
218
229
219
217
232
219
217
229
234
233
240
241
240
246
238
238
244
226
226
229
216
217
219
220
220
220
236
236
237
250
249
252
246
247
250
250
248
253
250
248
253
241
239
245
227
224
232
230
229
235
230
228
235
233
231
237
239
234
239
232
227
236
227
221
232
214
210
220
221
219
229
219
214
224
225
221
231
232
228
238
229
227
237
207
205
218
187
185
194
179
178
181
166
166
170
135
134
138
140
138
140
143
142
141
148
145
144
163
157
159
163
159
160
173
168
169
185
180
179
174
170
169
166
162
160
165
161
159
168
164
164
182
177
178
195
190
192
192
187
189
185
180
185
201
196
206
227
224
238
244
242
252
249
248
253
252
252
254
254
253
255
254
254
255
237
240
240
183
187
167
159
160
132
159
157
136
157
154
137
151
150
128
145
145
123
149
152
124
159
169
105
156
169
91
156
167
91
158
167
93
152
156
95
101
90
74
92
66
56
85
60
51
72
50
40
71
51
42
69
44
34
83
62
53
89
81
79
154
145
148
226
223
230
220
219
226
199
199
207
194
191
202
211
209
223
197
195
206
161
160
165
148
149
150
136
135
135
171
170
177
222
221
233
237
235
245
245
244
250
230
229
235
197
196
202
187
186
191
246
245
249
255
255
255
255
255
255
249
249
248
208
209
202
168
175
158
151
166
133
178
189
163
166
200
104
168
204
101
172
202
106
163
183
103
155
163
110
156
158
130
157
158
135
157
156
137
149
148
127
137
137
110
142
142
119
177
176
165
194
193
189
217
216
216
234
234
237
243
242
246
239
238
244
236
234
243
224
223
232
229
228
235
219
217
225
215
213
225
206
204
216
192
190
201
165
164
173
161
160
172
184
183
195
206
204
218
194
192
206
198
196
207
208
206
215
221
220
229
229
226
237
232
230
240
239
238
244
242
241
245
245
244
249
248
248
252
239
238
244
236
235
241
234
231
238
227
221
232
233
227
237
238
234
243
233
229
238
222
218
227
230
224
235
223
217
228
207
203
213
209
204
214
199
193
202
209
203
210
199
194
201
211
209
219
209
207
218
180
179
185
147
146
149
157
156
161
155
153
154
129
125
122
135
131
128
165
161
161
174
170
171
173
169
168
172
168
165
180
175
174
181
177
175
177
173
170
156
152
147
155
150
147
144
137
134
152
145
142
157
152
149
159
155
154
169
164
167
204
199
209
234
233
244
247
246
253
252
251
254
254
254
254
254
255
254
254
255
254
237
237
235
188
185
175
166
163
148
155
153
138
146
143
128
136
134
118
128
127
107
140
142
103
157
163
97
158
166
92
163
170
99
136
138
89
82
70
61
123
88
73
124
83
66
110
70
59
80
55
45
45
31
23
46
32
26
89
86
82
220
217
219
203
199
205
194
192
198
189
188
192
188
187
190
174
173
178
127
128
129
72
73
70
55
56
52
98
98
99
210
209
218
238
236
247
246
245
252
228
227
233
184
184
187
152
152
152
146
146
147
220
218
225
253
252
255
254
254
255
249
249
248
202
205
198
158
172
150
140
163
121
171
187
154
147
183
78
151
189
79
146
183
68
139
170
64
145
161
94
144
149
119
143
144
125
144
143
124
141
140
120
137
136
114
135
134
114
169
168
160
199
199
200
229
229
232
243
242
246
243
242
247
228
226
235
215
213
226
197
195
208
197
196
206
193
192
201
200
198
206
183
182
190
173
171
181
169
167
174
149
145
152
152
149
158
171
170
180
175
173
185
196
193
205
202
200
211
204
202
215
221
219
231
233
231
240
239
238
244
235
234
241
233
232
241
240
237
246
226
223
232
228
224
231
232
227
236
218
212
223
218
211
222
212
206
215
213
209
218
212
209
217
204
198
206
208
202
210
206
199
209
211
204
215
184
177
185
165
160
165
166
161
166
183
179
187
187
185
194
195
194
200
152
151
155
130
129
133
152
150
150
115
112
108
130
127
121
152
148
145
173
169
168
183
179
177
173
169
166
174
170
166
173
169
166
167
163
160
158
153
149
150
143
142
128
119
118
112
101
99
138
130
127
158
152
149
159
153
151
177
173
176
206
205
215
238
236
246
248
247
253
252
251
254
254
254
254
254
254
254
254
253
253
231
228
226
192
190
181
160
159
143
144
142
126
135
136
116
133
136
111
136
140
109
137
148
98
143
163
97
160
176
116
123
125
99
102
83
75
138
94
76
142
96
76
114
70
55
86
54
43
72
45
37
41
31
22
134
131
125
199
198
199
179
177
178
172
169
171
147
147
145
121
122
119
78
78
75
63
63
59
6
6
4
51
51
52
212
211
219
242
240
251
239
237
248
235
233
244
192
192
194
141
141
137
116
117
112
134
134
129
189
187
189
240
239
244
251
251
253
246
246
244
200
208
193
143
168
129
127
155
101
167
187
151
117
158
48
123
166
48
124
167
46
125
164
55
125
153
78
125
136
100
128
130
109
130
130
109
129
129
107
142
141
123
154
151
140
181
180
174
198
197
199
219
218
223
238
237
243
239
238
244
237
236
247
215
213
227
192
190
203
180
178
189
182
181
187
182
181
186
175
174
180
167
165
174
183
179
187
151
147
152
133
130
136
134
133
139
139
138
147
179
177
190
194
192
204
197
195
207
211
210
220
222
221
230
230
229
237
226
224
234
226
223
233
228
225
235
218
212
222
218
210
220
200
194
205
205
198
209
200
194
202
195
189
194
194
189
194
198
192
199
173
168
172
169
164
169
202
196
204
198
192
200
187
182
189
176
170
177
160
154
161
162
159
163
164
162
165
166
166
169
155
156
155
105
105
103
88
89
85
80
80
75
101
99
92
135
131
126
172
168
165
190
186
183
183
180
176
160
156
152
143
139
133
116
110
104
97
87
83
96
88
84
127
119
114
112
102
96
117
105
102
131
123
120
162
158
154
174
170
170
194
192
197
220
217
229
237
236
246
248
247
253
251
251
253
254
254
254
254
254
254
254
254
253
217
217
212
164
164
147
140
139
115
129
132
104
130
137
103
136
146
107
137
154
105
141
164
103
151
174
120
108
105
89
105
83
75
131
91
74
138
98
80
105
67
53
116
82
68
54
36
24
47
38
31
136
131
132
168
167
170
169
167
165
139
135
131
74
73
67
41
43
36
24
25
20
0
0
0
34
34
34
183
181
189
226
224
237
227
225
237
229
228
237
205
204
211
147
147
143
79
80
74
84
85
79
137
135
129
179
174
174
225
224
227
249
248
251
225
225
221
148
168
131
112
151
86
118
152
90
166
186
153
112
144
55
116
156
49
118
159
52
117
156
55
113
145
67
112
129
90
114
120
100
134
136
120
144
146
133
175
175
168
207
205
206
221
218
224
219
218
224
225
225
230
241
240
246
241
239
249
234
231
244
219
215
230
209
205
218
200
197
207
189
188
193
182
180
188
188
187
194
171
170
175
145
144
148
113
112
116
119
117
123
118
116
120
141
140
147
175
173
184
172
170
181
193
190
203
200
198
210
208
206
217
221
217
227
223
217
229
207
201
214
203
197
207
203
198
204
206
199
207
193
187
196
190
184
192
197
191
199
185
180
186
192
186
193
186
181
188
194
188
194
200
194
202
197
192
198
181
176
182
190
185
191
179
173
179
174
168
175
156
152
156
133
131
130
130
130
128
135
136
132
77
78
72
59
60
54
62
62
57
63
61
55
135
130
126
171
166
164
177
173
170
170
166
162
158
155
149
144
140
135
125
118
113
119
110
103
124
116
110
113
106
99
90
78
70
98
83
78
110
101
96
141
138
132
166
161
159
187
182
186
204
200
210
216
214
224
241
241
250
250
249
254
253
252
255
252
251
254
251
251
253
225
225
223
169
170
156
136
135
112
125
127
98
126
133
96
130
143
96
141
159
105
150
169
114
156
174
129
96
90
79
106
84
76
138
100
82
120
77
59
114
71
55
88
56
42
106
85
77
124
117
121
81
81
83
89
88
87
110
107
103
61
58
53
19
19
12
8
10
4
0
1
0
50
50
49
165
165
171
205
203
217
204
202
215
209
207
218
202
201
207
155
155
155
72
73
68
91
92
88
151
151
149
142
140
133
171
168
165
209
207
209
245
244
247
233
233
231
157
176
144
107
142
77
110
144
79
166
185
154
107
125
63
110
139
55
113
146
61
109
143
65
108
135
70
114
129
94
139
145
135
179
180
179
200
200
202
229
229
233
237
237
242
245
243
252
248
247
252
247
246
251
240
239
248
217
215
225
193
187
195
172
165
170
172
165
169
187
181
186
195
193
199
193
192
197
177
175
180
167
165
169
139
138
140
114
112
116
126
125
129
111
111
112
128
128
132
144
142
150
178
177
185
193
191
203
199
198
210
209
205
216
217
211
222
209
201
212
195
189
198
192
185
193
189
184
188
187
181
188
202
196
204
182
176
183
183
177
183
181
174
180
189
183
190
189
183
189
189
184
191
189
183
190
167
161
167
160
155
160
165
160
162
176
172
175
169
164
168
148
144
144
133
131
128
127
127
123
105
104
99
83
83
77
73
74
67
62
61
55
64
61
54
99
95
89
131
127
124
135
131
128
149
146
141
161
157
151
161
157
151
148
145
138
149
145
141
154
150
144
124
117
110
90
80
71
72
61
54
94
84
78
124
117
113
143
139
136
170
166
167
199
196
202
210
208
217
228
228
239
245
244
252
248
248
252
250
250
253
248
247
251
226
226
227
170
170
163
146
146
127
129
133
97
130
136
89
129
140
86
139
156
97
160
177
130
152
162
137
103
91
85
115
88
75
115
82
64
94
57
41
113
72
53
110
84
70
104
99
95
43
40
36
12
8
2
42
37
31
25
22
16
4
4
0
8
6
1
3
3
0
53
54
51
165
165
167
189
188
195
201
200
211
202
199
211
193
191
198
169
170
169
89
90
86
122
122
123
193
191
200
221
220
225
156
153
148
159
155
150
199
195
196
233
234
235
212
217
210
162
177
151
113
142
91
105
138
77
161
180
145
104
117
64
106
128
57
106
133
62
108
133
69
111
129
82
132
140
120
181
184
183
221
221
225
242
241
246
247
247
251
249
248
253
246
246
251
246
245
250
238
237
245
217
215
226
185
182
191
172
167
171
172
164
167
165
158
159
163
160
160
172
170
169
186
184
186
188
184
188
166
161
163
148
144
146
136
133
134
94
95
92
76
77
76
125
125
127
130
129
133
157
156
163
182
180
191
192
189
200
193
188
197
194
189
196
198
192
200
190
185
192
180
175
180
184
179
186
184
178
186
194
188
197
175
169
177
190
185
191
187
182
186
194
189
195
178
173
179
186
180
186
184
178
184
174
169
174
178
173
178
165
160
163
166
161
163
153
148
150
139
135
134
120
115
112
105
104
100
83
82
75
50
50
43
64
64
57
68
66
60
82
80
71
70
67
60
73
70
63
100
97
91
131
127
122
148
144
139
163
160
154
161
157
151
154
149
145
143
138
133
133
123
117
106
95
87
75
63
55
85
74
67
128
120
117
133
128
124
155
151
149
179
175
178
201
199
207
219
217
230
237
233
248
243
242
252
249
248
254
251
250
255
232
230
233
172
175
164
142
151
117
135
145
96
137
146
88
144
152
100
147
157
109
185
194
166
178
178
169
106
86
78
120
89
74
113
76
56
128
80
58
131
82
60
114
72
55
69
41
31
59
35
24
49
26
16
28
19
11
14
11
3
10
11
2
11
7
1
32
31
27
135
134
134
193
193
196
185
185
190
172
172
177
180
179
184
166
166
167
91
92
86
110
111
109
181
180
188
207
205
217
211
209
213
159
157
149
163
160
151
217
213
216
234
236
236
191
202
179
156
174
133
127
153
105
115
147
89
156
179
135
121
139
83
125
145
83
128
152
88
126
146
89
134
147
112
187
190
187
237
237
241
248
248
249
245
245
247
248
247
251
247
246
251
245
243
251
240
239
247
220
219
228
204
202
213
204
201
210
203
199
206
188
182
188
184
178
181
180
176
176
179
175
175
189
184
185
193
187
190
169
164
164
129
125
122
122
119
117
100
98
93
70
68
65
113
112
111
144
143
146
178
176
186
194
191
203
197
191
201
178
172
177
197
192
196
193
187
192
186
180
186
193
188
195
193
187
195
199
194
200
190
185
192
189
184
190
188
183
187
188
182
187
190
184
191
186
180
187
175
170
174
160
155
160
171
166
172
174
169
175
186
180
187
167
162
166
173
168
170
157
153
153
129
125
124
100
100
95
74
75
67
66
67
60
55
56
49
54
54
47
56
56
48
62
61
53
65
62
56
50
46
41
73
69
63
126
122
114
134
128
121
131
123
116
138
130
123
142
134
127
127
118
112
87
77
70
64
51
43
58
45
39
105
97
92
142
138
134
141
137
133
161
156
155
197
195
202
218
217
229
233
230
245
243
241
253
246
244
251
249
249
254
229
230
233
178
185
168
149
168
112
138
157
88
143
154
101
160
165
130
198
200
186
241
242
239
172
163
160
119
97
87
114
81
63
110
86
69
120
81
61
143
91
71
112
71
53
67
43
32
55
33
21
69
40
27
31
21
13
20
15
6
22
15
4
28
20
12
98
95
89
145
145
142
179
179
179
162
162
163
145
145
145
148
148
147
108
109
105
56
57
52
141
141
141
160
159
163
181
180
186
197
194
194
148
144
137
183
180
174
230
229
229
227
230
227
185
198
166
158
179
132
134
161
110
123
154
92
161
184
134
131
158
97
141
168
106
148
177
111
157
180
129
186
194
174
236
235
236
251
252
253
254
254
252
253
253
253
251
250
254
246
245
250
241
240
248
236
234
244
225
222
232
207
206
213
202
201
206
196
192
198
188
183
187
192
188
190
201
196
198
192
188
188
189
184
185
183
178
180
160
156
155
131
127
123
115
112
108
99
95
92
84
83
80
101
101
99
137
136
138
165
164
170
191
187
196
195
192
200
189
184
189
202
197
204
191
185
191
205
200
208
228
222
231
211
206
212
216
210
216
213
207
213
216
211
217
206
201
206
198
193
198
195
189
197
197
191
199
193
187
193
164
158
164
180
174
180
188
182
189
181
175
181
176
171
176
180
175
177
169
164
162
144
140
136
98
99
92
69
70
63
84
85
78
73
74
68
61
62
56
51
52
45
28
28
21
50
47
42
48
44
39
58
54
48
94
89
81
116
107
99
129
118
110
123
112
104
116
105
98
91
82
76
51
42
35
56
44
37
72
61
54
87
80
74
138
134
128
131
128
123
140
137
135
172
170
174
215
214
223
229
227
241
239
237
249
245
244
252
247
246
252
238
239
243
204
210
198
170
186
143
155
174
110
165
175
140
207
209
198
252
252
253
241
239
242
135
123
120
114
99
91
99
70
52
88
69
57
96
68
53
107
71
57
84
52
37
43
26
15
47
27
15
58
37
27
28
17
7
48
27
13
43
24
12
60
49
39
118
117
112
147
148
144
150
151
145
136
136
130
108
109
102
93
94
88
35
36
32
84
84
80
128
127
123
142
141
137
152
151
147
166
164
159
186
184
180
210
211
207
212
218
205
194
208
177
180
198
155
166
185
136
140
166
109
125
157
88
167
189
136
133
166
97
148
181
109
164
196
126
183
205
165
229
234
230
252
252
253
254
254
254
253
253
252
250
250
251
249
249
252
246
245
251
239
238
246
231
229
239
218
214
224
195
191
197
195
191
196
175
170
172
178
173
173
186
182
182
195
190
192
196
191
193
194
189
191
186
182
183
157
153
150
120
116
111
97
93
89
102
98
95
98
95
91
85
85
81
127
127
126
163
162
167
204
200
209
202
196
203
202
196
203
216
210
217
217
211
217
220
215
222
219
214
219
219
213
220
223
218
224
205
199
206
213
207
214
198
193
200
183
177
183
210
204
212
196
190
199
198
193
199
197
191
197
177
171
178
184
178
185
183
177
182
172
167
172
165
160
162
140
136
135
126
122
118
127
126
120
84
85
79
103
104
97
98
99
94
81
81
75
65
66
59
55
55
48
37
37
31
36
34
29
48
44
37
87
82
73
117
110
101
111
102
93
108
98
90
117
109
101
102
95
88
102
96
90
125
118
112
135
129
123
127
121
116
130
125
120
136
132
129
150
146
143
163
159
160
188
185
192
212
209
222
231
229
242
242
240
251
246
245
253
246
246
251
239
241
242
203
211
195
183
194
162
221
225
216
248
248
246
243
242
247
215
208
212
136
116
107
71
53
46
108
73
59
100
72
59
95
66
50
102
64
47
101
67
53
48
29
15
65
40
24
33
21
12
44
26
14
61
32
17
51
26
12
67
53
43
103
103
100
102
105
101
91
88
79
91
89
80
67
67
60
23
23
17
15
13
7
80
76
68
104
96
88
121
114
104
140
135
123
187
186
183
224
226
226
198
205
198
186
197
172
181
195
154
178
193
147
170
187
139
151
171
115
133
160
98
171
193
148
131
167
93
147
186
105
160
200
118
184
211
162
225
234
228
245
246
246
252
252
252
251
251
252
249
248
252
247
246
252
244
243
251
235
234
242
225
224
234
209
206
216
203
198
204
174
169
170
144
138
135
167
162
159
186
181
180
199
194
198
203
198
202
188
183
183
168
163
162
144
141
137
125
121
117
101
98
95
99
95
91
99
97
92
79
80
74
108
108
107
161
159
165
202
197
204
216
209
215
213
208
214
222
217
224
220
214
221
213
207
214
213
207
215
212
206
216
217
211
220
211
205
213
203
197
206
202
196
205
191
185
191
189
184
191
188
182
189
196
191
197
201
195
202
190
184
191
186
180
186
191
186
192
192
186
192
177
172
175
144
141
142
133
132
129
127
126
122
123
121
118
110
111
105
94
95
89
99
100
94
76
77
71
47
48
42
25
26
21
28
27
21
32
28
20
63
58
48
94
88
79
115
108
100
139
132
126
150
146
139
158
155
147
169
165
160
174
170
166
174
170
166
170
165
162
146
143
137
144
141
136
138
134
132
182
177
180
185
182
191
198
195
207
220
217
232
234
231
245
244
242
252
249
249
254
252
253
253
246
247
245
240
242
238
254
254
254
252
251
253
235
233
239
180
170
172
134
111
105
97
68
55
142
104
85
117
80
63
132
88
68
114
70
50
95
59
44
60
36
18
84
50
31
54
30
15
57
29
14
54
28
11
57
38
25
96
89
87
55
55
52
43
39
32
72
66
56
28
25
18
5
4
0
12
11
6
42
37
27
85
72
56
106
91
73
122
112
96
177
171
164
230
228
233
217
219
220
185
190
179
177
182
156
180
186
153
174
185
148
171
185
143
154
174
119
137
162
107
172
191
154
129
160
110
144
183
111
150
192
109
169
198
143
214
224
212
245
247
247
252
251
252
251
250
253
248
247
252
244
243
249
238
236
247
234
233
243
225
224
234
213
211
218
194
189
192
141
137
132
122
114
110
170
164
163
187
182
182
196
192
194
187
183
183
171
167
164
150
145
142
137
133
128
125
121
116
108
104
100
98
94
88
87
86
78
83
84
77
122
120
119
183
179
184
218
213
221
228
223
229
220
215
221
224
218
225
221
215
222
225
219
225
222
216
224
221
215
226
218
211
223
213
207
216
219
213
222
218
212
220
215
210
216
206
200
207
198
192
199
193
188
195
202
196
204
208
202
211
187
181
188
190
184
191
185
180
185
168
163
165
154
153
153
150
152
151
140
138
136
120
117
113
116
116
111
114
114
110
106
106
102
98
98
94
75
76
71
59
59
55
46
44
38
43
39
33
67
63
53
103
99
88
129
125
116
150
144
140
151
146
143
162
158
152
178
174
170
187
183
180
190
186
183
180
176
172
158
154
149
149
145
140
153
149
146
170
164
168
192
189
197
194
192
203
205
202
217
223
220
237
233
231
245
244
243
251
253
254
255
255
255
254
255
255
255
253
253
253
254
254
254
245
244
247
164
150
152
85
71
66
94
66
54
124
91
75
122
84
64
145
95
72
117
71
51
85
52
32
95
61
40
78
49
32
73
39
20
60
30
14
45
32
22
116
111
113
65
64
62
14
9
2
28
23
18
11
11
6
5
4
0
16
13
6
15
13
7
20
18
10
84
69
49
113
96
76
151
142
130
222
218
219
235
236
236
196
199
191
184
185
170
185
184
166
185
186
162
183
189
162
176
186
151
159
175
129
143
164
114
171
187
154
129
157
119
137
173
114
154
187
128
185
208
178
224
233
230
242
245
246
247
249
250
250
249
253
247
246
251
246
245
250
242
240
251
234
232
243
222
221
229
210
208
215
190
185
187
135
128
126
124
113
112
146
137
136
168
163
160
180
177
174
169
165
161
154
150
146
131
128
123
115
112
104
92
88
79
69
66
57
62
58
51
61
60
52
69
71
63
145
145
143
216
212
221
238
232
242
227
221
229
229
223
230
230
224
231
221
215
222
221
215
222
214
209
215
220
214
221
214
208
216
206
200
208
214
208
217
200
194
201
196
191
196
197
192
198
208
202
210
206
200
208
180
174
181
200
194
201
200
194
199
184
179
185
187
182
188
182
176
182
165
162
164
155
153
151
149
145
144
125
122
121
114
114
111
98
99
94
93
94
89
86
87
81
95
96
89
81
82
76
56
57
50
53
52
45
81
78
70
136
133
124
145
141
133
151
147
141
149
145
142
146
143
137
163
159
154
176
172
167
187
183
179
184
180
174
163
159
154
145
141
138
161
157
154
176
171
172
182
178
183
198
194
205
202
198
213
205
203
219
227
224
238
237
235
247
245
244
251
250
250
252
248
248
251
251
250
252
253
250
253
229
224
230
139
126
125
66
57
48
104
76
65
122
82
68
129
87
68
124
84
60
112
75
55
92
58
38
104
65
42
59
36
19
72
38
21
68
39
23
91
86
78
61
57
56
31
18
9
23
14
6
9
8
2
9
6
1
18
13
7
22
15
6
15
11
2
27
21
12
104
87
67
138
125
108
193
187
183
238
239
243
219
222
220
181
182
172
178
176
160
182
180
165
188
187
170
188
188
170
181
186
163
160
174
140
141
162
116
169
183
155
129
157
118
128
164
114
142
173
126
159
184
151
200
214
206
221
227
227
238
240
242
245
244
249
246
245
251
243
242
249
237
235
246
229
227
238
218
217
225
208
206
212
193
188
188
149
143
140
117
108
106
127
118
117
159
152
150
167
162
157
162
157
153
147
143
140
128
124
119
107
101
95
87
83
74
62
60
49
60
56
49
57
55
49
77
77
71
161
160
163
227
224
235
245
240
247
237
231
239
228
223
229
226
220
226
211
205
212
211
205
212
224
219
225
211
205
210
205
199
206
206
200
207
201
195
203
199
194
201
196
191
196
177
172
174
190
185
189
195
190
194
187
182
186
176
171
174
178
173
175
181
176
180
185
179
183
186
180
184
181
176
178
178
172
174
164
159
160
131
128
127
136
135
133
123
123
120
102
102
98
91
92
86
88
90
81
89
90
82
83
84
77
49
49
42
58
55
47
139
136
129
168
164
160
163
160
155
167
164
158
163
159
154
153
149
143
154
150
145
166
162
158
167
163
158
170
167
161
167
162
159
159
155
153
172
167
168
183
178
183
192
187
196
207
204
217
208
205
220
219
216
231
238
236
248
242
241
248
247
246
251
244
244
248
251
249
252
248
243
248
215
207
212
112
101
99
80
66
58
110
82
71
116
89
75
96
65
51
101
67
48
92
60
44
91
55
32
104
66
46
70
40
21
87
45
24
67
41
25
45
35
27
50
25
14
58
29
19
19
12
4
9
10
2
21
15
6
18
12
4
29
18
6
29
19
9
61
48
37
129
114
95
163
157
146
223
221
222
226
229
229
195
202
189
176
181
162
179
179
160
183
181
165
187
185
169
181
180
164
174
179
160
157
171
144
135
156
113
164
179
148
128
158
121
128
161
120
137
169
128
153
179
148
175
193
179
214
224
221
237
239
242
245
244
249
242
241
248
238
236
245
234
233
242
229
227
237
217
216
223
207
206
209
195
190
189
161
156
151
121
115
110
123
115
112
138
130
128
148
140
138
154
149
146
157
153
150
156
151
147
140
133
129
122
118
110
95
91
82
78
75
66
73
70
63
108
105
103
194
190
196
240
236
246
240
234
241
233
227
233
224
218
225
215
210
216
220
215
221
216
211
215
192
187
189
192
187
190
184
178
184
188
183
188
189
183
190
178
173
179
181
176
181
178
173
174
175
170
173
182
177
178
182
177
179
174
169
170
182
178
178
171
167
167
157
152
152
161
156
155
166
162
160
169
164
166
162
157
160
128
124
125
150
146
147
112
111
108
91
92
87
104
106
99
98
100
92
90
91
84
92
93
88
64
64
58
35
33
25
93
89
82
162
158
154
172
168
163
173
169
164
179
175
169
169
165
159
158
155
149
154
150
145
158
154
149
161
157
152
162
158
154
160
156
153
165
161
161
174
168
172
189
184
192
201
198
210
213
210
224
220
218
232
237
235
247
245
243
251
249
249
253
249
247
251
249
245
251
253
249
254
212
205
209
82
71
68
89
68
56
133
99
85
91
64
46
91
60
41
102
66
44
86
55
39
98
59
35
89
53
34
76
42
24
92
49
28
75
37
18
52
22
11
58
30
16
45
24
12
15
12
3
21
15
6
32
21
10
31
21
8
40
24
12
29
16
8
74
62
52
154
142
130
206
203
203
247
248
250
226
232
229
196
207
188
189
199
175
189
194
172
187
186
169
184
181
167
172
171
157
165
170
149
150
164
137
134
155
115
162
178
143
125
154
117
126
158
120
138
170
135
156
184
161
190
210
198
219
230
227
228
232
234
241
243
246
242
241
248
239
237
246
238
236
246
230
228
237
221
220
226
213
212
215
195
194
194
174
170
167
149
143
139
138
132
127
149
143
138
163
158
154
175
171
168
174
170
167
172
168
165
165
162
156
146
141
132
124
119
109
99
94
84
88
85
76
128
124
123
215
210
217
239
234
243
228
222
229
216
210
217
208
202
208
203
198
202
205
200
205
190
185
188
180
176
176
197
192
195
186
182
183
171
166
169
173
168
171
168
163
166
179
174
177
175
170
172
169
164
166
166
161
164
163
158
160
171
166
167
164
160
158
159
155
153
162
158
156
159
155
153
166
162
159
169
165
166
168
164
165
155
152
153
151
151
151
135
136
133
125
126
121
111
112
106
104
105
100
93
94
89
94
95
91
73
73
68
51
48
42
63
60
51
115
111
103
167
163
157
175
170
166
179
175
170
183
179
173
171
168
162
165
162
156
162
158
153
161
158
152
166
162
158
162
157
155
167
162
163
177
171
175
176
170
176
194
192
203
213
210
224
226
224
239
238
236
248
246
245
251
250
250
253
248
245
251
248
245
250
254
251
255
198
188
189
88
74
70
108
79
65
108
80
65
112
74
52
101
62
40
122
79
54
96
59
41
112
70
46
95
56
36
94
54
32
85
46
25
74
38
19
59
28
12
61
30
15
48
28
12
25
17
6
28
17
7
29
18
8
34
22
8
41
25
12
30
18
11
114
102
90
182
173
166
229
228
231
228
235
232
208
219
205
202
215
192
200
214
188
196
204
180
191
192
170
175
175
157
165
168
149
154
162
137
145
160
129
134
155
115
160
178
146
110
142
92
113
149
97
134
167
130
157
184
161
177
198
184
186
200
192
208
215
216
231
236
239
240
240
246
243
241
252
237
235
246
229
228
236
222
222
228
211
210
216
194
193
195
179
175
172
160
155
151
151
147
142
165
161
156
169
165
161
168
164
160
164
161
155
158
155
147
154
151
142
143
138
127
131
124
114
106
100
88
79
74
66
140
136
136
228
223
231
234
228
236
221
216
222
210
205
210
198
193
198
195
190
194
189
183
187
191
186
189
175
170
171
185
181
181
185
180
181
172
167
167
168
163
164
158
153
154
164
159
159
163
157
158
159
154
155
160
156
155
162
157
157
164
159
158
156
152
149
171
167
165
188
183
181
180
175
174
169
165
164
168
163
165
171
165
168
166
164
165
151
152
151
135
137
133
124
124
120
119
120
115
105
106
101
104
104
98
122
123
118
113
112
107
67
64
59
57
54
47
82
79
69
140
135
129
158
155
149
160
157
152
170
167
161
170
166
161
162
159
153
160
157
151
153
150
144
151
148
144
159
155
152
165
160
159
178
173
176
185
181
188
186
184
194
208
206
218
224
221
236
236
234
247
241
239
247
240
239
244
244
241
247
246
241
247
248
244
246
157
141
139
68
52
42
114
84
70
99
71
56
125
82
59
120
71
48
127
82
59
94
55
35
112
68
46
101
57
36
104
58
33
68
34
16
76
40
21
76
38
17
64
33
16
50
27
11
46
24
12
36
22
10
28
16
7
29
18
7
40
25
14
58
46
37
155
143
136
207
205
202
236
241
242
216
227
216
188
206
176
187
206
172
195
214
178
193
208
172
180
188
152
166
171
136
158
165
129
149
161
122
141
161
117
127
153
103
156
177
139
99
131
77
104
140
89
117
151
110
145
170
145
166
184
168
175
188
177
214
220
221
226
230
234
240
241
249
240
239
248
233
231
242
226
224
234
216
215
222
209
208
214
198
197
199
189
185
183
176
171
167
166
161
157
161
157
152
161
158
153
160
156
152
157
153
145
157
153
143
153
149
138
150
144
133
140
134
124
120
112
103
99
91
84
156
152
151
229
226
232
221
215
223
208
203
207
194
189
190
184
179
183
191
185
192
189
183
188
196
191
195
195
190
193
188
183
184
191
186
188
181
177
175
172
168
168
170
165
167
154
149
149
147
143
141
142
138
135
151
147
144
164
160
156
146
142
139
160
156
153
200
194
194
212
201
204
214
206
209
194
189
189
163
159
158
162
157
157
156
152
154
163
161
162
143
143
141
131
131
126
133
133
129
116
116
111
105
104
96
129
127
120
156
153
148
118
115
109
90
87
78
99
92
84
131
124
116
152
148
142
159
155
151
167
163
158
169
165
160
161
157
151
149
145
140
140
137
131
148
144
140
152
148
145
156
152
149
168
163
164
187
183
190
195
193
203
202
199
209
217
215
227
236
234
246
244
243
250
244
240
246
236
231
238
233
228
233
235
227
229
134
111
108
89
67
54
107
76
63
104
74
59
110
72
55
115
72
51
104
67
45
84
49
31
115
66
45
106
62
41
94
54
31
79
42
25
85
43
23
76
38
19
56
30
15
41
22
12
40
24
11
44
24
11
39
23
9
37
22
10
37
22
11
79
68
59
194
187
182
232
234
234
224
235
231
221
238
225
201
221
190
182
206
162
188
211
168
184
205
158
174
189
140
162
173
121
147
160
105
140
159
102
134
161
98
124
156
92
160
181
141
93
123
74
95
130
83
107
139
99
139
163
135
149
168
145
173
186
174
209
216
215
218
222
226
229
230
236
229
229
238
227
226
236
224
223
231
220
219
225
215
214
219
202
201
203
188
186
183
179
177
173
173
169
166
170
166
163
170
166
162
165
161
157
163
160
152
158
155
146
155
150
140
148
143
132
137
129
120
125
115
107
112
104
96
175
170
170
202
198
201
198
193
195
188
183
184
171
166
167
175
170
173
194
189
194
202
198
203
206
201
206
200
195
200
199
193
197
198
193
195
179
175
174
171
166
168
163
159
160
140
136
135
137
133
130
140
136
133
131
127
124
156
152
149
159
155
153
168
161
160
164
152
152
131
121
122
121
111
112
166
159
157
161
157
152
152
148
145
146
143
141
140
139
138
141
141
138
126
127
121
135
134
130
106
104
98
107
105
98
126
123
117
137
133
128
130
126
120
102
98
90
112
105
97
134
127
119
154
148
140
154
151
144
165
161
155
169
165
160
170
166
162
167
163
159
153
150
145
146
143
138
162
158
156
167
162
162
170
165
167
180
176
181
196
194
203
215
212
224
225
223
234
239
237
249
245
243
252
243
241
247
237
232
241
238
232
239
216
203
205
124
92
83
109
76
59
103
75
58
91
63
48
83
57
43
113
72
50
95
57
38
107
60
42
115
68
47
87
50
32
93
51
30
81
40
21
95
48
23
83
46
21
49
27
12
53
28
13
48
28
12
37
21
7
36
22
9
45
29
15
35
23
9
111
106
98
223
221
219
236
242
238
211
226
215
208
227
212
208
229
200
186
210
160
183
206
154
177
199
135
170
188
119
156
172
100
142
162
89
133
161
86
129
162
82
124
157
82
163
183
146
90
118
73
90
121
74
94
126
83
114
138
105
124
145
116
168
180
170
176
183
174
183
189
184
217
221
223
231
233
241
233
232
242
225
224
231
219
218
225
210
210
216
191
191
192
176
176
172
180
178
174
187
183
180
181
177
174
175
171
168
170
166
162
162
158
152
153
150
141
146
143
133
140
134
125
131
123
115
130
120
112
123
116
111
190
184
186
176
171
172
184
179
179
176
172
169
173
169
168
199
194
199
216
210
217
208
203
209
201
196
202
195
190
197
189
185
187
178
173
174
181
176
177
174
169
170
162
157
157
146
142
139
142
138
135
139
135
131
136
132
128
136
132
130
151
145
144
138
128
125
75
67
67
125
126
138
74
65
60
81
69
62
126
118
114
137
132
128
149
147
143
134
134
130
134
134
130
134
134
129
122
119
116
101
97
93
109
106
100
106
103
97
132
128
123
136
132
127
120
115
109
118
114
106
123
116
107
139
131
123
149
145
137
158
154
149
165
161
158
176
171
169
184
180
177
186
182
181
171
168
166
167
163
162
185
180
185
191
186
193
184
180
187
198
197
205
225
222
236
237
235
249
242
240
252
245
243
253
244
243
249
243
240
248
235
229
237
154
142
142
103
70
58
135
94
78
96
65
49
95
64
45
78
48
34
119
73
50
102
63
45
87
54
37
97
63
43
76
45
26
90
46
22
100
54
27
102
54
26
77
43
18
48
28
10
74
41
21
60
33
13
48
27
11
25
15
6
46
30
17
44
30
17
178
174
171
241
242
244
221
230
220
210
228
208
205
223
202
197
218
180
176
198
131
168
189
113
165
186
104
159
178
95
149
170
88
139
165
82
129
163
77
125
160
73
117
150
70
161
180
140
91
118
81
88
117
73
91
120
78
95
120
82
116
134
106
162
171
160
146
152
139
178
184
177
216
221
222
223
226
231
222
222
231
220
219
225
215
214
221
201
200
205
187
187
185
183
184
179
188
187
182
191
187
184
190
186
183
180
176
172
167
164
158
156
152
147
150
147
139
153
149
142
155
150
144
156
151
144
143
137
131
136
131
128
183
178
180
178
173
175
203
198
199
184
180
178
184
179
181
202
197
204
211
205
211
178
175
176
139
138
138
112
111
108
98
97
93
93
90
87
128
124
122
161
157
155
160
155
157
154
149
148
137
133
129
130
126
122
123
119
113
115
110
104
115
105
101
63
55
48
56
42
33
66
56
50
49
38
27
88
73
65
148
138
135
133
130
124
134
131
125
152
149
146
147
146
145
133
133
131
132
129
127
119
113
111
125
121
116
125
121
115
128
124
119
133
130
124
129
125
118
125
122
112
121
115
105
135
129
123
160
156
151
173
169
165
173
168
168
181
176
177
190
185
188
197
191
198
197
193
198
186
185
188
189
188
192
204
201
209
211
208
218
209
208
217
225
222
234
242
240
252
244
243
253
246
245
252
246
245
250
243
239
247
227
220
228
122
108
107
100
70
58
128
91
71
100
64
46
96
64
44
87
55
36
136
91
65
102
65
46
83
49
30
103
66
43
74
43
21
101
51
30
105
52
29
80
39
18
61
34
16
49
29
12
75
43
22
65
33
16
63
32
15
52
27
14
48
29
14
76
66
57
224
224
225
234
240
238
218
231
218
214
230
211
210
226
204
187
206
163
164
184
122
156
175
101
152
171
87
150
171
80
144
168
78
136
166
73
128
164
70
121
157
66
110
144
60
156
176
131
92
117
85
88
115
76
91
119
74
95
120
78
130
145
120
134
146
125
149
158
144
194
200
196
203
208
205
207
211
211
219
219
224
219
218
223
211
210
215
198
198
200
194
194
191
188
189
185
186
184
181
188
184
180
189
185
181
183
179
175
173
169
164
163
159
153
163
160
154
167
163
158
166
163
157
157
153
148
147
142
137
154
151
147
184
180
180
167
163
163
171
167
167
172
168
165
191
186
188
208
202
207
146
143
143
64
63
59
69
72
68
84
85
84
80
80
81
64
64
63
57
56
52
96
93
90
156
151
153
156
151
151
131
127
124
136
133
128
135
131
125
118
111
103
87
74
69
60
53
48
42
31
20
56
35
20
43
27
13
83
74
67
174
165
163
159
155
151
124
120
116
121
116
113
136
133
132
137
136
134
131
130
126
137
136
132
125
122
117
130
126
120
123
120
114
135
132
126
125
122
114
121
117
108
118
114
104
132
125
119
162
156
153
188
183
185
197
192
197
188
183
187
188
183
187
194
189
196
196
193
202
201
200
208
206
205
215
214
212
224
225
223
235
232
230
241
229
227
238
239
237
249
245
243
251
245
242
249
244
241
247
233
230
238
213
206
213
117
98
94
97
68
54
106
73
53
120
78
58
97
62
42
118
77
54
128
80
56
79
49
33
101
62
41
86
48
24
85
45
23
94
49
27
97
50
31
79
42
21
59
32
16
46
24
11
68
36
18
60
32
18
35
19
6
44
24
13
33
19
4
103
98
94
231
234
229
205
214
199
210
224
207
210
225
205
201
217
189
187
202
170
166
181
145
159
174
130
153
171
107
144
167
76
136
163
68
124
159
58
118
155
52
114
149
55
108
141
58
153
174
126
95
121
90
92
120
82
94
125
76
110
137
94
124
143
112
127
140
117
166
173
161
185
190
186
179
184
178
192
197
193
198
200
199
201
201
202
201
201
202
200
200
200
193
193
192
183
183
182
178
177
174
183
178
175
188
183
180
184
180
177
177
173
170
171
167
162
167
163
157
165
162
156
159
155
150
151
147
142
141
137
131
160
156
152
176
172
171
143
139
136
116
111
111
134
129
127
182
177
178
160
157
158
56
58
56
88
92
95
138
140
149
155
157
172
157
159
178
138
141
157
107
110
120
73
74
77
107
104
105
162
158
158
145
141
138
139
136
132
146
142
138
127
118
115
131
118
118
138
128
128
70
62
59
43
36
28
59
50
43
132
121
118
179
169
170
162
157
157
142
138
134
101
98
93
111
107
104
130
127
124
140
140
136
130
129
124
116
113
107
146
142
137
143
139
133
140
136
131
144
140
133
134
130
122
123
119
109
122
113
106
149
143
138
182
177
179
203
198
204
184
178
185
176
171
173
181
176
179
191
187
195
206
202
212
215
213
223
223
221
230
227
223
231
230
228
237
235
233
244
234
232
242
235
232
239
235
230
237
227
222
228
224
220
227
184
175
178
87
69
65
100
67
53
121
81
60
132
85
64
84
52
35
128
84
61
128
79
56
98
59
42
94
55
37
93
50
26
108
58
32
102
51
28
84
40
20
77
39
21
66
38
20
64
36
20
68
34
19
44
23
12
22
14
5
41
24
13
32
19
10
150
146
143
229
235
224
193
205
185
191
203
184
196
209
188
197
210
187
188
202
181
174
188
160
164
176
141
153
169
118
142
165
81
131
160
62
118
155
50
110
151
42
112
146
56
111
140
64
155
173
125
102
127
99
104
131
95
114
142
99
107
136
89
115
142
97
129
147
116
159
167
153
145
151
141
163
167
157
180
183
177
188
190
185
204
205
202
206
206
205
189
190
187
181
182
179
178
179
176
175
175
171
183
182
177
189
185
182
183
178
175
177
173
170
173
169
166
176
172
168
167
163
158
162
158
153
159
155
149
149
146
139
168
165
161
179
176
172
136
131
122
63
50
40
74
63
60
172
169
166
129
128
129
135
136
148
173
175
196
162
167
186
166
168
189
173
175
201
171
174
201
165
169
191
138
141
155
91
91
95
145
143
143
150
146
143
136
132
129
150
145
142
148
140
138
176
166
166
177
163
164
151
131
131
140
119
117
154
137
134
177
165
163
169
163
161
151
146
144
151
147
142
138
135
131
111
107
104
118
114
111
132
129
125
149
145
141
139
136
130
157
153
148
158
155
150
148
144
139
148
144
139
143
139
132
133
128
120
119
114
106
139
132
127
176
171
171
199
193
198
179
175
178
150
146
144
154
150
147
177
172
174
191
185
190
211
207
212
218
214
218
218
212
217
219
215
219
227
224
229
233
229
235
233
228
234
228
222
228
224
218
225
210
204
210
126
118
118
47
34
25
106
67
51
138
93
70
113
73
54
94
61
45
109
69
47
112
69
45
124
80
58
100
59
35
115
64
38
118
65
43
99
51
32
101
53
29
94
54
31
74
43
22
65
37
17
74
38
18
45
24
10
35
20
7
43
25
12
38
27
18
196
196
193
212
221
207
191
203
183
192
204
184
195
208
188
196
210
190
187
202
183
174
189
162
165
178
145
148
165
117
133
160
77
122
155
56
116
155
48
107
149
41
114
144
60
118
139
72
160
173
131
107
132
105
112
138
106
116
143
103
112
141
92
113
141
93
120
141
106
151
161
145
154
161
149
168
173
164
183
185
179
203
204
200
198
199
196
191
192
187
186
187
182
185
185
181
184
184
180
183
183
179
185
185
181
185
183
179
181
178
175
187
183
179
186
182
179
177
173
169
173
170
164
164
161
155
162
158
152
161
158
152
180
177
173
171
167
164
138
132
127
73
62
52
37
26
16
148
143
143
175
175
183
183
184
204
155
158
176
140
144
160
149
152
170
161
164
185
164
167
191
160
164
185
136
140
154
86
87
92
126
125
125
147
144
144
132
129
127
155
151
148
167
163
160
180
173
171
180
169
168
177
164
166
177
165
165
175
168
165
165
162
157
156
151
148
144
140
137
138
135
132
152
148
145
142
138
134
140
136
132
156
152
149
146
142
137
147
144
139
152
149
143
158
154
149
146
142
137
134
130
125
140
137
131
130
128
118
131
127
118
142
136
131
172
167
166
194
189
188
190
185
185
145
141
139
137
133
128
157
150
147
175
167
166
186
179
177
202
197
196
210
206
207
212
208
209
211
206
206
213
208
210
208
203
207
207
202
205
206
201
204
196
193
193
110
103
99
47
34
26
91
59
49
101
63
46
92
59
40
130
84
65
113
71
49
119
76
54
130
86
65
89
48
26
109
59
35
104
54
33
80
42
22
79
44
23
77
43
22
103
57
30
71
38
17
69
35
15
55
31
14
38
21
9
36
17
6
56
47
38
200
207
200
197
209
195
186
199
179
183
196
174
189
203
181
185
200
178
179
194
172
169
185
154
159
175
136
142
161
107
125
154
68
116
153
48
113
152
44
108
147
43
118
142
68
125
141
83
164
175
137
107
131
105
111
136
105
112
138
101
109
137
90
117
145
102
138
159
132
144
157
139
155
164
149
170
175
166
184
188
181
179
183
175
178
181
175
190
191
184
186
187
184
195
195
194
195
195
194
193
192
193
190
190
189
187
188
183
188
187
182
184
180
177
171
166
163
169
165
159
165
162
156
159
155
149
163
160
154
167
163
157
180
176
171
163
159
155
145
142
137
114
109
104
93
90
85
172
170
170
184
185
196
153
156
171
122
125
137
110
113
125
126
129
143
137
139
156
148
152
170
133
137
156
110
111
124
85
84
88
120
120
120
150
149
149
140
138
136
155
151
148
176
172
171
171
165
165
161
154
152
145
137
135
141
134
130
138
131
127
136
131
127
128
124
121
125
121
118
131
127
124
154
149
146
164
160
157
153
149
146
157
153
150
142
139
134
133
129
124
154
151
145
163
159
153
142
138
132
108
105
97
115
112
102
108
106
94
134
130
120
152
146
142
178
173
171
187
183
179
183
180
176
147
143
137
132
129
121
153
149
142
175
170
166
185
179
175
193
188
185
192
188
186
196
192
189
196
191
189
194
190
187
192
188
186
191
187
185
181
177
175
167
164
160
74
64
57
46
30
23
71
47
37
103
64
48
135
86
63
122
76
53
98
58
36
117
73
51
93
60
37
92
53
31
109
59
38
92
51
31
88
48
27
82
44
23
70
36
20
97
54
26
75
39
17
72
37
18
53
26
12
45
26
12
34
17
5
89
85
78
199
209
199
189
203
188
181
195
177
172
184
164
167
182
157
166
180
151
161
176
139
161
179
133
155
169
122
141
157
99
132
154
73
127
151
57
120
145
50
116
140
55
124
140
78
129
143
93
166
176
144
105
130
102
103
129
99
101
127
94
103
130
90
103
131
86
103
128
88
106
127
93
113
129
102
125
135
119
152
158
150
155
161
150
168
174
163
190
191
187
195
196
193
198
198
197
197
197
199
198
198
201
191
192
191
187
187
183
179
179
174
165
164
159
167
166
161
175
173
168
172
170
165
171
169
164
168
167
161
169
168
162
181
179
174
169
165
162
164
162
157
176
172
167
177
173
168
196
195
195
166
167
174
120
121
128
95
96
103
90
92
102
101
103
116
120
122
137
138
141
158
120
123
139
85
86
94
76
76
76
120
120
120
153
153
153
153
152
151
148
146
143
166
163
162
159
156
155
141
137
134
127
123
119
121
117
111
120
115
110
119
114
110
118
115
110
116
112
109
132
128
124
156
152
147
161
158
153
166
162
159
169
165
162
148
144
140
114
110
105
134
131
125
145
142
136
153
150
144
112
109
101
82
79
69
96
93
83
115
111
102
136
130
126
175
170
167
181
177
173
183
179
175
175
171
167
162
158
151
172
169
162
190
185
179
199
195
189
192
188
183
181
174
172
184
178
175
190
184
182
188
184
181
188
184
180
185
181
178
174
170
167
127
123
120
43
34
25
61
39
28
114
69
52
118
78
58
150
101
76
124
76
52
125
79
57
134
91
66
108
69
43
91
52
30
96
52
31
81
46
26
84
46
26
83
46
25
77
40
23
99
53
29
77
35
12
74
35
15
50
24
14
55
31
15
39
20
4
97
99
92
177
189
178
172
184
171
169
180
166
160
172
155
149
162
135
148
163
124
151
167
120
154
169
122
154
164
123
151
158
119
148
159
114
144
156
108
137
149
101
136
147
102
140
148
114
140
147
120
174
180
164
98
123
94
95
119
91
93
118
86
93
120
81
90
118
73
87
115
67
86
112
69
91
110
78
114
126
104
141
149
134
173
180
170
184
190
182
179
185
175
191
193
186
204
203
201
211
210
214
198
198
201
191
192
191
185
185
181
174
175
170
173
174
169
185
186
183
191
191
187
185
186
181
178
179
174
171
172
167
173
174
169
184
183
179
182
179
175
184
180
177
181
177
174
178
174
171
184
182
182
150
153
157
105
106
112
86
85
89
79
81
85
77
81
86
94
96
106
114
117
131
109
112
123
77
76
81
77
77
76
113
113
113
146
146
147
149
150
150
151
152
149
150
147
144
158
153
151
155
150
148
134
131
127
127
123
118
119
116
111
112
110
105
120
116
109
119
115
110
133
129
125
149
146
141
159
155
151
180
176
172
175
171
167
154
150
146
138
134
129
137
133
128
134
130
125
145
141
135
139
135
128
97
95
84
91
87
77
113
108
100
120
115
109
172
167
164
177
173
170
178
174
171
182
178
175
179
175
172
179
175
172
186
182
178
191
186
181
193
184
181
183
173
172
182
174
172
183
176
173
184
180
177
192
188
184
183
179
175
161
157
154
100
94
91
53
37
26
77
43
33
102
60
44
100
69
48
137
92
66
127
83
60
98
65
47
122
82
58
120
75
52
85
43
24
112
60
37
98
52
28
89
49
26
83
47
25
98
56
33
106
57
32
85
40
19
75
37
20
35
19
9
49
28
13
51
33
17
113
118
111
163
176
166
154
165
155
158
169
159
155
164
153
139
151
129
133
149
114
139
155
116
147
158
127
152
156
136
154
158
139
152
159
142
148
155
136
144
150
127
144
152
129
144
152
133
142
149
134
177
183
174
90
112
86
89
112
82
90
115
78
90
118
75
88
116
69
83
111
65
85
111
68
88
108
71
102
116
89
152
163
146
166
175
159
154
166
141
162
171
153
196
198
192
208
208
207
192
192
191
181
182
179
193
193
190
183
184
179
182
182
178
199
199
196
202
203
201
195
197
195
187
191
186
179
183
177
174
179
173
174
180
174
191
192
187
196
193
189
176
172
169
159
154
151
153
149
146
158
157
155
141
142
144
82
83
83
65
65
64
61
62
61
55
56
55
65
66
66
80
83
86
81
83
85
62
62
61
88
88
87
118
118
119
156
156
159
164
164
167
160
161
162
163
161
162
167
164
165
161
158
157
147
143
141
131
127
124
125
122
116
117
113
108
118
114
109
121
117
113
132
128
124
162
158
154
155
151
148
170
166
161
175
171
167
145
141
137
142
138
133
145
141
136
135
131
125
131
128
122
134
131
124
111
107
98
99
96
85
119
115
105
126
122
115
170
166
161
177
173
169
174
170
167
182
179
176
184
179
176
183
176
173
175
167
161
174
166
160
178
170
165
184
176
172
178
173
170
174
169
166
173
170
166
180
177
172
177
173
168
157
153
148
87
79
75
45
33
18
79
47
31
114
69
52
103
70
50
127
82
61
105
70
50
62
39
22
110
70
48
114
70
49
105
56
35
124
66
41
110
55
29
106
58
32
82
46
26
92
52
28
94
45
19
83
39
19
70
33
18
47
23
13
52
30
16
53
42
26
124
133
122
154
166
156
146
156
149
147
157
152
141
148
141
127
135
121
124
135
112
127
137
111
133
140
119
142
145
130
148
150
140
147
150
142
145
149
137
142
146
132
141
147
133
138
147
133
136
145
131
173
179
171
96
116
88
95
115
86
93
117
78
89
116
69
88
118
66
79
111
60
79
108
60
77
100
55
92
110
70
126
142
109
137
154
124
150
166
139
188
198
182
198
201
196
190
192
185
170
173
164
179
182
175
188
190
185
182
183
178
196
198
194
211
213
213
203
204
204
193
195
193
186
191
185
181
188
182
171
183
176
169
183
174
185
189
183
198
194
191
182
178
175
152
148
144
141
137
132
145
143
139
105
105
103
48
49
46
43
44
41
41
41
37
33
33
29
43
43
37
51
51
47
50
52
48
52
53
48
93
93
90
125
124
126
156
154
159
179
178
183
178
177
181
174
173
176
170
169
171
170
165
167
160
155
155
142
137
134
125
121
115
114
111
105
119
115
110
133
129
125
136
132
128
152
148
144
163
159
154
145
141
136
152
149
143
126
122
117
118
114
108
138
135
128
130
127
122
118
114
109
126
122
116
127
123
115
122
119
109
130
128
118
144
140
135
160
156
151
161
158
150
166
162
157
180
176
172
180
176
172
174
168
162
169
162
153
170
162
155
169
163
156
174
168
163
174
169
166
169
165
162
159
155
152
159
156
151
154
151
145
128
125
121
50
47
41
58
39
22
95
58
42
93
56
39
118
82
61
121
79
55
73
44
28
74
47
30
101
65
46
88
49
29
122
62
40
122
65
41
106
53
32
83
44
24
81
41
22
102
54
30
95
46
22
84
40
21
64
32
16
44
24
12
53
32
18
57
48
34
118
128
111
123
136
120
122
132
122
124
133
127
118
126
118
111
116
104
113
119
103
113
120
103
115
122
106
126
130
117
135
137
129
136
137
130
135
136
125
132
135
124
128
135
124
127
134
124
124
132
119
163
170
160
108
129
97
106
127
94
98
121
82
89
117
65
86
118
60
78
113
55
70
104
49
68
98
46
78
103
51
85
109
54
119
140
94
149
164
135
179
188
171
184
190
178
172
180
167
167
174
162
180
187
178
178
182
176
192
193
189
198
201
197
192
198
192
185
191
185
173
178
172
176
182
176
177
188
182
170
187
181
165
183
175
180
186
181
199
195
195
184
180
179
164
160
158
149
145
142
146
144
141
84
85
80
34
35
30
23
24
19
21
22
16
17
18
11
21
22
16
23
24
19
26
27
22
53
53
49
96
96
93
119
118
119
167
163
168
196
193
198
192
190
196
185
181
187
181
176
182
182
177
182
169
164
168
150
146
142
124
121
114
105
101
96
109
105
99
134
131
125
148
144
139
152
148
142
176
173
167
156
152
147
140
136
130
113
109
103
87
84
75
92
89
79
103
100
92
114
111
102
118
115
108
121
118
111
117
114
106
118
115
107
143
140
134
156
153
146
152
148
140
162
159
150
175
171
164
176
172
168
173
166
159
170
161
154
167
159
153
169
164
156
171
167
159
175
171
166
170
165
162
151
147
143
140
136
131
130
127
122
129
125
126
54
49
45
64
43
32
85
55
39
70
45
29
118
83
60
110
73
52
84
55
38
91
60
42
95
57
37
102
54
33
104
55
35
90
50
29
83
47
28
60
32
14
93
49
31
89
48
28
90
46
24
61
32
17
51
29
15
44
27
13
60
42
24
59
52
39
109
119
105
100
108
95
95
102
92
101
108
99
105
111
103
103
109
96
105
112
96
106
113
97
106
114
98
110
117
103
112
118
105
117
123
107
132
141
114
134
147
111
132
146
109
126
136
111
117
125
110
155
160
152
114
140
102
109
133
93
100
125
80
91
122
65
81
115
52
71
105
43
63
96
36
64
97
42
74
104
51
83
112
59
99
126
76
114
135
92
138
155
122
154
165
143
158
167
151
171
180
168
173
180
172
177
182
177
177
181
175
160
167
152
150
159
142
160
168
153
149
160
147
158
169
157
170
183
173
173
190
182
167
185
176
175
184
177
195
194
192
190
186
184
176
172
169
159
156
152
140
138
134
68
69
64
25
25
21
14
15
9
12
14
6
12
14
7
13
14
9
15
16
11
23
23
19
51
51
47
96
96
95
129
129
132
178
175
180
200
194
199
203
201
205
197
193
196
189
183
187
179
174
177
166
161
163
152
148
144
136
133
127
112
108
103
109
106
100
119
115
110
145
142
136
143
140
135
167
163
157
170
166
161
146
142
137
125
121
115
103
99
93
83
79
71
104
101
92
111
108
98
124
121
112
130
126
121
131
126
119
138
134
128
150
146
141
150
144
137
152
145
137
161
156
145
169
164
154
169
163
155
165
157
148
165
156
147
162
154
146
170
163
155
174
170
164
176
172
169
172
168
164
153
149
144
125
121
115
135
130
128
192
187
192
182
175
180
133
123
120
89
69
56
75
46
30
111
73
53
84
55
38
91
57
37
125
81
59
125
74
51
95
49
29
82
42
22
96
52
31
79
45
23
87
46
24
102
56
32
73
40
18
71
38
21
32
17
7
37
23
11
57
36
18
53
37
20
79
77
59
102
112
92
89
96
81
84
91
77
91
99
84
99
104
91
103
109
93
101
109
88
94
102
81
88
96
75
84
94
71
80
90
64
99
120
66
124
149
82
127
151
85
133
157
91
127
149
91
103
118
84
137
145
130
116
144
97
110
139
86
103
132
74
90
121
58
81
115
51
72
104
41
66
97
37
69
99
45
79
108
59
86
115
67
95
121
76
95
117
78
103
122
87
109
123
93
111
122
94
124
133
114
128
136
120
146
153
138
133
142
121
104
121
84
115
131
100
132
146
121
142
155
132
142
153
134
156
169
153
163
177
163
160
176
161
167
178
165
186
187
182
192
188
185
173
168
165
151
147
143
160
157
153
81
80
76
16
17
10
9
11
4
8
9
4
10
10
5
11
12
6
14
15
9
13
14
9
25
26
22
74
74
72
124
123
126
174
171
173
189
183
182
211
207
207
214
209
211
204
199
200
188
183
183
171
166
165
156
152
149
146
143
137
125
122
116
119
116
110
128
124
118
160
157
152
154
150
144
153
149
144
161
157
154
157
153
149
147
144
138
140
136
130
106
103
95
99
96
85
110
108
97
110
105
95
114
107
98
120
113
106
136
131
124
155
151
144
147
141
131
148
140
127
154
146
130
158
151
134
156
149
133
157
150
137
164
156
146
161
153
144
165
158
149
172
167
161
169
165
162
163
159
155
150
146
140
111
108
100
133
128
126
196
191
195
198
192
197
191
187
188
134
121
116
78
52
37
103
66
49
99
62
44
118
76
53
116
70
48
95
50
30
101
55
33
107
59
38
109
63
40
97
53
29
86
43
23
96
50
26
103
55
29
79
39
19
43
23
12
27
16
5
58
36
20
50
37
25
97
106
64
108
127
70
83
99
58
70
86
52
75
89
56
82
94
60
95
105
74
98
107
80
93
104
76
84
96
64
73
89
53
73
93
47
109
143
58
126
159
73
135
164
89
146
174
104
139
166
100
110
133
85
135
147
126
111
142
87
110
142
83
111
142
79
101
133
66
98
128
67
91
120
62
85
113
58
80
105
58
85
109
68
89
113
72
93
115
77
94
115
82
91
108
77
82
94
63
87
94
68
84
89
68
84
92
66
101
110
86
116
128
98
95
113
69
107
125
87
119
136
103
129
145
115
134
149
124
144
159
136
154
168
147
155
170
149
161
171
155
177
179
171
184
181
177
180
176
173
152
148
145
179
175
172
102
100
96
9
9
4
10
11
5
8
9
4
8
9
3
10
11
4
7
8
2
11
12
7
19
20
15
59
60
57
124
124
126
163
158
160
182
175
172
201
195
193
211
207
207
196
191
191
170
166
163
146
142
139
131
127
124
127
122
118
121
118
111
115
112
103
123
119
111
141
137
131
135
132
125
135
132
125
145
142
136
156
153
149
136
133
127
124
122
113
109
106
97
104
102
91
108
105
95
106
103
92
109
104
94
119
110
102
135
127
118
151
145
133
148
141
126
154
145
129
152
140
124
150
138
121
154
144
128
157
150
134
164
157
147
159
154
145
152
146
134
161
154
146
167
162
158
159
155
150
156
153
147
130
126
120
147
143
139
169
164
163
169
165
165
175
171
173
172
166
166
101
80
67
105
71
50
95
60
41
108
67
45
116
70
46
90
45
25
87
46
28
85
48
30
75
42
20
97
52
29
80
36
21
113
62
38
96
51
28
88
44
24
67
34
18
41
24
13
43
29
19
54
46
28
129
146
65
125
154
58
96
128
42
75
104
39
74
100
47
86
104
56
98
113
70
100
114
76
99
112
78
92
108
73
83
103
63
82
109
55
113
149
62
134
171
83
145
177
103
150
182
112
145
176
110
120
149
97
144
160
133
103
136
79
111
143
87
115
146
91
117
147
93
115
143
91
109
134
85
105
125
79
100
118
79
89
106
72
88
105
75
86
106
76
89
109
80
83
100
69
79
90
61
86
92
69
94
97
75
101
107
83
118
126
101
116
130
92
104
122
80
109
129
89
115
135
100
119
138
105
127
143
113
137
153
124
148
160
135
149
162
137
154
165
144
175
180
168
184
183
179
191
187
184
166
162
158
174
170
165
137
133
130
8
7
3
9
10
5
9
10
5
12
13
7
23
22
16
6
7
2
8
8
3
12
13
7
26
27
22
91
89
87
136
131
130
152
144
141
164
157
154
172
164
161
162
152
146
151
142
134
142
136
129
128
122
116
114
111
103
124
119
112
121
117
110
112
106
97
111
106
95
120
116
107
120
115
103
108
105
92
121
117
108
122
118
108
117
113
102
105
99
90
100
94
85
105
99
90
125
122
111
123
119
109
127
117
108
140
128
118
142
130
113
140
127
105
149
135
115
149
136
117
148
137
118
149
139
122
148
141
125
152
145
132
160
154
144
155
150
139
149
143
133
153
148
142
153
149
144
141
138
132
106
103
97
91
90
84
125
123
118
165
162
157
178
174
173
185
181
183
144
126
120
118
76
54
124
76
55
108
67
44
108
63
41
97
53
32
98
56
37
92
50
34
95
52
31
109
58
33
98
50
27
108
63
39
64
35
16
70
36
19
72
40
23
41
27
14
18
11
5
57
53
29
142
166
71
132
165
59
114
153
52
95
133
51
87
119
53
97
122
63
103
124
70
105
126
76
108
125
86
103
118
85
89
108
68
85
109
58
109
141
65
136
172
85
143
177
100
147
178
110
142
172
111
118
147
98
148
166
138
97
131
80
109
142
93
121
150
105
131
155
116
131
152
116
124
143
106
117
131
95
118
130
96
104
116
88
90
105
79
85
102
76
84
103
75
78
95
64
87
98
70
100
106
84
116
119
98
126
130
109
130
139
111
126
142
106
123
141
99
115
138
95
112
136
97
109
130
94
119
138
103
134
151
114
140
155
120
142
157
121
145
160
124
155
167
138
177
178
171
196
192
188
174
170
165
161
157
152
148
144
139
30
29
25
2
3
0
6
7
2
25
21
17
58
47
43
15
15
8
10
12
5
10
11
5
20
18
12
69
64
59
95
88
83
101
91
85
98
87
80
91
77
67
94
79
67
120
103
89
126
112
97
120
111
99
109
105
95
117
111
103
120
112
104
121
114
105
115
107
98
105
96
83
107
99
84
94
86
73
101
92
81
107
99
89
104
95
88
103
94
86
102
92
84
113
104
95
121
114
103
132
123
109
133
120
106
132
116
97
128
111
84
132
115
87
139
122
97
146
132
110
146
134
115
150
140
124
151
144
130
149
142
128
159
153
141
159
156
144
146
141
131
136
130
122
98
93
88
79
76
71
52
52
45
23
24
17
84
82
76
126
124
118
152
149
144
149
146
143
151
140
132
102
72
56
90
60
45
107
69
45
104
61
38
110
65
44
103
57
38
81
44
27
99
58
37
116
63
38
127
70
44
93
49
30
64
36
18
70
36
20
57
31
18
46
28
16
39
21
12
89
95
51
149
180
78
132
170
63
123
163
62
108
148
61
97
132
59
103
133
70
107
133
77
106
129
79
104
122
81
101
115
80
91
106
70
89
107
67
100
121
71
123
151
85
132
164
91
133
164
97
124
154
100
106
134
87
145
161
136
102
131
94
109
139
101
121
148
115
135
158
128
139
157
131
133
150
123
130
145
112
126
140
107
109
123
93
96
111
84
91
106
80
87
103
76
84
99
71
96
108
83
110
117
95
126
131
109
137
143
121
141
149
122
137
151
118
134
152
113
127
151
106
114
142
96
110
136
93
119
142
100
130
151
105
134
153
104
133
152
98
128
148
89
135
153
99
169
175
158
185
182
179
170
166
162
152
148
143
151
146
139
91
89
81
7
9
1
5
7
0
13
11
5
24
20
15
19
20
13
18
20
13
15
17
9
31
26
19
63
54
45
77
65
54
84
70
59
85
68
55
90
74
59
75
63
49
77
64
50
110
94
78
117
102
89
125
116
105
126
117
106
115
104
92
114
102
91
116
103
91
105
93
77
109
98
83
108
97
83
94
81
69
96
85
74
98
88
77
101
92
80
103
94
82
119
111
99
127
117
103
129
114
99
127
109
91
126
108
83
128
110
80
133
118
88
144
127
103
154
140
121
158
148
133
153
146
133
150
143
129
148
142
128
151
144
131
146
141
128
127
122
109
115
108
100
100
96
91
113
110
105
94
92
88
20
17
14
43
39
33
98
93
86
110
106
98
123
120
112
132
127
122
93
85
81
53
34
24
105
67
45
101
66
47
96
58
40
102
57
36
90
53
32
99
59
38
86
45
26
100
58
37
84
45
26
65
37
20
71
40
26
62
36
21
48
29
16
46
29
18
114
124
81
152
180
98
141
173
84
132
167
78
112
147
71
103
135
72
109
137
85
112
137
90
107
128
84
103
119
82
106
119
86
108
116
87
105
115
85
104
115
80
106
125
81
112
138
84
112
138
84
108
135
82
88
115
66
132
147
118
104
128
100
106
132
101
113
142
113
129
155
130
135
157
133
134
152
125
133
149
119
129
145
116
115
131
104
105
122
96
99
115
90
91
106
82
97
112
88
110
123
98
117
128
104
133
143
120
141
151
128
146
157
131
143
156
124
142
161
122
136
161
111
123
153
100
115
144
93
122
148
92
133
156
96
135
156
94
128
149
81
126
148
79
139
159
100
155
167
132
168
172
162
165
162
158
161
156
152
154
147
140
140
132
121
95
89
79
39
36
28
27
24
17
37
25
19
56
40
33
51
41
33
53
40
30
68
50
38
83
59
46
93
71
56
105
86
72
120
101
88
121
107
94
85
75
62
44
36
23
74
60
46
104
88
73
111
97
82
122
109
94
120
108
90
118
103
85
109
93
78
107
93
77
105
92
77
106
93
81
95
83
70
77
65
51
94
83
69
100
89
74
113
102
85
125
114
96
129
114
95
131
112
93
126
108
84
125
108
81
130
113
84
135
120
92
141
124
103
148
135
118
156
147
134
160
151
139
151
143
131
146
140
127
141
134
120
134
127
113
115
109
97
115
111
101
149
147
140
155
151
148
142
138
136
86
80
79
30
24
18
76
72
62
87
86
74
101
99
91
113
109
104
133
131
127
86
68
58
95
58
38
80
52
33
87
53
31
83
47
27
71
42
25
90
52
34
74
38
21
82
45
25
70
38
19
59
34
17
63
35
20
58
33
18
42
26
15
41
32
23
128
137
105
153
174
119
150
171
114
139
161
105
118
145
86
115
141
86
117
139
91
115
137
92
108
126
86
104
118
88
116
124
98
123
126
103
120
122
99
116
119
87
105
112
71
102
115
69
103
119
68
97
116
64
75
98
45
119
135
100
103
123
97
99
122
94
105
131
105
116
143
118
122
146
120
130
150
124
132
153
124
128
150
120
120
143
115
114
136
109
104
125
101
98
114
92
101
115
94
116
130
106
123
137
113
138
148
128
143
155
133
147
161
135
143
160
124
141
164
116
136
164
109
128
161
102
122
154
94
125
152
89
136
157
94
138
156
90
130
148
79
137
156
91
148
166
106
149
167
115
161
173
145
166
167
157
153
147
142
158
151
144
156
147
134
131
117
102
111
101
91
147
138
132
122
96
91
103
65
57
101
61
53
102
62
54
104
69
57
107
78
63
116
92
78
121
100
88
133
115
105
134
123
111
93
85
72
47
39
26
54
43
29
85
69
53
104
87
69
104
88
69
110
94
74
111
93
74
109
92
74
113
98
80
107
93
76
96
83
67
101
88
72
92
79
62
90
77
58
108
93
74
125
110
91
129
112
90
124
103
78
128
107
79
129
108
79
129
110
82
131
115
88
139
122
98
142
125
102
143
129
108
151
142
126
156
149
136
149
142
128
147
140
127
140
133
120
133
126
114
115
110
100
116
113
104
145
142
136
149
145
141
137
132
129
108
103
100
38
33
28
42
37
29
86
83
73
84
81
72
107
104
96
139
137
130
157
148
139
102
70
53
107
65
43
103
59
39
87
49
30
81
50
31
82
48
30
80
41
24
97
54
33
86
47
27
74
42
22
49
30
16
40
25
16
28
18
9
51
44
31
118
118
98
110
115
98
121
129
114
148
155
144
156
168
152
143
157
130
134
150
116
128
142
109
112
127
94
106
118
89
120
124
99
128
128
107
128
128
105
127
127
95
123
121
84
111
112
72
101
105
62
100
106
61
80
94
45
121
136
101
99
115
90
94
114
86
96
119
91
102
126
97
109
134
105
118
143
114
126
151
122
127
153
122
121
149
118
117
143
114
109
134
106
102
123
100
106
120
98
118
131
109
127
140
118
136
148
128
137
151
129
137
155
126
134
158
118
129
161
102
131
163
102
130
164
102
129
160
98
129
156
89
136
156
90
136
153
87
136
153
89
144
161
102
154
172
115
150
172
116
159
177
135
170
177
159
158
159
149
155
152
142
157
150
137
133
116
102
101
89
76
148
141
135
168
155
149
132
106
95
117
84
71
116
81
67
120
84
71
122
90
76
125
99
85
130
110
98
140
123
111
139
126
114
90
80
68
59
49
36
62
51
35
87
69
51
101
84
65
106
89
69
113
96
76
106
89
70
104
87
68
103
86
68
110
95
76
102
87
70
98
83
65
109
93
74
115
98
76
120
100
77
122
101
76
121
98
69
121
95
66
125
101
69
128
108
76
131
112
82
133
117
89
139
123
95
145
130
104
146
134
114
141
132
115
142
134
119
144
137
121
139
132
116
133
127
110
122
115
102
98
92
79
88
84
71
107
103
95
136
132
130
136
132
129
126
123
117
66
63
57
19
15
9
78
73
65
85
81
73
107
105
96
138
135
127
177
173
169
146
137
126
103
75
61
85
47
31
88
51
32
87
54
32
68
39
19
78
41
22
97
54
36
70
36
21
76
44
22
53
31
16
40
24
15
16
12
3
63
58
46
96
91
77
82
81
78
149
148
153
180
179
190
203
203
220
218
219
224
169
174
163
146
152
137
131
141
120
116
124
98
119
121
93
124
124
97
131
129
103
141
138
104
143
140
102
125
125
86
112
114
76
110
113
72
92
103
56
129
143
109
89
109
76
85
106
75
88
109
76
88
112
78
103
128
97
115
141
112
120
147
117
120
148
117
117
147
113
114
142
108
113
138
107
111
132
107
114
130
110
121
134
116
133
147
129
135
149
129
125
142
116
122
145
109
124
150
105
124
156
98
128
163
99
131
166
100
132
164
97
131
157
89
133
153
88
136
153
91
141
157
102
149
164
118
157
173
132
158
180
132
159
183
134
162
182
149
162
172
154
156
156
144
150
145
135
147
138
124
130
117
104
116
105
94
156
148
138
159
141
131
136
107
94
129
95
80
130
97
82
132
99
86
133
103
91
134
112
98
143
124
110
109
91
78
68
55
40
64
52
35
83
70
51
102
84
64
104
85
66
113
95
74
115
97
76
111
93
73
112
94
73
104
86
65
108
90
70
117
99
78
118
98
77
122
101
80
127
104
79
121
98
69
119
95
66
124
100
70
125
103
72
132
110
80
138
119
89
140
125
96
139
126
100
140
130
103
145
135
113
153
146
128
150
144
128
143
137
120
139
133
116
133
126
108
128
121
103
111
105
88
87
81
66
61
57
43
73
68
60
110
107
102
127
123
118
135
131
125
126
123
117
75
72
67
94
91
82
76
72
63
104
100
93
140
136
130
161
158
152
180
178
172
146
138
131
83
55
45
85
47
30
90
52
32
80
43
25
76
42
23
85
48
28
72
38
21
56
29
12
52
28
15
26
14
5
9
8
2
98
97
90
143
145
143
174
174
177
170
171
175
165
165
170
175
173
181
215
214
224
201
200
201
164
167
159
143
150
136
134
140
122
135
138
115
135
136
109
136
135
105
147
144
111
150
147
111
135
135
100
125
126
90
116
121
83
104
116
74
141
153
123
89
116
72
80
107
64
85
108
68
91
113
76
104
127
94
111
135
103
108
136
103
109
140
103
108
140
100
107
138
98
110
137
101
117
140
114
125
144
125
130
146
133
139
153
140
139
153
134
126
143
114
121
145
106
119
148
97
123
155
96
127
160
99
133
167
99
136
168
96
134
160
88
130
151
84
132
151
94
137
155
109
145
160
122
153
168
132
159
178
138
157
180
132
153
175
135
160
173
150
164
167
153
155
153
143
150
146
135
151
141
129
128
117
102
120
110
96
148
132
123
147
127
113
138
111
97
137
110
96
139
115
100
139
118
101
142
121
103
138
117
99
100
82
63
80
63
44
90
72
52
102
82
62
108
85
64
116
92
70
121
97
74
123
100
78
125
106
82
125
104
81
121
99
76
123
100
77
127
104
80
128
105
81
128
105
79
126
102
74
125
100
70
129
103
73
134
110
80
134
115
84
139
120
90
148
132
105
152
141
118
151
144
124
154
147
128
146
139
121
145
139
122
148
142
124
140
135
116
133
128
109
127
121
102
126
119
101
112
105
89
96
90
76
68
63
49
53
49
38
97
95
87
157
154
148
161
157
152
166
162
159
159
156
151
143
140
133
109
106
98
129
127
117
149
146
139
146
142
138
165
161
156
174
172
165
154
147
138
104
83
69
95
62
44
76
43
29
64
40
24
77
58
44
81
64
53
88
76
68
109
98
91
110
105
100
138
139
140
178
178
180
170
171
173
166
166
167
160
160
162
158
158
160
155
155
157
179
179
183
199
198
199
169
171
165
149
152
142
137
140
126
138
141
125
143
146
126
146
148
122
149
148
120
150
149
121
145
145
115
134
137
104
127
134
101
113
127
91
146
158
132
109
137
85
94
125
73
91
118
68
92
115
73
101
122
85
104
128
92
100
128
90
94
126
82
92
125
75
101
133
84
110
138
97
122
144
119
130
148
131
134
151
138
138
154
139
142
157
138
132
152
116
127
151
107
127
154
102
132
162
106
138
169
113
143
175
110
144
175
99
141
171
91
137
161
87
133
150
99
132
150
111
137
154
118
147
161
129
151
167
132
150
168
126
153
170
132
160
174
143
169
178
156
168
171
158
154
152
143
150
144
132
147
139
122
126
111
95
121
105
92
127
114
99
120
104
88
125
105
89
119
100
83
120
100
82
125
103
84
126
102
79
123
101
79
115
94
73
115
92
68
114
89
64
122
94
70
125
98
72
127
99
72
128
101
75
128
104
78
127
103
77
125
99
73
129
102
75
129
102
75
127
100
72
126
101
71
127
101
74
128
102
73
130
107
77
136
115
84
140
122
93
141
124
96
151
138
112
156
148
127
157
150
134
162
156
144
163
158
144
151
145
129
144
137
122
127
120
103
117
111
93
114
106
88
119
112
94
119
113
97
98
93
79
77
73
59
44
41
29
49
47
39
153
149
144
178
174
172
176
172
169
183
179
175
167
163
158
141
138
129
144
142
132
148
144
139
153
149
144
164
160
154
154
150
145
176
172
167
176
173
168
178
172
166
166
160
157
177
172
171
191
188
188
199
196
195
203
204
204
201
199
200
206
204
207
211
210
216
186
187
188
157
158
154
148
148
144
158
158
154
161
160
157
145
144
141
160
160
158
180
179
177
162
163
154
145
146
135
131
133
120
129
130
118
137
139
126
147
149
133
149
149
133
151
152
135
153
155
135
144
150
123
129
140
110
112
130
95
146
161
132
132
161
105
102
136
78
97
128
72
98
124
74
91
115
70
91
118
75
89
121
72
77
110
57
80
112
54
99
129
75
110
139
93
126
148
122
133
152
135
135
151
136
135
150
131
140
155
133
132
152
113
131
154
107
138
161
116
143
169
124
149
178
127
151
185
120
151
185
105
145
177
92
145
171
90
135
153
96
131
149
107
133
150
114
139
154
119
144
159
121
147
163
120
156
172
130
162
178
138
167
181
147
168
177
151
167
172
152
157
157
143
148
143
128
137
126
110
132
117
101
128
113
97
117
100
84
115
98
80
111
92
72
114
92
74
115
93
74
119
97
75
120
95
72
119
95
70
123
96
69
125
96
70
127
100
73
131
104
76
131
103
76
130
103
76
132
105
78
131
104
77
129
102
74
127
99
72
128
101
73
126
100
72
131
106
78
133
108
80
131
108
80
132
112
82
136
118
89
144
129
100
148
133
107
147
135
110
151
142
118
157
150
132
161
156
143
165
160
148
163
159
147
155
150
139
143
138
126
107
100
85
96
85
68
107
100
83
112
109
92
101
97
83
77
75
60
45
43
30
26
23
18
136
133
129
183
180
175
182
178
174
178
174
171
171
168
164
154
151
145
143
139
134
154
150
146
167
163
158
170
166
163
162
157
155
166
162
158
193
189
186
208
204
204
218
214
216
218
214
216
217
212
215
212
208
211
213
212
215
211
209
214
201
200
204
187
187
189
165
165
163
140
141
136
123
125
118
109
110
103
109
107
101
112
110
106
154
153
151
157
159
153
129
132
118
137
139
127
133
135
123
124
125
115
129
131
119
140
142
129
141
143
129
146
147
135
152
155
140
147
153
135
130
141
119
118
136
106
150
165
136
142
171
115
108
141
81
102
135
75
103
133
77
88
116
63
79
109
59
75
107
49
68
101
36
73
104
41
92
122
66
103
132
84
118
142
110
132
152
130
132
146
129
133
146
127
135
150
125
131
150
111
131
151
109
142
161
124
148
170
134
154
181
135
156
189
126
156
189
114
147
180
99
144
173
94
136
158
89
126
145
93
127
144
105
131
149
109
137
153
113
143
159
117
156
171
131
162
177
136
160
177
134
159
175
135
160
174
138
164
172
151
163
161
150
149
141
128
138
125
110
135
118
101
125
107
89
126
107
88
130
109
89
127
105
85
121
100
79
122
101
78
129
104
80
132
105
80
139
111
85
140
111
86
137
110
85
137
112
84
137
111
83
138
111
84
139
113
85
136
111
83
134
109
81
131
104
77
129
103
75
126
100
72
132
108
79
137
115
86
135
117
86
133
116
87
139
122
95
148
134
107
153
140
115
155
143
122
151
141
119
156
150
129
161
156
140
167
162
152
164
160
152
159
155
147
154
151
143
137
131
118
98
90
74
99
92
75
104
100
83
93
88
73
72
69
53
31
29
20
16
15
11
130
128
123
189
185
179
184
180
175
171
168
162
146
143
138
136
133
128
144
141
137
169
165
160
159
155
151
169
164
164
165
161
159
163
159
156
181
177
174
199
195
194
200
196
197
190
186
185
185
179
179
191
187
185
194
192
192
195
192
194
188
185
187
162
161
158
129
128
123
114
115
108
91
92
85
100
101
98
129
128
129
171
169
175
200
199
205
168
169
165
116
119
106
122
124
111
141
143
130
136
138
124
129
131
119
129
130
118
129
131
119
138
140
128
146
150
136
143
149
136
133
143
126
130
142
120
163
173
152
144
172
122
111
143
87
101
134
78
105
135
81
92
122
65
73
101
48
65
95
36
66
97
33
71
102
40
84
115
57
96
125
75
108
135
93
120
142
109
123
138
113
124
140
114
125
142
107
126
145
105
135
152
116
144
161
129
151
169
139
156
180
144
161
190
139
158
189
124
153
183
121
150
176
123
144
165
120
129
147
106
119
138
97
124
145
107
135
151
116
145
159
126
156
169
139
163
175
145
161
175
142
159
173
141
164
178
149
175
188
169
174
183
168
167
171
156
154
152
137
143
135
117
136
125
104
134
121
101
131
114
95
131
110
90
132
111
90
133
113
91
141
117
95
143
120
97
146
123
99
146
121
98
140
116
92
140
116
89
139
112
86
140
112
86
143
117
90
139
114
85
135
111
83
134
110
82
134
110
82
132
107
79
131
108
80
137
116
87
141
122
95
142
125
99
137
121
95
147
133
106
155
143
116
159
149
126
159
149
129
157
151
132
158
154
140
168
163
154
170
166
158
161
157
150
164
161
152
157
153
144
140
135
123
99
94
77
96
91
74
84
80
66
58
56
42
45
43
34
44
44
40
128
125
120
199
194
188
185
181
175
168
165
159
152
149
143
158
154
149
158
154
149
165
161
158
163
159
156
175
171
168
176
172
169
176
172
169
179
175
171
190
186
186
195
190
190
184
180
176
172
167
164
166
162
159
173
169
165
171
166
162
164
161
157
130
129
125
101
101
95
88
89
81
79
80
72
110
111
107
158
158
162
177
176
187
202
200
212
205
205
204
122
125
111
117
121
106
140
142
128
145
147
132
133
135
121
119
122
107
118
122
109
127
133
122
137
144
132
139
147
134
133
142
129
130
139
123
168
175
162
131
159
118
110
141
91
99
129
76
102
132
80
94
124
70
79
107
54
65
94
41
65
94
40
72
101
46
81
110
57
93
121
72
102
131
84
108
132
92
110
128
94
116
133
96
121
139
97
129
144
108
134
148
120
143
157
131
151
165
140
154
173
146
159
182
147
161
185
140
159
183
138
151
174
132
140
161
128
137
155
126
126
142
111
129
146
118
145
161
142
150
164
145
153
165
145
155
168
146
154
168
143
156
169
146
171
183
165
179
191
176
177
189
176
170
181
166
160
171
155
154
159
144
169
169
157
170
165
157
146
136
125
136
125
110
131
119
103
120
108
90
134
119
101
136
119
99
141
123
102
140
120
99
129
109
86
129
108
85
130
106
82
130
104
80
136
110
84
140
115
87
139
114
86
138
115
86
136
113
84
135
109
82
133
110
81
139
119
90
146
127
101
148
132
109
144
128
102
141
126
98
150
140
114
159
149
128
161
152
133
163
156
141
167
161
151
169
165
155
171
167
160
167
163
156
160
157
149
154
151
143
145
142
133
128
123
109
101
96
79
86
81
71
86
84
75
116
114
108
155
152
148
190
185
182
203
198
194
188
184
177
179
176
170
168
164
160
159
155
152
169
165
162
163
159
156
157
153
150
155
151
148
168
164
161
176
171
168
173
169
166
185
180
178
184
180
177
179
175
172
172
168
164
167
163
158
163
160
154
165
161
156
177
173
170
184
182
179
149
149
144
124
126
118
104
106
97
90
92
81
138
138
134
192
191
198
202
201
210
160
163
155
111
118
99
126
133
117
135
140
124
138
144
126
134
142
121
120
130
106
114
124
103
119
127
111
127
133
123
132
141
130
135
143
132
128
137
123
165
172
162
119
147
112
101
131
89
98
126
80
102
128
83
100
126
81
87
113
67
69
96
48
65
90
42
70
96
47
74
101
51
86
114
66
101
128
83
107
130
89
111
131
90
120
138
95
123
138
95
127
141
108
133
146
122
141
154
132
148
160
140
151
164
145
152
169
145
159
176
153
161
177
156
148
166
142
139
157
131
140
157
134
139
156
135
141
157
141
153
170
160
155
171
163
150
164
150
149
162
145
144
159
137
150
163
142
171
182
167
180
191
179
178
189
177
169
181
167
164
175
161
149
157
142
169
170
162
185
182
180
142
138
133
135
131
123
123
119
109
97
91
79
101
92
80
102
90
76
94
83
66
99
84
68
112
94
76
112
94
73
117
95
72
124
99
74
127
102
74
134
108
81
143
118
90
143
119
90
140
117
88
131
108
80
128
106
77
136
116
87
143
126
99
148
134
109
148
133
107
147
131
105
150
139
115
160
151
131
159
153
135
161
156
141
161
155
143
164
161
150
166
163
154
163
159
151
151
148
139
144
142
132
132
129
119
131
127
116
130
126
116
146
140
134
185
180
177
193
191
188
202
198
197
201
195
193
183
180
176
172
169
164
164
161
156
159
156
153
162
158
155
157
153
150
156
152
147
165
161
157
160
156
153
157
153
150
164
159
157
167
163
160
171
167
163
169
165
161
171
167
164
174
170
166
180
176
172
173
169
164
177
173
168
197
193
190
207
206
203
197
197
193
175
176
170
136
137
128
92
93
82
97
96
91
173
172
172
210
210
214
133
141
125
99
110
88
123
130
112
132
141
123
140
152
129
142
157
127
131
150
112
118
136
101
112
125
100
117
126
112
133
142
131
145
153
141
140
150
136
173
178
170
114
143
105
94
120
86
102
127
94
103
127
92
100
121
86
93
114
77
82
104
63
76
97
59
75
98
59
74
99
55
79
107
62
93
119
79
109
132
96
123
143
106
130
147
107
123
140
96
127
141
110
134
147
125
138
150
132
145
157
144
148
159
147
147
160
145
155
170
154
161
174
162
151
166
150
141
157
135
144
158
139
146
161
147
147
164
154
158
176
172
167
185
183
160
174
168
149
162
151
140
153
138
145
159
141
166
182
164
174
187
173
171
183
169
165
177
164
157
167
152
135
143
123
163
164
153
182
178
175
128
124
118
123
119
114
132
128
121
100
96
87
91
84
75
77
70
58
52
45
32
66
57
44
94
81
65
96
80
60
102
83
61
121
98
73
123
98
71
132
106
79
145
120
92
145
120
92
143
120
91
135
114
84
127
107
77
135
116
86
140
123
95
142
126
101
144
129
103
147
133
107
153
142
120
157
149
130
160
155
139
154
152
137
146
143
129
141
138
124
151
148
137
155
152
143
158
155
146
157
154
144
156
153
145
167
166
161
184
180
177
191
187
185
190
186
183
166
162
159
167
163
160
169
165
161
163
159
156
153
149
146
159
155
150
144
141
135
125
122
119
144
140
136
136
132
126
137
133
129
153
149
146
138
135
131
139
136
132
154
150
146
159
155
151
177
174
170
180
176
173
178
174
170
163
159
156
156
153
148
173
168
164
189
184
181
190
189
185
189
189
184
183
180
177
141
141
133
97
101
83
106
111
88
136
145
123
144
155
135
103
116
87
88
99
71
115
123
104
129
140
118
139
153
124
145
161
128
136
160
118
128
151
113
122
139
112
123
136
115
136
146
129
143
152
139
144
153
139
178
184
173
102
130
94
87
111
85
100
125
99
107
131
103
105
126
96
103
122
91
96
114
82
90
106
76
84
103
72
83
107
72
85
112
72
94
118
84
107
128
97
120
140
108
130
148
113
127
143
102
130
144
115
134
146
123
130
143
124
132
146
132
141
153
144
143
156
144
150
164
152
158
171
161
156
170
158
139
153
133
136
150
130
148
160
148
154
170
162
164
182
180
171
188
189
167
180
179
157
169
164
150
163
155
147
163
150
162
179
162
166
181
163
162
177
157
153
168
146
136
148
124
125
134
110
160
160
148
178
174
168
127
123
117
113
109
105
125
121
115
110
106
99
92
87
78
67
62
51
53
49
37
61
57
44
70
65
49
81
69
50
99
83
61
117
98
73
122
100
75
129
107
78
140
118
89
143
120
91
142
124
93
139
120
90
128
110
81
134
117
89
141
125
99
139
126
101
140
126
104
142
130
108
147
136
117
147
139
121
147
141
123
141
139
123
131
128
113
132
127
116
148
144
137
159
155
151
157
153
148
159
155
151
167
164
160
162
159
156
178
174
169
163
160
155
161
157
152
156
152
148
152
148
145
152
148
143
135
131
126
119
115
111
124
120
115
125
121
117
145
141
137
136
132
129
120
116
112
121
117
114
144
141
138
122
122
118
127
126
121
150
147
141
153
150
144
158
155
150
162
158
153
158
155
149
159
156
151
156
152
146
164
160
155
170
166
161
166
162
157
167
165
160
146
146
142
98
100
88
93
104
65
96
116
58
93
116
55
83
106
47
77
95
45
83
96
60
109
118
93
125
135
107
133
149
116
140
159
122
135
159
117
135
158
121
138
156
129
139
154
129
139
152
128
135
145
125
135
144
125
174
180
168
82
108
77
81
105
80
95
120
97
112
135
112
116
137
115
111
129
105
103
122
94
99
115
89
91
107
82
83
107
75
88
114
78
94
118
89
102
124
96
109
130
102
120
135
107
127
141
107
130
144
114
128
142
117
119
132
109
117
132
112
130
144
130
138
153
142
145
159
149
151
164
155
152
165
155
140
152
132
125
138
114
144
155
141
158
172
163
171
185
183
174
187
190
167
180
181
164
176
177
162
176
174
153
171
165
159
179
167
158
178
157
142
165
130
132
156
116
127
148
110
138
152
123
172
172
160
182
178
174
137
133
128
120
117
111
118
114
109
112
108
102
99
94
86
64
59
50
61
57
45
58
53
40
58
53
38
73
65
49
98
83
64
116
98
76
122
104
81
122
104
78
131
114
85
135
117
89
138
121
92
136
120
91
130
114
87
130
114
90
136
122
97
140
130
106
139
129
108
132
123
102
135
125
107
134
126
108
118
114
96
112
109
95
121
119
108
141
136
130
150
145
141
142
138
136
143
138
136
137
133
129
147
143
139
147
143
139
144
141
135
150
146
140
134
130
125
134
130
125
140
136
131
138
134
130
134
131
124
130
127
120
136
132
128
119
115
114
141
137
134
150
146
144
151
147
145
136
132
130
141
138
135
134
135
130
118
118
111
131
128
123
136
133
128
147
143
137
157
153
147
158
155
149
162
158
153
150
146
140
142
139
133
137
133
127
151
147
141
136
134
128
113
113
109
103
105
98
113
116
107
141
145
133
154
162
141
128
141
106
99
114
67
92
106
60
104
114
78
113
124
88
120
136
94
128
149
107
136
156
119
140
159
128
138
155
127
142
157
132
144
156
132
135
148
121
125
139
111
164
172
156
69
94
65
74
98
74
95
118
99
119
143
126
123
147
127
117
140
118
112
130
105
107
121
96
95
112
86
86
108
79
87
112
82
96
120
92
95
120
92
100
121
94
111
128
100
114
131
97
114
133
99
116
134
105
107
124
95
102
121
94
113
132
111
130
148
134
139
156
145
147
160
151
145
158
146
140
152
132
129
140
115
137
148
130
159
170
161
177
187
186
174
185
187
162
173
175
169
181
185
167
183
186
158
178
175
158
180
171
167
189
173
150
175
146
137
162
125
135
158
120
154
168
139
186
188
177
187
183
182
144
140
137
119
116
110
101
98
92
112
108
103
108
104
95
72
69
60
46
43
33
43
38
29
49
45
31
66
61
43
90
78
61
104
90
72
111
96
76
121
106
84
123
107
83
123
107
83
123
108
84
124
111
88
125
112
90
118
106
85
118
107
85
123
112
92
126
116
96
115
105
86
102
93
76
102
96
80
99
95
81
107
106
97
141
138
132
141
138
132
132
128
124
138
134
131
138
133
130
145
141
138
126
122
119
151
147
144
143
139
135
135
132
126
134
131
125
122
119
114
116
112
106
118
114
109
124
121
115
116
113
108
113
109
108
134
131
128
149
145
142
126
122
119
134
130
127
134
130
127
131
128
123
137
136
130
149
147
143
129
128
124
130
128
123
130
126
121
154
150
144
152
148
143
153
150
144
160
156
150
147
145
137
137
133
125
112
109
101
105
104
96
140
141
136
153
153
150
164
164
166
171
169
175
207
208
214
181
187
178
112
126
81
110
124
71
116
128
81
116
127
82
114
129
78
124
140
100
130
145
114
134
148
122
136
148
125
141
152
131
145
155
134
141
153
125
130
142
112
162
170
150
70
96
69
79
103
81
96
118
103
114
137
125
120
144
126
120
144
121
119
139
113
112
130
102
101
118
90
94
112
86
89
107
83
92
112
87
91
114
87
87
107
80
96
117
86
101
124
86
100
123
83
102
126
89
98
122
83
92
115
79
99
121
90
122
143
121
139
156
144
144
157
148
136
148
136
131
143
125
126
137
112
129
140
121
148
158
148
163
173
169
165
175
176
156
167
167
161
174
176
158
174
177
160
180
178
166
188
182
175
200
186
164
192
171
154
181
158
150
174
140
162
179
145
191
196
186
190
187
187
150
146
143
114
111
106
110
106
101
115
112
106
99
96
87
83
80
70
66
62
52
39
36
26
35
33
21
51
49
33
61
56
41
70
62
48
86
74
60
100
87
70
110
96
78
110
98
78
112
101
81
110
99
79
107
96
77
104
94
72
96
86
64
99
87
67
101
89
69
83
75
56
71
66
51
81
77
66
109
107
99
126
127
120
125
125
118
115
112
107
106
104
100
119
117
113
131
129
125
135
135
131
137
135
132
138
134
131
141
138
133
126
123
117
113
112
106
107
106
101
113
110
105
135
132
127
132
129
126
137
133
129
136
134
131
144
144
138
127
126
121
131
130
125
131
131
126
121
118
114
132
128
122
128
125
119
133
130
125
140
138
133
151
148
143
153
150
143
153
150
143
156
153
147
156
153
147
156
152
145
144
141
131
128
121
110
125
120
110
134
131
123
142
140
135
154
153
149
152
151
148
164
164
164
199
201
204
158
168
153
113
128
84
129
143
98
132
144
107
126
138
103
123
134
94
132
141
108
132
139
115
139
146
127
137
145
129
140
149
129
145
152
131
148
156
130
137
147
116
166
171
152
64
89
60
73
96
72
86
109
92
105
128
113
118
143
122
120
147
122
118
143
114
103
127
91
99
119
87
106
123
99
112
127
108
106
122
103
94
109
90
80
97
73
81
104
70
92
115
79
95
118
80
89
117
69
88
118
63
88
117
67
91
120
78
110
135
105
133
151
137
138
152
143
126
138
127
112
125
108
116
127
104
123
133
115
136
148
137
143
155
147
143
156
150
137
150
145
135
146
143
149
161
159
162
178
174
178
199
195
179
203
192
165
193
175
162
189
171
170
192
168
175
191
165
196
200
195
186
183
183
153
149
146
127
123
118
111
107
101
122
118
112
106
103
95
87
84
75
73
70
58
48
45
34
46
43
32
49
45
33
38
36
24
39
37
25
49
43
32
49
43
28
70
62
47
74
67
48
80
72
53
84
74
56
89
79
58
93
84
62
97
88
68
75
69
51
63
57
43
77
74
62
89
88
79
102
100
95
113
112
107
125
126
119
106
106
99
127
126
120
109
110
105
102
104
99
128
130
125
142
144
139
133
134
129
137
135
131
132
129
124
104
102
96
117
119
112
134
134
129
126
125
121
116
116
112
130
131
126
141
138
134
141
139
136
115
115
111
131
132
127
135
137
132
133
136
130
116
116
109
122
119
112
136
132
127
156
151
146
157
154
148
152
149
143
144
140
135
143
140
130
148
145
134
147
142
129
143
134
123
136
129
116
128
120
106
129
120
108
126
119
106
123
116
108
138
133
126
134
131
124
162
160
155
181
183
176
129
140
119
120
135
103
134
148
114
136
148
114
129
142
109
132
141
111
137
142
115
143
146
126
150
152
139
149
153
139
141
147
127
140
144
121
143
148
123
141
147
119
177
180
162
59
82
51
61
83
55
79
102
81
99
122
104
114
141
118
119
147
118
111
138
105
100
127
85
105
125
93
126
141
121
128
142
129
125
139
127
113
125
112
85
98
80
78
96
69
82
102
69
87
108
73
88
116
68
88
118
63
94
123
74
106
133
96
121
145
120
134
153
138
134
152
142
117
132
120
91
103
88
98
108
89
113
123
106
121
133
119
121
135
122
117
130
118
117
130
118
105
116
104
133
142
132
158
170
163
176
195
191
180
201
193
173
197
182
164
190
172
169
191
167
175
190
161
199
201
195
192
189
187
156
152
148
123
119
114
107
103
97
110
107
101
111
107
99
92
88
80
77
75
64
73
70
59
62
57
46
61
56
42
29
27
18
29
28
18
47
43
29
54
50
33
61
56
39
68
63
45
76
70
51
87
80
62
82
75
57
80
76
59
63
58
47
66
62
52
67
64
54
90
88
81
92
92
85
95
96
89
109
111
104
107
108
101
103
105
98
124
125
119
105
106
102
128
129
125
132
133
128
127
128
123
127
127
123
126
126
122
100
101
96
114
115
110
144
145
140
144
144
140
120
121
116
137
137
133
122
123
118
130
131
126
122
123
119
105
105
101
138
140
134
143
144
139
135
136
131
133
133
127
133
129
123
135
131
125
150
146
140
150
146
140
151
146
140
142
138
130
135
129
117
138
131
116
133
124
107
129
118
102
142
135
118
148
143
128
142
139
122
136
132
112
120
122
94
105
113
86
135
142
124
157
163
150
124
136
117
98
112
89
121
135
112
133
147
121
135
149
122
134
148
117
140
151
121
138
146
119
142
147
126
148
151
134
154
156
140
140
144
122
135
141
115
146
153
125
157
165
136
189
195
176
61
85
48
57
80
48
73
97
72
96
120
98
105
132
107
105
136
100
105
134
95
101
128
86
114
134
104
131
147
128
131
144
132
126
140
129
124
136
124
97
106
90
79
90
66
81
96
67
84
103
69
85
113
66
90
117
64
103
131
85
126
149
119
138
158
142
138
155
143
126
143
133
110
124
114
88
99
82
83
93
74
98
108
89
103
116
95
97
112
92
98
112
94
96
109
90
95
106
85
123
133
116
146
158
148
163
177
169
168
188
177
174
198
183
170
193
178
173
190
172
183
193
174
197
198
192
193
189
187
163
159
155
134
131
126
116
112
107
101
98
90
89
86
78
95
92
84
82
79
69
66
62
53
61
55
46
56
52
42
43
42
31
54
52
40
80
76
59
76
71
54
63
58
40
78
72
54
77
73
57
83
80
64
79
76
61
73
71
60
48
46
38
77
74
67
76
76
67
77
77
71
101
101
94
102
103
95
106
107
101
99
101
95
102
103
97
98
99
94
105
106
101
103
103
99
120
121
116
124
125
120
138
137
133
118
118
114
117
117
113
132
131
127
131
131
127
149
149
145
130
131
126
115
116
111
120
121
116
128
129
124
124
125
120
126
127
122
109
110
105
108
109
104
128
129
124
132
131
125
149
144
139
148
144
139
139
136
129
142
137
128
154
145
134
145
137
125
137
126
111
134
122
104
130
119
106
173
168
162
192
192
185
192
193
183
182
183
169
159
161
137
111
120
74
76
94
45
74
95
53
78
98
62
76
98
63
86
108
76
119
136
108
133
147
121
137
151
125
138
152
124
146
157
129
143
152
123
141
149
122
146
151
128
151
156
133
147
154
128
143
154
126
156
167
138
165
179
147
195
206
184
80
105
48
73
95
58
73
95
70
82
107
84
92
119
94
95
126
90
97
128
87
100
126
90
113
134
106
123
140
123
129
143
131
127
140
129
128
140
128
110
117
101
90
100
77
89
102
78
91
109
79
86
113
66
85
116
57
105
134
84
132
153
125
139
157
142
136
153
140
122
136
125
105
118
106
87
99
79
78
89
66
87
99
72
89
102
71
84
100
68
85
102
72
92
107
78
105
118
92
130
140
122
142
153
139
149
163
150
161
182
168
173
197
182
173
195
181
181
197
184
197
206
195
201
201
199
189
185
185
154
150
145
112
109
103
108
105
97
111
107
99
81
78
70
81
79
68
83
81
70
69
66
56
65
63
52
60
57
46
72
70
56
71
69
53
79
75
59
86
81
64
101
93
77
100
92
75
76
73
59
61
59
47
62
59
49
63
60
52
72
69
62
71
69
62
81
82
76
102
102
96
114
114
107
111
111
105
110
111
107
113
114
109
110
111
106
102
102
97
106
107
101
103
105
96
109
110
103
113
111
107
130
129
125
129
130
125
129
128
124
116
114
110
136
134
130
137
135
131
130
130
126
105
106
101
112
113
108
97
97
93
114
115
110
122
123
118
115
116
111
97
97
93
144
144
140
146
146
139
141
137
131
148
143
134
144
138
128
139
130
115
134
121
107
128
115
99
111
97
82
91
79
65
96
88
78
205
202
205
244
243
247
209
210
205
178
180
167
156
159
138
112
122
80
81
98
51
71
92
47
64
85
43
71
96
56
91
115
77
113
130
97
129
145
116
142
157
131
141
156
131
146
160
135
158
171
143
151
163
131
150
162
130
152
164
137
151
163
136
149
163
136
159
177
148
169
190
157
197
212
187
107
131
64
93
112
73
77
97
71
74
98
73
83
109
85
93
122
89
93
120
86
94
120
88
104
126
98
119
136
117
123
136
121
125
137
122
127
138
123
108
117
100
99
109
85
92
107
79
91
113
77
86
118
65
83
122
52
100
136
76
120
147
110
131
151
130
127
145
128
119
135
121
104
116
101
92
103
79
92
103
75
103
116
80
100
116
73
90
112
62
86
109
60
96
116
72
109
123
91
131
142
121
142
154
137
140
154
137
152
170
156
167
190
174
176
198
185
190
206
196
205
214
206
209
210
209
190
186
184
146
142
137
101
97
92
95
91
84
115
112
105
89
86
79
65
62
53
88
85
76
73
71
60
71
69
57
79
77
63
93
91
74
83
81
61
86
81
63
101
95
77
99
91
75
89
83
69
76
74
63
52
54
46
39
39
32
54
52
46
80
81
74
87
87
80
91
91
85
109
109
102
124
124
117
101
100
95
102
103
99
107
108
103
108
108
103
135
133
128
108
108
101
102
105
96
104
104
98
113
111
107
116
116
111
115
116
112
139
137
134
129
126
123
124
124
119
119
119
114
117
117
112
97
98
93
85
86
80
109
110
103
97
97
91
90
88
83
125
124
118
121
120
114
141
140
135
167
164
159
166
163
154
155
148
134
146
136
120
106
96
78
69
55
42
53
41
29
51
39
29
49
41
31
51
45
40
207
206
208
251
250
255
211
211
210
179
181
171
152
155
140
116
126
95
95
110
73
90
109
72
82
105
62
81
107
59
98
123
77
112
134
90
125
144
106
136
153
124
136
153
125
137
155
126
156
173
147
163
179
149
157
175
140
156
173
140
154
172
142
146
166
139
146
169
141
159
184
153
194
212
187
118
143
73
98
119
72
77
100
70
75
98
73
79
101
76
89
111
83
89
113
84
93
118
90
102
125
98
111
133
109
114
130
110
111
123
104
108
118
98
103
113
90
101
114
85
96
115
77
88
119
68
85
125
60
82
127
47
93
136
64
105
140
88
117
143
111
122
142
117
118
135
114
104
117
93
104
116
83
110
123
89
117
131
89
112
128
79
105
128
71
98
123
67
109
132
84
117
135
100
128
141
115
138
152
131
140
155
133
150
167
148
165
186
170
177
200
185
195
213
203
211
222
216
208
209
208
181
178
174
136
132
128
110
106
101
109
105
100
104
100
93
90
88
79
72
69
61
83
80
71
103
100
88
85
83
69
75
73
59
75
73
57
84
80
62
78
74
57
70
69
54
65
65
52
69
67
56
67
64
56
50
52
46
58
61
55
54
56
49
69
71
63
89
92
84
96
98
90
92
93
86
126
123
117
107
105
100
113
115
110
94
94
89
107
105
99
102
100
94
103
103
97
96
96
90
92
93
86
108
107
101
110
109
102
114
115
110
115
114
109
114
110
106
118
118
112
109
110
103
107
108
100
94
95
89
86
88
80
108
109
102
107
104
99
89
86
81
125
122
116
129
126
119
145
139
131
162
155
145
162
155
141
135
124
108
95
83
67
59
52
40
33
25
17
22
12
4
23
14
6
21
13
5
87
81
79
227
226
232
248
247
252
241
240
243
212
212
214
170
172
168
140
149
133
115
128
101
106
126
87
95
122
73
90
121
64
95
128
69
105
136
77
121
146
99
133
153
122
133
154
123
138
162
130
150
172
140
158
180
143
159
184
146
155
181
143
150
177
142
146
173
143
143
166
138
145
170
139
183
199
177
113
141
70
91
115
67
79
103
71
79
102
75
75
96
69
79
98
71
90
114
87
96
121
96
100
124
100
105
128
104
104
124
100
97
111
88
97
110
85
105
118
93
102
117
86
95
117
77
89
121
66
84
125
55
80
125
46
86
129
58
97
132
77
104
134
92
110
135
100
104
124
93
109
124
89
124
138
96
128
141
101
130
144
101
122
137
87
116
135
79
111
134
77
118
138
95
123
139
109
127
142
116
128
146
120
126
148
116
138
159
126
159
181
156
178
200
182
195
213
201
205
214
208
209
209
211
173
170
165
133
129
124
107
103
98
96
93
86
89
86
77
80
76
67
80
77
67
75
72
62
91
88
77
95
93
80
72
70
57
74
70
58
87
84
69
72
70
56
63
63
51
49
53
41
68
68
58
66
65
56
43
44
37
46
47
41
63
64
57
90
90
83
72
71
65
109
110
103
99
99
92
95
92
86
110
107
103
108
108
101
100
99
92
98
98
92
106
108
100
103
105
98
81
81
74
80
77
71
90
86
81
98
98
91
97
98
93
94
94
88
105
102
95
109
106
101
123
121
115
116
115
109
96
95
88
86
87
80
92
90
84
99
96
90
108
105
99
131
126
118
146
140
129
141
130
116
141
128
112
119
107
92
80
71
58
47
40
29
24
19
11
19
12
5
22
13
5
27
18
9
15
7
0
142
136
135
230
228
238
244
243
249
253
252
255
245
244
248
226
226
228
199
204
200
164
172
158
122
138
105
117
141
95
100
134
67
97
136
58
101
139
59
114
146
80
121
148
106
125
150
116
141
168
131
153
182
141
158
188
142
161
194
146
155
185
141
148
176
139
148
175
145
148
168
141
141
157
129
172
183
163
103
134
71
83
110
61
81
105
68
80
103
73
78
98
71
77
97
70
92
115
88
98
122
97
105
129
107
107
132
110
104
126
103
101
118
92
100
113
88
103
116
91
101
116
87
98
118
79
86
115
62
85
120
60
86
124
61
86
123
63
94
126
73
103
130
86
105
128
90
103
121
85
118
133
94
136
151
109
141
156
115
142
156
120
136
150
110
125
141
92
122
139
89
123
140
103
124
139
113
126
141
116
126
145
115
127
152
114
128
155
111
147
171
139
166
187
165
189
205
192
213
221
218
217
217
220
178
174
172
137
133
128
118
114
109
95
92
84
95
91
84
78
75
65
86
84
73
77
74
64
79
76
65
76
72
62
68
66
53
74
72
59
57
55
44
57
54
45
73
71
62
48
49
42
55
55
47
51
49
41
27
27
21
52
52
46
92
92
85
95
94
88
88
86
80
98
99
92
111
111
105
92
93
86
90
88
82
96
91
85
107
104
98
113
113
106
103
104
97
111
112
105
75
75
68
92
91
85
118
115
110
97
95
89
92
91
86
96
94
90
106
102
95
121
117
110
105
102
95
92
89
82
113
112
105
112
111
105
94
92
84
100
97
87
111
106
95
132
123
109
145
135
119
124
112
94
99
86
70
54
45
35
19
14
7
18
14
6
23
16
6
28
18
8
29
17
8
30
19
9
29
24
16
178
175
176
229
226
239
237
235
247
247
245
254
240
238
247
243
242
249
249
249
254
236
238
239
174
182
166
133
153
113
116
151
81
106
148
56
112
150
60
116
150
68
111
143
75
115
146
91
142
173
122
156
190
136
159
197
141
165
203
149
158
192
143
149
178
135
149
173
137
147
165
131
136
147
119
164
171
151
97
132
79
85
116
68
79
109
65
82
105
73
83
103
76
91
110
86
98
120
97
105
129
104
109
133
111
111
135
115
106
128
107
102
120
95
103
118
92
95
109
82
92
106
76
94
112
77
92
115
74
102
127
91
110
135
102
109
135
102
106
130
96
107
129
92
114
134
99
113
129
92
124
139
99
142
158
119
144
160
126
148
162
132
149
161
129
139
152
112
127
141
95
123
137
101
123
137
110
122
138
113
123
143
114
130
153
116
127
153
108
134
160
117
147
170
132
167
184
161
203
211
205
221
222
222
176
173
170
135
132
126
118
115
109
100
97
89
101
98
90
83
80
71
67
64
54
81
78
68
73
70
60
73
70
60
87
85
74
42
39
30
68
65
56
59
56
47
57
56
47
43
44
38
59
57
51
75
73
65
56
56
50
57
56
50
75
76
72
89
88
83
81
79
73
82
82
75
112
112
107
121
122
116
98
96
90
94
90
84
104
99
94
99
97
91
120
120
113
107
106
99
94
93
87
100
100
95
97
96
91
104
101
95
103
99
94
89
86
80
104
101
95
109
106
98
95
92
83
90
88
78
94
92
82
108
103
92
103
97
84
100
91
72
123
110
90
137
121
101
124
110
92
73
65
52
32
29
21
20
17
11
11
9
2
13
10
1
37
23
9
36
22
9
34
21
8
31
19
7
57
51
41
202
199
203
232
230
242
229
227
241
217
215
230
212
209
224
222
220
233
234
232
242
243
240
248
242
243
245
183
193
175
134
162
104
125
163
75
126
163
75
122
158
71
120
154
70
117
154
70
137
176
97
157
199
125
161
202
132
168
207
143
163
197
141
151
179
131
147
168
121
141
157
108
133
141
108
162
164
146
101
137
89
95
128
82
84
115
72
86
110
75
92
112
84
103
121
97
107
130
107
112
137
114
115
140
116
114
139
111
107
132
99
105
128
92
98
118
84
90
106
76
88
102
69
93
108
77
105
121
94
126
143
122
135
153
136
134
154
137
125
145
125
111
128
98
117
132
100
116
131
93
121
139
97
141
156
124
148
161
136
153
165
142
154
164
141
145
155
126
125
138
94
119
134
91
120
133
101
120
134
107
123
141
114
131
151
121
129
151
113
127
154
107
129
157
103
143
164
128
184
195
183
215
216
214
178
174
171
143
140
134
108
105
96
101
98
90
92
89
81
76
73
63
70
67
57
73
70
60
75
72
62
96
93
83
76
73
64
45
43
35
70
68
59
84
81
70
68
66
58
52
52
47
55
52
48
48
46
40
43
43
37
44
44
37
41
42
36
80
79
74
94
91
86
68
69
63
95
94
89
121
118
113
113
109
104
109
108
102
104
101
95
89
85
79
109
106
100
95
91
87
119
116
111
113
111
106
89
86
80
88
85
79
88
85
79
91
88
81
70
67
59
81
78
67
75
71
60
94
89
78
103
97
84
103
93
76
120
107
89
132
115
93
128
111
87
93
78
59
56
45
33
41
34
23
30
27
18
21
16
8
18
15
4
29
21
9
44
27
14
37
21
8
43
26
12
32
18
5
91
85
77
210
206
210
206
203
212
202
200
212
208
206
221
213
211
226
220
218
233
229
227
240
236
234
245
241
240
248
239
241
240
160
183
139
146
183
103
145
181
98
131
167
81
126
160
73
132
168
81
141
183
94
159
201
119
164
205
128
168
206
133
161
194
129
149
175
119
144
163
110
143
156
105
140
147
110
169
171
154
119
154
110
113
146
107
101
131
91
92
118
79
96
116
85
106
125
101
118
140
119
124
148
127
119
145
118
110
138
103
98
129
86
100
130
79
94
120
73
93
111
77
94
107
72
99
112
79
116
129
108
140
156
141
146
164
152
146
166
153
141
159
144
116
131
103
110
124
91
112
126
88
117
131
86
137
149
118
148
160
138
152
163
144
152
162
146
146
154
135
127
138
99
119
133
85
114
127
86
115
129
98
127
141
117
135
150
127
133
151
123
132
152
118
122
150
96
135
159
112
179
190
177
210
211
210
177
174
172
142
138
133
115
112
104
86
83
75
92
89
81
75
72
62
68
66
55
77
75
65
69
68
58
69
69
58
74
73
63
48
48
36
65
62
51
72
69
59
64
64
53
52
52
44
49
46
40
43
41
35
65
64
58
72
70
64
74
73
68
67
64
60
121
118
112
93
91
85
92
90
85
108
104
99
101
99
93
90
87
81
108
105
99
102
98
92
115
111
106
97
93
88
98
95
89
92
89
83
85
81
76
89
86
78
85
81
75
92
89
81
77
75
63
82
78
64
89
81
69
89
80
67
109
97
81
114
99
77
119
102
79
96
82
63
79
66
52
38
28
20
27
19
11
28
18
7
27
21
9
33
22
9
38
23
10
45
29
11
53
30
13
44
28
11
43
29
14
33
19
8
135
129
123
217
213
217
191
188
198
170
169
175
192
189
200
214
209
224
202
198
213
210
207
222
237
235
247
241
239
248
249
248
253
218
230
215
173
204
147
163
199
126
143
179
96
128
162
75
136
170
85
148
187
102
160
201
115
165
206
122
166
203
123
157
189
115
144
168
103
139
158
102
147
158
112
144
150
115
170
175
152
127
162
121
127
160
122
122
153
117
113
138
104
103
126
97
115
139
116
124
149
131
130
156
137
122
149
124
105
134
95
88
121
68
87
121
62
89
118
65
97
116
76
100
114
75
101
114
78
119
132
109
142
158
142
147
165
152
150
167
155
147
164
149
122
137
107
110
125
85
109
121
80
114
124
79
131
140
111
143
152
132
149
158
143
151
160
146
148
157
141
136
145
118
133
144
107
122
134
91
121
133
101
138
150
131
143
155
138
138
153
132
137
152
129
135
155
120
145
163
130
190
198
189
221
220
223
172
168
165
140
137
132
118
115
109
92
88
82
108
104
96
90
88
79
53
50
40
65
62
52
53
54
43
63
66
54
84
82
71
59
56
45
67
64
52
55
52
42
73
70
60
63
60
51
62
59
51
47
43
39
66
63
58
93
90
84
91
88
83
71
68
63
75
72
66
90
87
82
108
105
100
104
100
95
107
103
98
96
93
87
106
103
97
106
102
97
98
94
89
103
99
94
92
88
83
88
84
79
78
75
67
73
70
62
75
72
63
77
74
65
79
76
65
93
87
74
95
86
70
96
84
65
107
90
71
98
81
61
78
62
42
33
24
15
29
20
10
30
21
13
27
18
7
31
20
8
29
22
7
48
31
12
46
29
12
45
27
11
56
32
14
42
27
9
35
20
7
46
34
24
145
139
134
209
207
210
188
187
194
151
149
153
170
163
169
198
191
200
193
187
200
214
210
228
236
234
247
244
243
251
241
240
246
246
247
250
202
223
189
175
212
142
157
195
110
139
174
87
139
174
91
152
188
108
164
202
121
167
205
122
160
196
112
146
179
97
136
164
91
138
157
100
143
154
115
136
147
111
165
173
147
128
159
123
128
161
126
123
157
123
125
157
126
122
150
123
123
151
129
125
152
135
123
149
132
120
146
123
94
121
81
74
106
48
77
111
50
85
113
58
89
109
64
93
107
67
98
110
74
113
127
99
137
153
136
145
162
149
146
163
150
145
160
144
125
141
109
117
132
86
115
127
78
114
122
77
121
129
97
133
140
119
140
149
132
151
160
143
159
168
149
150
159
136
140
151
121
134
145
116
134
144
121
150
161
147
154
166
154
149
162
148
139
153
135
142
155
136
176
184
171
225
226
230
222
220
225
169
166
164
138
134
129
119
115
110
111
108
101
107
103
95
82
79
69
68
65
55
79
76
67
63
61
50
57
55
46
69
66
58
68
65
54
76
74
61
65
62
52
56
53
44
51
47
38
61
57
49
70
66
60
49
45
40
69
66
61
74
71
64
85
81
75
75
71
66
76
73
68
106
103
97
106
103
95
91
88
81
92
89
83
81
77
72
77
74
69
96
93
87
100
97
90
93
90
82
73
70
62
76
73
64
62
60
52
65
62
54
70
67
55
80
75
62
88
80
67
95
85
67
107
94
75
90
75
55
56
42
27
36
27
16
23
18
8
20
15
5
29
20
8
37
22
11
37
24
10
46
29
12
56
33
12
49
28
9
51
31
15
62
37
19
50
31
15
36
20
8
57
47
38
158
153
149
208
204
212
201
200
209
140
138
142
143
138
140
170
166
169
207
203
217
219
215
235
227
225
237
240
239
248
239
237
247
240
237
247
227
239
222
185
221
154
162
201
113
147
184
96
143
177
99
152
187
113
162
196
126
163
198
127
152
188
104
134
167
82
127
156
82
131
152
93
135
149
111
134
148
116
169
178
157
124
154
120
125
157
124
125
159
128
124
158
128
128
161
133
128
159
136
121
152
131
115
142
122
105
131
107
80
107
69
66
96
46
69
99
46
75
103
52
84
104
61
91
104
66
96
108
72
105
119
86
122
137
112
134
152
132
140
158
138
138
154
131
128
145
110
123
140
89
125
138
85
122
131
84
120
126
91
120
127
101
135
142
117
155
165
142
161
173
150
159
171
146
145
157
129
134
144
123
146
155
141
156
166
158
158
170
164
155
168
158
149
162
149
151
162
149
209
213
213
232
231
238
206
206
208
181
180
176
144
140
135
121
117
112
100
96
90
87
84
76
85
82
72
76
74
63
71
68
59
74
71
62
73
70
63
57
54
46
57
54
44
81
79
67
65
63
52
50
47
39
49
46
37
60
57
47
80
77
69
48
44
37
73
70
63
97
94
86
77
74
68
68
65
59
83
80
74
104
101
93
85
82
73
78
76
69
87
84
78
87
84
78
60
57
51
89
86
79
97
94
85
92
88
80
78
75
66
74
71
60
61
57
49
71
66
57
60
57
45
76
72
56
91
81
63
101
88
67
81
69
52
51
41
27
29
19
12
32
25
15
25
19
10
24
17
6
30
19
7
46
27
11
50
30
11
65
39
18
69
38
15
65
35
17
65
40
23
65
38
20
54
33
18
36
22
9
69
61
52
167
163
161
210
207
215
209
206
219
154
152
155
125
122
123
143
140
144
183
180
190
194
191
204
201
198
208
223
221
229
246
244
252
233
230
240
235
238
236
185
218
147
155
197
99
152
190
104
149
182
110
149
182
116
154
185
126
157
189
130
143
178
101
124
159
78
116
150
73
122
149
84
130
148
110
136
151
124
176
185
170
108
137
101
118
149
115
123
157
125
121
155
123
116
150
120
119
153
126
112
145
120
107
135
111
94
117
90
73
95
64
62
87
51
61
90
43
67
96
48
78
102
59
92
111
70
95
110
72
98
113
77
110
124
92
117
134
105
124
143
113
129
146
113
128
146
107
128
145
100
130
143
93
127
134
87
120
121
81
113
117
84
128
137
100
147
161
124
157
170
141
154
165
140
146
158
128
136
148
128
141
152
142
145
157
152
151
164
159
149
164
156
151
163
152
181
186
183
238
236
244
216
214
218
200
199
202
190
188
187
152
149
142
119
116
109
106
103
95
97
93
85
87
84
75
93
90
80
58
55
45
65
62
53
67
64
55
48
46
38
70
66
58
76
74
62
63
61
48
59
56
46
62
60
50
59
55
47
95
91
83
77
74
65
75
71
64
89
86
77
86
83
74
65
62
54
68
65
58
81
78
70
69
65
58
76
73
66
90
87
79
93
89
83
57
54
47
64
62
52
68
67
58
82
77
68
91
87
76
60
58
46
68
63
51
77
70
57
62
59
43
81
74
55
108
95
77
79
67
51
32
26
13
31
23
10
18
15
6
26
20
10
32
20
7
39
24
10
49
29
14
58
34
13
65
38
18
70
41
20
74
42
18
74
43
19
69
43
21
68
42
21
51
31
15
36
24
12
105
98
91
173
169
167
212
210
215
207
206
214
143
142
146
133
132
133
166
165
169
170
169
175
170
169
175
171
167
175
198
194
202
231
230
238
232
229
241
239
239
246
206
226
182
167
202
121
156
192
110
150
183
110
150
180
121
150
179
128
149
178
126
137
169
105
116
152
80
110
144
72
114
143
83
125
143
106
133
148
121
175
184
167
88
117
75
97
125
88
108
140
108
113
146
115
111
145
114
108
141
111
101
131
100
93
119
88
87
110
79
78
99
68
68
92
58
63
89
45
62
92
44
71
100
51
86
110
61
91
111
67
98
115
75
112
126
91
112
129
93
113
130
91
123
140
101
126
145
102
128
145
100
129
142
96
130
139
94
119
128
86
114
121
81
129
140
88
143
156
104
150
164
123
149
160
126
143
154
123
135
147
127
139
150
140
143
155
147
141
154
147
138
152
143
141
152
141
188
192
191
230
230
236
203
202
206
205
203
207
195
192
192
147
143
136
121
118
111
119
115
108
80
77
69
98
95
85
85
83
72
59
57
47
83
80
70
71
68
58
71
69
60
77
74
64
80
78
64
69
67
55
57
56
46
32
33
25
42
40
33
65
62
54
62
59
49
56
53
43
69
66
55
63
60
49
84
82
71
74
71
62
85
82
73
85
82
76
75
72
65
80
76
69
78
75
68
73
70
61
61
59
49
69
66
57
78
73
63
80
78
67
70
67
54
70
66
50
79
73
56
72
65
49
106
95
77
98
85
68
46
38
28
26
19
8
48
29
15
32
20
10
31
22
9
53
32
13
51
30
16
65
40
22
79
49
24
76
43
22
71
40
19
65
38
17
77
46
21
74
44
22
68
41
20
51
28
14
47
36
27
125
120
112
180
176
173
212
208
212
200
199
206
161
160
165
166
165
169
165
164
169
177
177
182
181
180
185
174
172
178
175
171
178
202
199
208
228
226
239
234
234
246
205
221
184
162
196
110
150
185
97
145
177
101
149
177
124
153
177
137
145
171
130
132
161
118
121
150
104
115
145
94
112
139
91
121
140
104
127
142
115
168
177
160
85
114
74
82
110
73
90
117
86
99
127
98
104
132
103
103
131
101
90
118
83
82
108
69
89
111
74
89
110
76
82
104
69
73
96
55
64
96
39
61
98
31
75
108
45
88
113
60
104
121
79
115
130
93
121
137
105
113
130
93
114
131
88
119
136
92
123
140
93
129
144
100
129
142
102
127
139
102
126
139
100
136
149
95
141
155
95
139
155
97
139
153
108
137
149
119
133
144
126
136
147
136
140
152
143
138
151
139
120
136
117
126
139
121
199
204
205
212
212
219
202
200
206
201
199
203
195
193
192
155
152
144
123
120
113
106
103
95
74
71
61
81
78
68
79
76
66
77
74
64
72
69
59
79
76
63
67
65
53
58
56
42
69
66
53
48
45
33
66
65
54
25
28
19
33
33
25
57
55
43
65
63
51
69
67
54
58
56
45
57
54
43
71
68
56
75
73
63
64
61
53
70
68
60
77
75
64
67
64
56
67
64
54
81
79
67
54
51
40
73
68
58
75
69
56
73
69
56
76
74
59
79
76
59
82
76
58
80
70
52
80
71
57
51
40
28
37
28
16
43
28
13
67
39
17
46
28
13
45
28
11
58
35
17
53
34
18
62
39
20
83
50
26
67
39
17
82
50
26
74
46
21
77
44
21
71
41
20
61
38
18
41
24
10
64
55
43
118
113
105
164
159
157
194
192
194
172
170
176
175
173
181
172
172
176
168
167
172
173
172
179
176
175
181
176
173
180
164
160
166
182
180
187
225
223
236
230
228
240
197
215
176
147
185
89
135
171
75
140
169
95
147
170
126
153
172
148
149
172
148
135
160
132
128
152
121
129
153
122
119
140
108
116
133
105
123
137
112
167
176
159
95
126
87
87
115
80
81
105
76
86
106
79
88
108
81
88
110
81
86
110
78
88
111
76
91
111
74
91
113
75
89
111
73
84
107
66
73
106
46
59
101
28
71
109
39
90
117
62
105
121
79
108
124
83
111
125
89
113
127
94
103
119
77
106
122
79
114
130
90
133
148
116
142
155
129
139
152
129
135
149
123
133
147
107
135
153
90
134
154
91
133
152
98
129
142
112
122
133
115
128
140
125
134
148
133
124
139
120
104
120
92
118
130
109
202
205
204
213
212
216
201
199
201
191
187
189
202
199
199
171
167
162
139
135
129
110
106
99
95
92
83
88
85
76
66
64
53
72
70
58
63
59
49
80
75
62
59
55
42
40
38
27
64
60
49
66
60
48
71
68
57
71
70
57
60
59
46
57
54
42
58
54
41
71
68
56
67
64
54
70
65
55
63
60
49
58
57
48
40
38
30
66
63
56
72
69
59
71
68
57
76
73
61
70
67
54
63
56
45
69
62
49
66
60
46
74
67
53
77
70
55
98
89
70
104
93
74
84
75
58
41
36
25
43
29
14
35
24
11
51
34
18
64
42
24
47
30
15
61
36
17
44
32
19
48
35
20
61
39
21
82
49
27
86
51
27
90
55
30
81
49
24
72
42
20
70
40
22
62
37
19
47
31
18
81
75
63
112
108
100
96
95
92
126
125
125
146
146
148
163
162
167
171
170
175
163
162
167
161
160
166
172
171
176
183
182
189
179
177
183
166
165
172
202
200
210
229
229
240
179
196
149
125
161
65
120
156
66
137
162
103
144
166
131
153
173
151
154
178
158
149
173
152
141
163
139
136
155
132
131
148
126
127
141
120
123
136
114
163
173
156
106
133
102
90
116
86
82
103
74
82
99
71
83
99
73
82
100
73
80
101
69
86
108
70
92
114
75
91
113
73
91
113
73
91
116
70
78
111
46
62
104
30
67
106
36
88
116
62
97
115
76
100
116
81
101
116
82
105
119
88
95
110
72
95
110
73
110
124
99
135
150
133
146
159
145
144
159
141
135
151
128
129
145
113
113
134
76
114
134
76
117
136
88
119
132
105
124
136
117
133
146
128
136
150
129
115
130
103
97
112
80
121
130
111
197
198
197
206
203
205
194
191
192
208
202
203
207
202
202
181
177
173
146
142
137
115
111
104
96
93
83
82
79
71
65
63
53
70
68
55
66
63
51
66
63
49
75
69
56
61
57
46
66
64
51
86
81
66
54
48
36
64
61
47
72
67
55
62
57
46
55
52
42
50
46
36
65
60
51
75
70
59
80
76
63
65
61
50
52
48
38
61
58
49
40
37
27
56
53
41
65
63
51
57
54
41
65
59
46
71
64
51
73
64
52
82
73
58
101
91
73
115
103
82
81
71
56
41
36
26
18
15
7
50
34
16
46
29
16
57
39
22
33
24
11
65
40
20
65
42
22
45
31
18
40
30
13
74
46
24
92
55
30
78
47
25
70
39
21
70
41
19
74
45
23
68
41
22
55
33
18
48
33
22
95
88
79
98
96
89
46
47
40
108
109
105
158
159
161
164
163
169
166
166
170
162
161
166
163
162
167
179
179
183
175
173
177
171
170
174
173
172
177
186
183
191
228
226
236
180
195
166
132
159
105
115
144
85
131
154
115
144
164
140
152
173
152
158
183
166
157
180
163
151
172
153
140
158
137
136
151
130
138
153
132
131
146
123
163
174
157
118
144
121
98
122
95
88
111
83
93
111
86
94
111
86
87
105
78
79
100
67
77
99
60
81
104
64
86
108
69
87
110
69
85
111
62
72
105
39
65
104
33
66
104
34
76
106
46
85
106
66
85
101
70
92
105
76
93
107
79
87
101
70
93
107
78
113
128
107
134
151
138
143
161
152
147
165
154
142
159
143
123
141
110
97
122
66
94
117
63
99
118
76
112
126
98
128
141
119
137
150
128
137
150
127
119
133
101
103
115
83
136
141
127
214
213
215
210
207
208
198
193
194
206
201
202
209
205
204
188
185
181
148
143
139
126
123
114
110
108
98
79
76
68
88
85
74
65
63
50
41
40
27
59
57
44
64
59
47
67
63
51
74
71
57
83
77
62
65
59
47
55
50
38
69
64
52
65
60
49
50
46
39
44
41
32
63
58
46
58
53
41
62
58
47
59
54
42
57
52
42
64
59
49
49
46
33
61
57
43
74
70
55
62
58
42
71
63
48
86
76
61
100
89
70
97
88
68
97
88
70
74
66
52
41
35
25
10
8
3
17
11
4
70
41
23
52
30
16
52
35
19
31
21
10
82
49
27
59
39
21
48
35
19
47
33
16
85
53
29
108
64
38
59
36
18
55
31
16
73
42
23
77
44
23
74
43
23
50
32
16
56
43
34
96
91
84
76
77
70
71
72
67
120
121
117
167
167
167
179
178
184
169
168
173
182
180
188
175
174
180
188
188
192
186
183
188
164
159
165
186
182
188
203
200
209
217
216
222
149
164
131
107
132
85
100
127
82
123
147
115
147
168
148
151
174
156
157
180
165
156
179
163
154
175
157
145
163
143
140
155
134
142
157
136
136
152
130
170
180
164
131
156
136
117
141
116
102
125
101
99
119
96
104
124
102
101
121
97
96
118
88
89
110
76
79
100
63
75
98
57
77
100
56
76
101
51
72
103
40
72
105
39
71
105
39
68
99
37
69
92
47
70
86
54
76
90
61
81
95
66
83
96
69
93
106
83
118
132
115
133
149
138
135
157
148
135
156
147
137
155
143
111
133
101
85
114
55
86
113
54
88
109
62
102
119
83
117
132
101
129
144
114
125
139
107
116
131
94
116
129
97
145
150
138
213
212
214
212
209
209
195
191
192
193
189
188
201
199
196
194
193
188
164
160
155
146
142
135
119
115
107
81
79
69
73
70
59
77
74
63
54
50
40
47
43
32
52
48
37
62
58
47
60
56
43
69
63
51
66
61
49
65
60
47
71
66
50
59
54
40
52
47
38
59
56
45
61
58
43
40
38
25
42
41
31
53
50
38
59
55
44
67
62
49
60
56
40
67
62
45
71
64
48
77
68
52
94
84
68
111
98
81
122
110
90
87
82
64
37
35
24
30
23
14
37
29
21
12
11
8
40
26
16
78
47
26
81
49
27
68
42
23
42
29
18
90
56
33
64
40
21
48
33
17
56
37
23
97
60
32
114
65
36
68
41
23
65
40
20
63
37
18
78
50
30
75
47
29
55
34
20
83
69
59
77
76
68
34
35
30
69
70
65
121
122
119
147
146
148
172
171
175
170
169
174
189
188
195
183
182
189
172
171
176
175
173
178
177
172
178
180
176
182
195
192
200
203
203
204
139
152
127
103
124
86
102
126
90
117
141
113
135
160
138
146
170
151
152
174
158
152
172
155
149
169
151
143
161
141
138
153
133
138
155
132
135
151
127
173
183
165
133
159
139
122
149
127
114
141
116
108
135
111
111
137
115
111
137
115
115
139
115
121
143
118
113
135
108
96
117
86
75
97
54
71
95
45
76
104
47
78
108
48
76
106
45
70
99
40
63
88
38
59
78
39
66
81
50
79
93
63
90
104
77
96
109
89
119
131
117
127
145
134
125
147
136
125
146
133
120
138
123
96
117
88
77
104
50
81
108
51
86
109
61
97
115
77
109
126
93
117
133
98
117
132
92
116
131
91
123
136
107
152
157
145
203
201
201
209
205
205
192
188
187
188
184
181
191
190
185
193
192
188
183
180
175
162
158
152
116
112
103
91
88
79
79
76
66
60
55
45
59
54
43
63
60
49
57
52
42
56
52
41
43
40
28
55
52
39
57
53
41
68
61
49
64
57
45
73
68
54
67
62
49
64
59
43
64
60
44
64
60
45
53
50
35
61
56
42
55
49
35
71
66
50
64
60
42
72
67
50
98
87
72
100
89
71
112
102
83
112
100
82
97
88
75
36
33
25
2
5
0
40
29
15
48
33
20
20
17
11
35
27
15
65
42
25
82
53
31
72
45
26
52
36
21
84
54
29
79
48
26
68
42
21
76
47
27
102
64
33
104
59
31
61
35
15
72
41
21
74
43
24
73
46
26
62
38
22
51
32
21
98
92
83
58
59
52
46
46
40
83
84
77
128
129
128
147
147
149
176
175
178
174
173
179
173
172
180
172
171
179
172
170
176
177
175
177
165
162
161
175
171
174
196
191
198
187
188
186
128
140
118
102
118
94
107
127
102
118
142
117
122
145
121
135
159
138
145
167
150
144
163
148
139
159
142
133
151
131
133
147
128
136
149
127
139
152
129
179
187
172
125
153
127
123
153
129
122
151
127
118
147
124
120
148
128
118
144
124
127
151
133
138
160
144
140
160
145
137
155
141
111
129
101
80
101
56
80
103
52
82
107
51
78
103
47
73
99
42
67
91
38
61
85
39
67
88
49
83
102
68
95
111
83
97
109
87
103
117
100
120
135
122
118
135
123
110
129
113
103
119
101
88
107
80
72
96
53
82
106
62
101
123
90
116
135
111
126
143
120
119
135
107
116
131
98
112
125
90
111
122
90
120
127
107
186
185
180
212
207
206
189
185
182
189
185
182
180
176
173
170
166
163
185
181
178
180
177
172
141
137
128
93
90
80
97
93
84
92
87
77
65
59
49
61
57
45
54
50
38
49
45
34
51
47
36
49
45
33
64
59
48
53
47
36
56
49
38
72
64
53
80
73
62
78
71
58
74
68
54
72
65
49
83
75
58
81
69
53
76
66
50
80
71
54
101
91
71
96
86
67
112
98
82
109
96
77
101
92
74
71
65
50
31
29
21
18
17
11
12
10
7
52
37
20
56
39
22
23
18
12
27
20
10
69
47
28
79
52
30
54
33
17
71
50
33
72
45
22
92
53
27
93
56
30
99
63
37
112
68
40
96
55
28
79
46
23
79
43
23
92
54
32
73
44
23
54
32
17
58
48
39
122
120
116
118
119
118
93
94
88
98
99
92
124
124
123
123
124
122
144
144
143
153
152
153
137
137
136
145
144
144
178
173
175
175
170
172
176
171
172
178
173
176
204
199
206
172
176
169
115
125
106
97
109
89
101
116
95
109
128
106
116
137
114
127
149
127
136
156
138
140
156
142
136
153
137
130
145
126
129
142
123
140
150
131
148
153
134
177
182
169
119
153
121
122
157
129
121
154
129
117
146
122
121
148
126
127
152
133
138
161
146
148
170
158
155
175
165
156
172
164
148
163
151
122
136
110
102
116
74
92
109
58
81
104
50
77
104
50
67
93
42
62
88
37
65
95
42
81
107
65
94
114
81
97
113
84
95
108
87
102
114
99
106
120
105
101
119
101
97
114
93
79
98
68
72
92
61
92
111
87
114
132
117
119
139
128
126
143
131
129
143
126
114
126
102
102
114
82
89
100
66
100
109
84
194
194
190
213
211
210
193
191
189
195
191
188
173
169
166
166
162
159
187
185
181
184
182
178
160
157
150
124
120
111
87
82
72
90
86
73
65
61
48
55
51
37
66
59
47
65
58
46
75
69
55
67
61
49
56
50
38
50
45
33
60
52
41
64
54
42
69
60
47
73
65
51
72
62
47
72
63
46
81
72
54
93
81
64
108
97
79
115
102
83
117
102
81
114
99
78
104
90
75
86
76
61
61
58
46
15
15
9
2
4
0
12
11
7
20
15
12
61
41
23
75
49
30
25
18
9
42
28
15
83
55
32
94
58
34
83
51
32
83
51
31
89
57
36
108
65
36
113
64
37
101
64
38
113
69
42
96
57
31
90
53
28
81
47
26
88
53
32
72
43
26
50
33
18
56
51
45
81
78
75
97
97
97
103
101
105
96
96
95
105
106
101
119
120
114
99
100
94
131
132
128
148
148
146
157
156
156
173
168
169
167
161
163
184
179
181
195
192
196
201
200
206
168
174
169
140
147
136
119
127
112
105
115
97
100
114
92
113
127
106
120
133
113
128
141
123
135
148
134
134
148
131
133
145
127
136
145
129
149
154
140
158
160
146
180
181
170
116
153
120
116
153
123
116
150
122
114
144
116
115
143
115
125
149
127
141
164
147
156
178
166
164
184
176
164
180
174
157
171
161
144
157
142
123
135
106
104
117
77
85
107
56
76
106
52
69
96
47
61
91
36
66
99
39
77
109
57
92
116
73
97
114
78
97
111
89
96
110
93
94
108
89
94
112
90
95
112
89
85
101
75
80
97
72
103
119
101
118
134
123
118
134
124
120
135
125
129
143
131
117
128
106
100
111
76
83
94
58
116
122
101
197
199
196
211
211
211
197
195
195
188
184
181
172
167
165
151
148
145
165
165
160
184
182
177
171
168
162
151
146
138
114
107
98
91
87
72
79
76
60
58
53
39
74
66
53
80
72
58
81
73
59
85
76
62
72
62
49
66
58
44
75
66
50
85
73
56
94
82
65
98
86
68
98
83
65
105
89
71
104
89
72
110
95
79
121
108
89
126
114
94
117
106
85
93
82
63
64
58
44
39
38
26
19
19
11
6
7
2
7
10
3
6
6
1
15
13
5
64
45
24
71
50
29
24
20
10
57
39
26
103
65
44
108
67
44
89
55
37
103
63
37
112
70
44
114
70
39
115
65
40
94
59
36
107
65
39
92
56
34
90
54
30
101
59
40
86
51
33
65
40
25
29
19
9
27
28
20
70
70
64
66
60
56
12
8
2
17
17
13
92
93
89
107
108
103
116
117
112
132
133
128
156
156
154
165
164
164
174
170
170
169
165
164
155
152
149
182
181
181
201
202
203
152
157
150
137
145
136
139
147
139
135
144
134
116
123
109
109
114
96
121
127
109
131
137
121
130
137
122
131
140
123
137
145
130
144
150
138
154
157
147
168
170
160
192
193
186
108
144
113
113
148
119
126
156
132
140
162
144
133
153
133
121
141
121
131
151
134
154
174
163
165
183
177
165
180
173
161
174
164
151
164
150
137
149
127
117
131
100
90
110
60
68
99
41
65
95
42
61
91
36
68
101
42
77
109
53
89
116
65
95
117
73
99
117
87
97
111
88
98
112
92
101
119
98
105
121
100
105
120
97
102
116
94
113
126
109
123
137
124
128
141
131
129
141
132
129
142
131
125
136
117
119
129
99
107
119
84
110
116
92
180
182
177
210
211
211
197
196
195
186
182
179
179
175
171
159
156
150
162
160
155
171
168
163
172
168
162
172
168
163
155
151
143
124
118
106
102
95
82
80
73
59
88
78
62
97
85
70
94
82
67
91
79
63
95
82
67
92
80
64
105
92
74
120
105
85
124
108
89
129
112
93
127
109
90
120
103
83
118
101
82
113
97
80
104
93
75
92
83
65
82
74
58
41
38
26
13
13
5
8
10
4
6
8
2
6
8
3
14
14
8
5
7
2
38
25
15
87
56
36
56
37
22
42
29
17
65
41
25
108
72
47
93
61
41
98
60
35
127
80
49
113
69
42
123
73
46
96
55
31
110
69
43
101
60
35
86
52
30
90
53
28
82
50
26
78
49
30
54
33
19
26
22
14
47
49
43
30
30
28
40
33
31
25
20
11
6
5
0
67
68
64
124
125
120
140
141
136
126
127
121
133
134
129
144
145
141
156
155
152
154
154
150
152
152
146
186
186
184
193
195
194
157
163
154
140
147
138
136
145
138
137
145
136
133
135
125
111
113
96
117
121
103
134
138
120
126
130
112
125
129
112
144
147
134
157
160
148
161
164
152
165
167
157
196
197
191
110
142
116
129
156
138
158
181
172
167
187
185
162
179
172
143
158
144
126
144
124
141
157
143
154
170
159
161
174
164
160
172
161
151
163
150
134
148
123
121
137
104
100
121
73
73
104
39
65
97
35
61
93
36
69
103
45
75
110
50
86
121
61
92
123
67
91
115
74
95
112
83
100
115
93
103
120
101
110
128
107
117
133
112
123
136
117
119
132
113
127
141
124
131
143
129
134
146
132
141
152
139
140
152
138
139
150
136
130
140
123
117
125
103
182
184
177
211
210
211
202
199
198
185
182
178
178
174
169
168
164
159
155
151
147
143
138
134
145
142
136
165
162
157
163
159
153
150
146
138
141
136
125
121
115
101
110
102
87
117
105
90
115
100
85
118
103
87
126
112
95
130
113
98
132
114
98
134
117
98
136
118
99
131
114
96
129
113
95
122
106
87
111
96
76
100
88
69
71
64
49
41
35
22
42
37
26
26
24
16
13
14
6
7
7
1
4
6
0
9
9
4
11
11
6
7
8
3
74
51
36
120
79
53
103
64
42
65
42
25
50
35
20
72
47
31
94
60
42
144
91
59
130
82
53
120
74
46
110
67
44
106
63
38
115
69
42
87
53
29
82
46
25
86
49
29
73
42
23
76
48
33
36
25
14
46
44
39
106
107
107
19
20
18
4
4
2
11
9
4
6
3
0
78
79
75
146
147
141
119
119
113
115
116
109
117
117
112
137
138
133
133
134
129
134
135
130
158
157
153
199
198
199
172
177
171
145
155
144
138
147
140
134
141
134
134
139
131
131
134
122
116
119
100
116
118
97
130
132
110
125
129
106
120
124
104
145
149
132
161
163
151
161
162
150
163
165
153
189
190
183
118
145
123
159
179
174
190
210
214
187
206
213
173
190
187
160
173
162
125
139
121
126
140
121
139
154
136
149
161
147
150
162
149
144
155
140
129
144
115
117
137
95
104
131
78
88
125
51
77
116
43
67
106
39
69
105
42
77
114
50
88
128
62
97
133
71
93
122
74
88
112
77
95
113
86
102
119
97
115
131
108
123
139
118
130
144
125
126
140
120
123
136
115
127
138
118
138
148
131
143
152
138
143
153
138
143
152
138
141
150
136
129
137
120
176
177
171
208
204
205
204
200
199
184
180
176
171
167
162
165
161
157
147
143
139
118
114
108
126
122
117
133
129
124
134
130
124
156
153
147
156
152
143
142
137
125
126
119
106
124
116
101
123
113
97
129
116
100
136
124
106
137
124
107
133
117
99
129
112
95
132
115
95
122
106
88
110
97
79
102
88
71
84
72
54
68
58
42
48
43
30
28
26
16
29
26
16
23
22
14
20
21
11
17
18
10
5
5
1
17
13
7
7
6
2
21
17
9
102
69
46
114
74
46
113
71
46
37
25
15
21
19
12
67
43
32
107
65
44
130
84
53
105
64
41
109
65
41
90
53
31
123
76
51
98
60
34
89
53
29
95
56
35
79
45
27
47
28
15
20
15
6
11
10
3
32
30
30
80
79
85
86
86
86
84
85
84
87
87
87
45
44
41
105
103
97
139
139
131
109
110
103
117
118
110
133
134
129
153
154
150
118
118
114
134
132
129
182
178
176
202
200
201
164
174
162
135
149
134
134
145
133
128
134
126
128
131
121
130
132
117
118
121
100
116
121
95
119
124
97
119
124
97
113
117
92
133
137
115
154
157
143
156
158
146
158
160
147
184
185
177
131
154
138
188
207
213
210
229
242
206
224
239
193
207
214
167
177
170
106
118
97
101
116
92
124
138
116
138
150
131
138
152
134
139
156
134
133
151
122
120
144
101
105
139
76
97
138
58
93
136
54
91
133
59
90
130
61
90
130
64
94
136
69
98
141
73
96
134
76
90
119
77
85
108
72
96
113
84
115
129
103
124
139
116
128
143
123
125
140
119
123
138
113
125
137
111
138
149
131
146
154
143
152
159
147
149
156
144
145
153
141
152
158
147
187
187
182
202
198
197
195
191
189
180
176
172
173
169
165
169
165
160
155
151
146
128
124
119
132
128
122
123
120
114
120
116
111
142
139
133
141
137
131
137
133
122
120
114
101
93
88
75
99
94
79
114
106
90
133
123
106
126
116
99
102
91
75
93
82
65
108
92
74
106
90
70
80
67
49
68
56
42
78
67
51
60
50
36
37
33
21
17
17
8
24
22
13
23
21
12
14
15
5
8
10
3
5
7
2
20
17
10
10
10
4
45
33
24
98
62
41
105
64
40
124
80
58
61
39
26
25
16
10
57
38
28
126
81
56
110
69
43
101
61
39
109
65
42
121
72
48
111
70
46
82
51
28
94
56
31
84
49
30
63
37
21
45
28
17
27
20
9
27
23
18
20
19
18
0
0
0
2
2
1
23
24
22
85
85
86
168
167
168
166
163
162
131
130
124
114
115
108
120
119
112
124
123
117
162
161
156
141
142
137
148
146
141
179
175
172
175
179
173
126
141
117
98
114
84
104
118
93
113
121
102
113
119
99
115
121
98
118
124
98
116
125
96
116
125
98
109
116
91
99
108
80
117
125
101
138
143
128
145
151
137
147
153
139
177
181
172
147
170
159
196
215
228
210
228
243
208
225
243
206
219
234
156
165
157
84
96
69
87
104
75
115
134
106
131
150
127
132
153
131
131
154
128
125
150
116
121
151
106
111
148
80
106
149
67
112
155
77
120
161
95
124
163
103
117
156
99
107
148
89
97
145
76
89
136
69
84
122
70
74
104
59
84
104
68
107
122
95
119
135
111
125
140
117
126
141
115
124
140
111
124
139
107
136
150
128
148
159
145
154
161
149
151
157
146
148
154
142
144
150
134
151
153
141
192
189
185
192
188
185
191
187
183
185
181
177
172
168
162
165
161
155
141
137
132
140
136
131
137
133
128
121
117
111
117
113
107
111
108
102
97
95
85
81
76
64
64
61
47
66
62
49
86
80
67
95
87
73
83
76
63
52
47
35
40
36
23
66
57
43
96
82
64
80
68
49
51
41
24
79
67
50
78
67
50
56
49
35
32
28
16
30
27
17
27
25
15
19
21
11
6
7
2
12
11
5
43
32
23
32
23
14
65
40
30
96
61
42
114
73
48
134
89
66
58
37
27
28
20
11
63
40
29
112
74
53
94
61
40
112
70
49
105
64
39
139
87
61
91
53
33
74
45
27
103
61
40
114
67
47
85
50
35
38
23
13
33
22
14
29
28
24
28
30
26
14
15
10
33
33
28
21
21
15
27
27
21
144
143
138
215
210
213
114
111
107
111
107
102
132
128
122
131
127
121
153
151
144
152
151
146
159
157
152
190
188
184
162
173
163
112
129
105
97
115
83
92
108
73
97
109
75
101
113
80
103
117
83
108
123
91
111
124
92
112
125
97
105
118
91
101
113
86
111
121
98
125
133
116
129
136
119
131
138
119
161
166
153
152
172
169
194
213
226
204
222
237
196
214
231
192
206
220
126
135
123
80
93
69
87
105
78
110
133
104
123
149
121
132
158
133
132
159
132
122
150
113
116
149
103
117
155
92
117
158
82
123
164
97
134
171
120
141
175
131
140
173
130
127
164
116
107
152
91
90
138
70
79
123
62
73
107
56
79
104
61
98
119
82
115
131
100
124
139
108
125
141
103
122
139
95
119
139
93
124
143
101
137
153
121
145
155
134
147
156
138
140
149
126
128
134
105
124
126
102
178
176
168
186
182
178
186
182
179
188
184
180
173
169
164
165
161
156
145
141
136
146
142
136
131
128
121
110
108
99
101
99
91
103
101
94
84
81
72
73
67
55
67
62
50
46
41
29
48
43
31
57
52
40
56
50
39
31
28
19
23
20
10
28
25
14
56
48
33
71
62
43
62
51
33
76
64
46
84
74
54
67
60
41
51
45
29
49
44
29
37
35
24
14
15
9
6
6
2
19
14
8
73
46
35
44
32
21
68
47
34
110
70
47
142
89
62
120
76
56
43
29
20
30
23
14
77
47
33
83
51
28
116
70
43
111
62
40
122
74
47
129
81
57
79
48
29
94
55
31
106
66
42
71
45
27
66
41
25
54
36
19
28
21
11
19
21
17
22
24
19
15
16
11
77
76
67
85
82
72
83
80
72
101
98
90
179
176
177
138
135
132
116
111
105
123
118
111
126
121
115
123
119
114
118
114
109
159
156
152
175
181
173
139
155
137
119
140
114
102
123
92
96
116
82
96
113
75
101
116
77
108
123
88
115
129
98
117
132
103
116
131
106
113
128
104
115
126
103
110
119
100
110
118
100
112
120
100
106
115
91
142
148
132
150
171
168
181
200
210
188
207
219
183
202
214
157
174
172
96
109
90
83
99
75
92
112
85
110
135
106
118
146
119
129
158
132
134
163
135
125
157
120
119
151
107
115
151
91
115
155
83
128
162
108
141
171
131
147
176
141
147
178
143
144
178
138
122
164
110
100
147
81
81
126
59
76
111
55
82
111
66
96
122
77
109
132
87
121
142
91
123
144
86
122
146
83
119
145
82
117
142
80
124
146
86
130
150
95
129
146
101
124
137
93
127
135
94
136
143
111
176
177
166
186
182
178
179
175
171
186
181
178
170
166
161
164
160
154
145
141
136
146
143
137
136
132
125
122
119
110
116
114
104
126
124
115
95
92
81
82
78
65
65
62
48
61
57
44
51
46
34
55
51
39
50
44
35
39
35
25
32
30
19
23
23
12
17
16
6
21
19
8
46
41
28
73
64
47
84
76
56
72
66
47
62
55
41
60
55
40
43
41
28
16
17
10
9
9
3
38
30
19
97
62
47
45
28
17
69
48
33
134
88
61
154
97
68
103
65
46
37
27
18
26
16
9
109
70
49
124
78
51
123
73
46
120
69
45
137
83
53
97
60
40
67
42
23
113
70
43
88
56
31
66
40
25
72
44
26
48
34
19
24
20
12
5
7
4
6
7
3
5
6
1
38
37
28
69
65
53
73
67
54
95
91
80
156
154
150
114
112
105
119
116
108
136
133
125
131
127
122
124
120
115
144
140
135
182
179
177
165
175
165
111
131
103
101
125
94
99
122
91
95
118
84
95
115
76
102
118
83
115
130
100
125
140
116
130
147
125
128
143
125
123
138
120
122
134
117
116
126
110
109
117
100
103
112
91
91
101
77
136
143
126
145
167
162
158
179
179
161
181
184
152
171
172
114
132
120
86
101
84
87
102
82
94
114
88
110
133
108
116
143
117
123
153
124
130
161
128
123
157
117
117
150
105
106
141
85
102
137
74
118
150
100
135
164
126
142
169
138
143
172
138
141
175
132
124
166
111
105
151
88
94
138
72
85
124
64
90
120
75
100
129
80
112
139
86
119
146
86
122
150
82
123
153
72
122
156
67
122
154
70
121
151
74
123
151
76
125
147
81
126
144
82
129
147
84
134
148
99
158
165
141
184
183
177
176
172
169
188
183
181
176
172
169
150
146
141
152
148
143
149
146
139
145
143
134
128
125
116
118
114
106
125
120
112
105
101
90
87
85
71
73
71
56
63
61
46
54
52
38
69
67
54
61
58
45
55
52
40
36
33
22
31
29
18
24
23
12
15
16
5
15
16
6
69
67
52
84
82
65
74
71
58
65
61
52
49
46
36
43
41
31
9
10
5
19
16
8
77
53
37
94
62
45
43
27
17
59
42
29
125
82
60
156
100
70
106
71
51
36
26
18
64
46
29
129
79
56
127
78
53
109
68
44
108
66
41
131
82
54
77
47
27
79
50
29
78
49
31
75
48
30
79
47
30
42
25
15
21
17
10
29
29
25
49
50
47
34
35
30
23
24
19
20
21
13
40
36
24
84
78
64
133
130
118
142
141
134
118
115
106
124
121
111
128
125
117
133
130
123
151
147
142
165
162
159
196
197
195
154
167
150
112
133
104
90
117
79
93
119
83
96
120
83
101
121
87
113
129
101
123
139
116
132
147
129
131
148
132
123
140
123
126
141
126
124
137
123
117
128
114
114
123
108
105
116
95
92
104
79
140
148
130
139
163
155
139
162
157
135
159
152
114
136
125
88
107
91
82
99
80
81
99
77
88
104
82
100
118
95
107
132
104
113
143
107
112
147
104
112
149
101
107
143
92
97
133
80
84
116
63
90
118
72
114
140
104
126
152
120
132
162
124
128
163
114
118
161
101
110
154
94
112
152
96
109
146
90
106
139
92
104
137
84
113
143
86
118
149
83
123
156
77
125
160
70
127
163
68
128
164
69
123
158
68
123
155
70
127
154
78
134
157
86
136
159
87
132
155
86
143
158
110
179
180
171
168
164
161
183
179
175
172
168
165
157
153
148
163
159
154
148
144
139
139
136
128
133
129
121
114
110
102
103
100
89
91
88
76
87
85
71
78
75
62
69
67
52
73
71
57
65
61
49
63
61
48
54
52
40
55
52
41
56
53
41
47
45
33
49
47
36
84
84
73
104
103
93
63
62
55
47
48
41
37
38
31
49
48
45
78
79
77
55
54
52
49
40
32
115
76
58
102
67
47
29
18
12
60
42
30
135
91
64
135
90
63
86
53
39
42
23
14
78
55
38
130
81
54
115
69
45
109
63
40
118
69
45
112
69
42
63
41
20
83
54
33
63
41
21
77
48
30
79
49
30
40
26
16
18
14
8
8
9
4
14
15
10
10
11
7
13
15
10
38
38
31
92
88
80
144
140
131
116
114
104
111
108
100
112
109
101
111
108
100
133
129
123
134
131
123
139
136
129
178
176
173
178
185
175
122
142
112
87
114
73
84
110
70
92
118
81
95
120
86
105
125
97
123
138
117
132
148
132
135
151
139
133
147
137
122
138
123
118
135
119
116
131
117
110
123
109
109
121
105
100
113
92
91
105
79
144
153
135
130
156
143
126
153
140
114
139
124
88
111
93
70
89
66
71
91
66
77
96
71
82
97
75
88
104
80
88
110
79
94
123
82
100
136
86
102
143
87
99
141
84
92
131
75
77
109
58
63
92
46
79
106
68
96
123
86
110
139
96
113
149
93
114
153
94
121
160
111
123
159
111
117
154
100
119
156
102
112
147
87
109
140
80
115
147
79
124
157
81
127
161
76
131
166
76
135
168
80
133
166
79
129
158
77
132
158
85
138
161
93
137
162
91
134
160
92
147
165
117
175
179
165
168
165
161
161
158
153
175
171
168
169
165
160
155
150
145
120
116
110
127
123
116
130
127
119
108
105
96
112
110
100
110
107
97
100
97
85
92
90
76
84
82
67
90
87
71
77
72
57
71
67
55
70
65
53
71
69
54
58
56
42
56
53
41
101
96
86
127
125
114
80
80
70
48
49
44
11
14
8
7
8
2
18
19
14
40
41
39
61
59
57
39
36
31
103
73
58
79
55
38
20
18
10
43
31
20
104
67
47
108
69
47
76
45
31
31
20
13
81
56
38
118
77
52
104
64
40
126
77
54
121
74
50
101
65
37
76
48
28
92
59
36
73
46
27
78
44
28
64
42
26
47
31
17
32
24
15
3
4
0
8
8
3
29
29
21
32
32
24
56
55
48
112
110
104
150
147
142
113
109
100
101
97
89
112
109
100
118
115
107
139
135
128
149
145
138
160
156
152
190
191
187
138
152
130
96
121
85
79
107
67
79
105
67
87
111
77
93
115
85
108
126
102
128
143
126
136
152
142
139
155
147
134
149
139
119
134
118
108
123
106
103
117
100
102
115
100
104
117
100
99
112
91
96
108
86
147
158
141
112
142
119
103
133
109
87
115
88
75
99
71
66
86
59
67
87
58
76
95
69
82
97
76
75
91
67
74
96
58
79
108
59
90
127
70
97
142
81
97
146
82
92
136
72
78
113
57
58
88
40
58
85
43
72
100
59
87
114
73
101
132
83
112
146
97
127
160
118
128
162
119
122
158
108
124
159
107
122
155
95
111
141
77
111
139
77
122
152
84
124
157
78
130
162
79
139
168
89
140
168
88
133
158
85
137
159
96
143
165
103
139
163
98
134
159
98
140
160
114
157
168
140
166
168
159
133
131
124
161
157
153
177
172
170
151
147
142
128
124
118
135
131
123
134
131
121
125
122
113
115
112
104
98
95
86
101
98
86
100
97
83
95
92
77
87
85
69
98
93
75
91
87
69
85
82
66
74
72
57
58
55
44
74
72
59
112
108
96
104
100
90
59
56
49
8
10
5
0
1
0
2
2
0
2
3
0
3
4
0
11
9
5
43
33
22
62
45
34
66
46
36
42
26
18
52
31
21
59
35
23
83
46
34
70
41
27
63
43
29
102
66
48
103
64
45
99
61
37
111
70
49
109
69
45
78
50
30
96
61
40
86
54
33
82
50
28
87
53
32
52
33
16
51
34
20
20
15
9
0
1
0
30
28
19
90
83
67
95
89
75
101
99
89
118
114
109
173
169
165
127
124
114
115
112
102
120
117
106
120
117
107
125
122
113
140
137
129
177
175
170
166
172
162
116
134
107
79
104
65
70
97
56
73
98
61
78
99
70
93
111
86
113
128
109
132
146
132
134
150
139
134
151
141
128
143
130
108
120
102
92
104
82
104
114
95
110
120
103
109
122
102
103
116
96
107
120
99
156
166
151
93
123
87
79
111
72
77
107
68
81
105
74
75
95
68
68
87
59
74
91
65
84
99
75
78
95
66
72
95
50
82
110
57
97
134
77
106
151
93
106
152
91
98
142
79
82
121
59
65
97
43
57
85
39
62
89
47
73
99
60
89
115
80
100
129
90
119
149
111
128
160
120
127
161
114
127
161
111
122
155
99
114
143
81
109
134
77
116
140
80
122
152
80
129
160
81
134
165
85
133
165
84
133
160
89
137
158
101
141
160
106
144
163
112
142
164
115
141
160
116
149
163
131
168
172
160
142
139
133
142
138
133
184
180
177
164
160
155
139
136
130
127
123
116
136
133
124
133
130
121
117
115
105
108
105
94
111
109
98
108
106
93
103
101
86
76
73
58
101
97
79
96
93
73
80
77
60
82
80
65
72
69
58
81
81
69
142
142
134
138
136
130
127
124
119
107
105
102
67
67
62
32
33
28
20
20
16
5
5
1
6
6
2
78
54
37
98
64
49
68
43
35
57
31
22
63
37
27
56
32
22
64
39
28
50
32
21
62
38
27
51
32
21
63
38
27
108
61
38
97
57
34
124
77
52
77
47
30
90
55
34
70
42
21
101
59
35
70
40
22
56
35
20
37
23
12
4
5
0
11
10
5
51
47
33
102
87
68
100
88
69
99
92
75
140
134
127
170
165
161
125
121
114
112
110
99
125
122
110
126
122
110
132
127
116
153
148
140
185
185
182
143
153
139
86
106
75
71
94
57
64
89
50
67
89
56
77
94
69
95
111
90
109
124
107
127
140
129
126
140
130
120
136
123
113
125
109
101
111
86
94
105
75
111
118
95
122
129
108
120
130
110
114
128
106
111
125
102
157
168
152
73
105
51
69
103
54
82
112
74
83
109
78
80
101
73
77
93
68
82
98
73
87
104
77
91
111
80
93
116
76
102
130
81
112
149
98
127
165
121
126
165
121
114
154
104
96
136
77
79
116
51
68
101
47
67
96
51
70
95
58
82
102
74
85
108
77
98
126
92
115
146
107
121
156
107
119
155
97
114
149
88
107
136
81
106
128
79
112
129
81
118
143
78
124
154
78
125
158
76
126
159
78
129
156
86
133
152
99
137
154
106
136
155
107
138
158
112
137
154
115
145
160
132
162
171
157
161
162
155
149
147
141
173
169
166
171
168
163
145
141
135
125
122
114
144
141
133
136
133
125
122
120
109
111
108
97
119
116
105
118
115
102
100
97
82
83
78
63
97
94
76
98
95
78
87
84
69
89
87
71
88
86
71
121
121
111
194
194
190
171
169
166
155
152
148
153
152
148
145
145
140
127
128
124
71
72
69
1
2
0
26
21
14
130
84
65
118
73
52
51
29
19
49
30
22
44
27
19
38
25
16
43
26
18
47
31
22
45
27
17
31
22
13
56
38
27
126
74
48
124
74
50
107
66
42
85
48
29
98
57
34
85
50
26
95
53
31
63
37
21
50
30
15
24
16
7
17
16
10
70
64
51
92
80
59
107
87
65
120
105
85
156
146
133
171
164
159
136
132
125
119
116
106
112
107
96
123
115
102
118
111
97
134
129
118
173
167
163
163
166
157
112
124
103
85
104
74
69
90
58
64
85
52
71
89
61
80
97
72
91
107
86
97
111
94
111
124
110
108
124
110
103
118
101
101
113
89
98
108
80
106
114
86
121
126
103
131
137
115
131
140
120
123
134
112
109
121
97
149
160
141
68
100
44
77
108
61
89
116
81
89
113
82
82
103
76
83
100
76
85
102
79
85
104
79
89
109
82
110
132
103
119
146
105
130
164
124
143
178
145
139
175
141
126
163
121
108
147
90
87
129
58
76
118
46
71
108
47
69
96
51
75
94
65
72
91
65
81
106
75
95
124
85
104
138
83
103
141
76
107
140
80
106
132
83
107
126
84
109
123
83
111
132
74
115
143
70
114
147
65
121
152
70
131
152
83
131
148
92
132
147
98
128
146
101
128
146
103
131
149
112
138
154
126
152
165
145
170
175
165
150
149
143
159
155
152
176
172
167
149
145
139
134
131
125
145
142
135
145
142
136
125
122
114
117
114
105
96
94
82
104
102
90
114
110
97
94
91
76
100
98
82
101
99
84
92
90
75
93
91
75
112
109
95
185
182
177
195
192
189
164
159
156
160
157
152
145
144
138
63
62
57
39
39
35
61
62
60
26
27
26
37
29
22
129
84
67
134
81
59
66
40
26
48
32
22
36
23
15
33
20
13
56
32
22
43
25
18
37
21
13
24
19
12
55
37
23
120
72
43
130
79
53
95
58
36
84
50
34
85
50
30
104
63
37
88
51
30
65
36
22
43
26
13
25
18
9
66
58
41
112
99
78
115
99
73
126
108
85
151
140
127
181
175
173
166
161
156
135
133
124
126
124
114
124
117
105
119
108
94
116
106
92
148
143
136
178
176
173
140
148
135
85
100
75
78
96
68
72
91
63
70
88
58
78
94
67
83
98
74
85
101
77
84
99
77
90
105
86
91
106
86
88
103
80
91
103
78
94
105
80
115
122
98
130
137
117
134
142
123
137
146
127
128
138
119
108
122
97
146
157
136
76
104
59
87
115
74
93
119
84
91
115
84
86
105
81
83
98
77
79
95
73
84
102
78
94
113
87
116
138
110
131
158
123
143
175
143
147
181
154
144
178
149
131
166
132
114
151
100
92
136
61
80
129
43
76
121
45
65
101
44
63
89
51
60
83
52
72
98
65
86
113
77
90
122
73
95
131
77
101
132
82
103
126
85
108
124
88
109
123
87
111
130
80
114
139
74
112
141
65
119
142
65
133
147
79
133
143
84
129
140
91
128
142
97
122
139
93
120
139
95
128
147
114
140
157
130
155
165
148
157
158
150
146
143
138
167
163
158
166
163
156
141
138
131
145
142
136
148
145
140
132
130
122
120
116
107
105
103
92
107
104
92
118
113
101
104
102
87
104
102
87
109
107
91
94
92
77
95
93
80
151
150
141
202
199
194
189
185
181
165
160
155
128
127
118
117
116
106
78
76
69
27
25
21
13
14
10
10
11
7
8
7
3
20
15
10
65
46
33
100
69
53
56
41
29
46
28
20
67
38
28
77
49
40
69
39
28
30
19
10
20
17
9
91
55
37
138
83
53
133
78
50
92
51
29
56
36
20
90
53
32
107
64
38
75
45
28
58
33
17
48
32
20
35
28
15
84
69
45
110
93
68
120
102
78
130
115
96
148
140
131
161
158
152
130
127
118
126
123
114
127
123
112
116
110
97
119
108
94
129
122
109
174
172
166
168
172
164
103
116
96
83
98
73
74
94
66
71
92
64
79
97
69
82
99
70
82
97
70
81
96
70
77
93
65
76
90
65
77
91
66
79
92
67
81
95
70
94
105
81
116
125
104
128
135
118
133
141
123
135
145
126
125
135
115
105
118
93
142
153
131
77
104
62
85
112
73
93
119
83
86
109
77
83
100
75
67
80
59
66
79
59
78
94
72
93
112
85
116
138
109
134
160
130
139
171
143
140
173
149
136
170
144
127
162
129
111
150
96
92
138
60
88
139
52
80
127
45
63
101
40
59
90
43
58
85
48
69
96
62
86
112
77
92
120
83
93
122
83
91
118
79
95
117
81
103
119
84
110
126
91
122
138
104
124
143
105
122
143
90
121
138
71
126
136
70
132
137
78
127
132
79
123
133
86
122
137
88
112
134
82
111
138
90
112
139
92
127
147
110
159
162
149
152
149
144
152
148
143
170
166
160
147
144
136
146
143
135
150
147
141
128
125
117
112
109
100
118
116
105
116
114
100
108
106
91
108
106
90
113
111
96
111
109
94
115
112
97
128
126
116
181
180
174
196
193
189
158
155
150
121
119
111
100
97
88
84
81
72
72
69
60
66
64
56
24
25
17
8
9
3
47
34
24
60
40
30
53
39
28
82
54
43
43
29
18
60
39
29
78
47
36
59
37
28
71
41
28
31
18
9
17
13
6
91
53
39
132
79
55
131
78
52
82
47
27
74
45
26
104
60
38
121
76
55
66
37
21
48
28
11
40
27
16
40
31
17
81
67
43
107
89
66
122
106
84
125
113
97
125
119
111
127
124
116
114
111
102
117
114
104
131
125
114
120
111
97
123
112
99
154
149
141
181
183
176
153
159
148
112
124
104
86
103
77
76
97
69
75
95
68
81
99
72
83
100
69
79
95
64
80
95
66
76
92
65
72
87
61
70
83
59
78
92
67
84
97
74
95
107
85
110
121
102
122
131
115
127
137
120
126
135
118
110
123
100
94
109
80
138
149
128
79
111
64
81
110
67
87
113
74
78
102
66
71
88
60
54
68
44
55
67
44
67
82
58
84
100
75
103
121
94
118
143
113
126
155
126
126
157
130
123
153
124
118
147
113
100
136
79
91
136
57
98
145
62
89
134
52
72
112
47
65
97
50
66
93
57
84
109
78
96
121
92
99
124
96
93
118
89
88
111
78
85
106
74
102
121
90
122
139
114
135
152
129
136
153
126
132
147
112
127
140
89
120
131
68
125
130
70
130
132
78
122
131
78
115
133
78
104
128
70
97
125
67
98
129
73
109
136
89
129
144
115
154
158
147
159
157
153
171
168
163
165
161
156
140
136
129
155
151
144
133
131
121
121
118
107
113
110
100
110
107
96
112
109
96
106
104
88
124
122
107
119
117
102
126
123
108
152
150
139
193
193
187
203
202
198
171
169
164
114
114
105
64
65
56
28
28
23
14
12
9
10
10
7
6
8
3
10
10
3
43
30
21
70
45
32
97
61
38
131
80
58
67
42
28
65
42
29
78
52
36
67
41
29
59
35
22
43
26
18
27
20
11
76
43
33
105
63
38
125
77
47
78
44
27
92
56
35
122
73
48
101
63
43
64
39
23
58
35
22
38
25
16
39
29
13
85
69
45
108
91
67
120
107
85
103
94
80
102
97
88
113
110
100
120
117
107
122
119
107
135
127
116
124
113
100
137
128
118
167
163
157
160
162
153
121
127
111
98
111
86
86
103
76
74
97
69
75
98
69
80
101
71
80
99
67
81
97
67
88
104
78
90
105
84
85
100
80
81
95
74
88
101
79
94
107
84
97
111
90
105
119
100
116
128
112
112
124
106
112
123
104
109
122
98
98
114
86
142
155
136
81
119
65
79
113
64
79
108
64
77
101
64
71
89
60
59
72
47
62
75
50
68
79
54
81
91
68
92
104
83
102
121
95
108
129
103
111
133
105
111
133
103
104
127
93
98
127
78
105
140
79
110
147
83
95
135
62
83
122
54
80
111
65
86
112
81
103
128
103
112
136
113
110
134
109
95
118
90
91
112
82
93
115
86
114
136
111
133
154
134
136
156
136
137
156
133
138
155
127
129
146
98
120
133
68
127
133
66
133
136
79
127
134
90
120
136
89
112
135
83
103
130
78
101
130
78
103
129
82
110
129
95
139
150
132
164
166
158
163
161
156
164
161
157
155
151
144
153
150
142
136
133
124
119
116
105
108
104
92
108
102
92
107
104
92
121
118
104
131
128
114
123
120
106
132
129
116
160
159
149
202
203
199
217
217
214
194
190
187
168
167
160
135
135
129
79
80
76
48
50
45
16
16
12
2
3
0
12
13
5
13
11
4
46
31
17
119
72
48
143
85
58
80
50
36
52
36
23
80
54
37
97
56
40
41
22
12
28
19
13
35
28
16
70
44
28
128
78
50
115
68
41
74
42
26
87
51
29
119
74
48
55
38
22
41
26
11
57
38
22
32
22
12
51
39
21
92
74
46
114
97
70
113
99
80
93
84
70
94
89
78
110
106
96
116
111
100
130
124
110
132
122
109
129
119
108
152
144
136
169
165
160
141
144
129
105
112
89
87
98
69
76
95
64
68
93
61
65
91
59
71
95
61
77
97
61
85
103
73
93
111
89
97
114
98
101
116
101
101
114
98
108
120
101
109
121
101
102
117
96
99
114
95
105
118
101
106
119
100
112
128
107
118
135
112
110
128
103
152
165
147
79
118
59
79
112
59
72
100
53
78
102
64
82
96
69
76
86
62
79
87
63
86
92
69
91
96
76
90
98
79
91
105
83
97
112
90
102
118
93
102
119
91
106
123
90
116
139
98
117
145
100
116
146
100
104
138
82
90
128
62
93
124
77
101
127
98
110
135
109
117
141
119
119
141
122
103
123
97
95
115
88
96
117
89
113
134
109
130
152
132
137
160
140
137
158
134
134
155
125
122
146
91
122
140
70
132
142
74
134
143
82
133
143
102
130
145
107
121
142
100
114
141
98
110
137
95
114
137
101
116
135
108
133
147
130
161
166
158
159
159
154
159
157
151
170
166
160
164
160
155
154
151
143
134
131
121
123
118
108
118
112
103
112
107
97
125
120
108
131
126
113
136
130
119
141
136
126
171
169
162
207
207
205
221
220
217
188
184
181
168
163
159
156
154
148
77
77
72
43
45
40
54
54
50
24
24
20
8
9
5
9
8
3
92
62
40
142
86
59
144
86
61
73
44
33
49
32
20
78
51
36
87
56
37
38
26
15
29
19
14
43
30
19
80
54
33
110
68
43
100
60
38
77
45
26
107
67
41
93
61
39
43
26
14
56
34
19
61
41
27
49
34
17
72
55
30
100
79
49
112
94
67
107
93
73
93
84
68
99
91
76
114
107
92
121
112
98
119
108
92
120
110
95
145
137
126
154
149
142
165
166
157
132
136
119
102
109
85
85
98
67
93
105
75
99
109
82
96
106
77
93
105
73
89
105
74
96
109
83
100
115
96
102
117
102
106
119
108
114
127
113
118
131
114
117
130
110
112
126
105
104
118
97
107
120
101
112
130
112
116
138
117
124
145
123
124
144
121
167
181
165
99
133
87
92
123
77
79
105
61
80
99
65
90
100
77
93
100
78
95
101
78
102
104
83
95
97
77
92
96
76
92
100
81
98
111
91
97
111
89
100
116
88
113
129
96
124
143
106
116
143
97
109
138
90
111
140
94
96
130
71
98
128
76
104
129
98
111
136
110
118
142
120
124
146
127
111
130
108
101
119
93
96
116
88
108
128
102
124
145
123
135
156
134
134
156
128
124
152
108
110
143
74
118
145
70
130
150
82
131
147
87
132
146
100
132
147
112
130
147
116
121
143
112
120
142
113
123
144
120
123
142
123
136
152
141
152
163
156
163
166
159
155
153
146
159
155
149
172
169
163
156
153
146
136
132
123
121
116
106
129
123
114
113
108
98
115
111
100
133
129
117
146
142
132
146
142
132
172
169
162
197
196
191
209
207
203
189
185
182
153
149
143
132
131
120
89
88
78
23
22
16
16
16
12
26
24
20
20
19
15
55
49
41
115
80
60
134
80
57
111
70
52
56
35
25
50
34
21
79
53
38
91
60
42
40
29
20
34
25
15
68
44
31
103
62
40
96
58
36
76
42
24
84
45
24
109
66
40
67
43
24
56
35
23
51
30
17
51
34
23
64
48
24
88
66
36
107
83
53
110
91
64
105
89
66
102
88
67
117
104
84
124
111
93
123
110
93
120
108
92
132
122
109
141
135
125
162
161
152
136
139
122
115
119
94
100
106
76
111
113
82
148
139
117
155
134
125
149
131
121
138
122
112
134
125
116
137
131
123
140
136
131
137
135
132
138
137
134
134
136
127
126
135
122
122
135
117
121
135
113
118
135
112
121
141
120
123
147
127
123
148
127
135
158
140
139
161
144
175
189
177
125
156
121
120
147
112
99
121
86
86
102
72
93
104
80
98
107
83
102
110
82
106
111
86
101
105
82
103
107
87
104
110
92
105
116
96
102
115
92
107
123
93
117
134
99
123
142
106
112
137
93
104
133
85
109
138
91
97
132
74
97
131
74
106
134
98
110
135
107
116
139
116
117
138
118
106
127
102
105
122
95
107
125
99
111
130
103
123
142
117
128
150
121
122
148
110
113
148
90
105
145
66
113
149
67
127
154
83
134
153
97
135
151
105
134
150
115
129
146
114
118
138
106
120
139
113
126
145
124
130
147
134
141
157
151
147
164
159
163
172
166
162
161
153
159
155
147
171
167
160
164
161
155
138
135
126
118
113
103
122
117
105
117
112
101
116
112
102
130
126
115
143
141
128
139
137
125
166
164
154
194
191
185
195
189
184
179
171
162
154
147
135
117
113
100
98
92
78
57
53
43
9
9
5
16
15
10
22
19
14
69
61
49
105
74
55
117
69
46
119
75
52
62
41
26
62
37
27
94
62
45
116
73
52
69
44
30
65
40
24
84
53
33
128
78
52
117
70
47
84
49
27
92
52
31
101
61
40
59
38
22
51
31
18
54
31
18
56
39
22
86
65
35
102
78
47
109
88
57
110
92
63
111
94
69
118
100
78
119
102
82
115
98
79
117
99
81
132
119
104
140
130
117
145
140
129
162
163
149
133
136
113
107
114
80
111
110
82
152
132
117
158
123
112
143
101
92
116
79
69
121
81
71
128
87
77
119
90
85
108
83
78
114
96
90
114
97
92
109
97
93
129
123
119
131
129
119
123
124
110
126
140
122
131
154
133
129
156
132
130
157
133
140
165
146
141
164
147
173
188
175
132
159
129
129
153
124
113
135
105
97
113
85
99
112
88
104
116
91
105
117
87
105
116
82
108
118
88
110
118
96
112
120
101
114
123
103
114
127
102
116
135
102
118
139
101
118
140
100
105
130
86
100
129
81
97
130
79
94
129
73
95
133
77
101
133
90
104
129
97
109
130
104
105
123
100
106
124
96
110
126
96
108
125
96
111
131
100
117
139
108
117
143
108
110
143
90
109
149
82
108
150
73
114
153
76
126
157
85
136
158
104
137
155
110
137
152
114
126
143
110
113
131
98
112
131
101
122
141
120
132
151
138
143
163
159
152
171
169
164
178
174
172
178
171
160
158
150
155
152
144
173
169
163
155
152
143
134
129
118
129
124
112
128
122
110
118
114
102
138
135
123
142
140
128
133
131
119
160
157
148
186
183
177
184
179
172
160
151
139
125
112
97
63
55
46
21
18
11
19
17
11
15
14
7
7
5
1
6
6
2
55
34
18
106
63
42
126
75
53
122
79
53
54
35
20
70
41
29
95
61
41
118
75
49
123
78
51
93
56
33
96
62
40
92
55
35
105
63
42
79
47
25
85
50
28
101
62
43
53
34
19
51
34
18
67
46
30
80
59
37
104
79
47
112
88
57
116
95
65
120
103
76
119
103
79
109
92
68
105
89
66
113
94
74
125
110
91
136
124
108
134
126
114
154
152
140
139
142
123
121
127
98
104
114
76
109
104
81
137
103
103
148
96
87
142
87
73
138
82
62
157
94
71
140
85
67
120
78
62
119
73
57
98
68
53
70
49
38
55
41
34
77
63
58
85
67
61
87
71
64
108
107
100
127
144
127
124
155
126
130
161
135
139
166
147
140
164
147
175
189
179
138
163
136
130
157
129
115
142
114
105
126
99
106
124
100
106
125
99
110
129
98
113
129
92
107
123
85
106
120
88
108
119
97
114
125
105
118
132
107
112
132
98
102
127
85
94
119
75
85
112
67
85
116
65
86
122
69
91
128
76
96
134
80
99
134
84
94
124
81
99
122
90
100
119
92
103
122
91
108
126
92
104
124
91
113
135
103
117
143
111
117
144
110
111
146
91
112
152
86
115
155
91
125
161
96
128
161
92
132
159
100
133
155
103
131
150
101
121
141
95
105
128
84
97
122
80
110
131
101
125
143
127
140
159
152
154
173
171
159
176
174
168
178
173
166
166
159
150
146
139
162
159
151
170
167
158
156
152
142
140
134
121
131
124
110
139
135
122
148
146
134
137
135
123
131
128
118
158
154
146
172
168
162
171
166
159
155
147
134
119
105
89
41
33
25
9
7
6
32
29
22
17
14
8
5
6
1
19
16
10
90
55
36
122
72
50
139
86
63
101
65
45
44
28
17
71
45
28
106
67
44
111
72
49
99
62
40
106
63
40
86
53
34
80
48
25
103
63
42
59
35
14
95
57
33
86
51
33
39
24
13
49
34
20
58
40
24
106
79
48
120
93
63
124
100
72
121
102
75
113
95
70
101
84
60
102
86
60
108
91
67
121
104
84
132
118
101
127
117
105
150
146
135
163
165
150
134
138
118
120
128
98
106
116
74
122
109
86
146
103
104
147
92
83
153
93
77
176
112
92
181
114
91
155
99
79
146
95
74
161
106
86
114
81
62
69
48
35
64
48
39
76
54
43
87
56
44
74
55
45
65
56
52
84
93
77
118
150
115
128
159
131
138
163
148
141
164
151
180
194
187
134
161
133
130
158
134
118
147
121
112
138
112
111
136
111
103
130
100
103
129
92
113
135
94
109
127
83
109
124
86
121
132
108
119
130
109
112
126
103
96
115
84
84
108
69
81
109
64
75
103
57
75
107
58
86
123
75
100
137
90
105
143
95
104
141
93
98
132
83
93
122
78
94
117
82
93
114
81
103
122
87
116
134
105
125
145
119
126
150
123
122
151
118
118
150
106
121
156
107
128
163
117
136
168
124
135
166
113
125
156
94
123
151
89
116
142
81
109
134
76
97
123
72
90
115
64
91
113
72
109
126
101
131
145
135
147
165
163
150
170
168
156
170
164
162
168
159
160
158
150
152
149
141
168
166
158
167
166
156
148
143
131
137
130
116
146
142
129
155
152
143
147
144
134
138
135
125
158
155
149
169
164
159
165
156
146
138
128
112
98
84
67
32
26
21
24
20
17
67
55
40
31
22
13
20
14
7
56
39
27
110
68
47
125
74
51
127
79
56
66
41
27
31
21
12
76
46
31
120
78
56
92
60
40
100
63
41
113
62
38
69
39
19
103
63
41
97
59
38
78
47
26
86
53
30
61
38
19
32
23
13
43
29
18
69
52
34
118
94
61
118
95
65
116
96
68
104
87
60
98
80
54
99
83
56
106
90
63
117
101
76
126
111
91
121
110
94
138
130
119
170
169
157
154
158
142
131
138
116
121
132
99
112
119
79
142
123
109
151
105
103
141
89
82
150
98
81
180
120
99
178
120
98
147
97
77
159
103
82
162
112
89
102
71
51
77
56
42
79
59
46
88
60
45
95
62
46
72
52
41
45
34
25
72
84
63
110
141
105
122
150
126
131
156
141
136
158
145
181
193
184
121
148
115
120
147
125
115
146
124
118
149
127
120
152
128
113
144
115
106
137
97
102
131
85
105
129
80
115
135
94
124
139
112
118
131
108
108
120
96
94
110
83
83
102
69
83
106
67
82
109
67
83
114
72
96
129
89
103
141
99
109
147
102
109
147
99
101
139
87
96
129
76
96
123
82
102
122
91
116
131
107
129
142
122
134
149
129
134
153
131
127
152
124
128
155
123
132
162
132
142
172
145
147
177
151
150
178
147
135
164
113
120
151
88
110
141
74
104
132
67
97
125
63
90
117
59
88
112
62
94
111
78
113
127
110
141
158
148
144
162
154
145
161
151
147
160
146
164
166
155
159
156
148
160
157
149
171
170
161
163
158
148
147
140
125
142
135
122
154
149
138
154
151
141
143
140
131
152
148
142
166
161
153
155
146
133
124
112
94
84
72
57
38
35
28
62
52
44
96
73
52
74
48
28
80
53
36
102
63
42
114
68
44
122
74
51
110
65
43
59
36
24
39
26
14
108
69
47
83
55
35
82
51
32
99
64
41
116
69
46
92
56
31
107
64
41
89
55
34
84
50
29
68
39
22
56
34
15
37
27
16
40
29
16
74
56
33
94
73
44
90
69
40
91
72
42
95
76
47
101
82
53
107
90
63
114
96
71
124
106
83
127
112
91
131
121
103
161
156
146
160
162
151
138
143
124
128
135
111
118
131
96
120
123
96
151
123
119
144
100
96
143
99
89
149
97
81
164
105
86
157
109
87
139
93
72
150
102
81
139
96
75
101
70
53
95
69
58
92
65
50
96
63
46
98
67
52
66
47
35
59
48
34
91
106
82
102
129
98
111
139
116
123
150
131
137
158
143
183
192
181
114
139
104
110
135
113
111
140
119
114
148
125
119
152
131
119
151
124
115
146
108
102
134
83
100
128
74
115
138
96
119
136
106
116
130
105
107
121
96
98
114
88
86
102
73
89
108
79
95
119
86
97
128
89
105
140
101
108
146
106
111
150
106
111
151
103
98
139
81
99
136
80
119
147
116
133
152
138
148
162
154
155
165
157
139
150
135
134
149
129
133
152
129
125
151
123
136
166
140
143
174
152
148
179
156
155
183
157
148
177
138
131
161
100
115
147
80
106
137
72
100
130
62
95
124
59
90
116
60
86
106
65
97
115
84
123
140
121
131
148
132
131
149
132
133
148
128
145
153
137
163
162
154
159
156
148
165
162
153
167
163
153
156
149
134
139
130
114
148
141
127
157
152
142
153
148
139
151
145
136
155
150
140
152
143
129
121
108
92
64
56
45
48
41
31
111
85
70
100
70
48
102
66
41
105
67
47
107
64
46
118
74
50
132
80
55
98
58
40
37
26
17
65
43
25
91
64
42
69
46
29
99
64
40
70
46
27
80
50
32
101
63
39
109
68
42
82
51
29
89
55
36
82
49
30
56
35
18
57
37
22
48
35
17
75
56
26
84
63
32
88
66
36
93
71
42
96
75
45
104
84
55
111
93
65
119
102
76
125
106
83
128
112
92
145
137
122
168
167
158
147
150
139
126
135
113
120
132
103
112
129
90
129
124
105
138
105
103
133
89
85
137
96
87
136
87
74
144
93
76
146
104
84
149
104
81
147
105
86
126
86
69
120
84
68
100
69
54
98
63
47
102
66
50
94
64
47
68
44
31
84
80
62
110
129
103
104
126
98
101
123
98
109
132
112
131
150
130
175
186
168
109
136
92
100
121
98
102
124
102
108
137
113
114
144
121
119
147
120
114
142
108
108
139
92
108
136
84
115
138
94
122
140
107
118
133
105
108
126
98
98
116
86
90
107
78
100
119
92
97
121
90
99
129
93
113
147
111
113
150
112
109
148
105
112
152
103
97
139
81
107
143
92
139
165
145
147
167
161
154
168
165
164
175
172
146
157
147
129
142
123
128
145
117
116
142
105
135
165
139
148
178
157
151
181
158
156
184
158
149
176
140
130
162
99
119
152
85
109
139
79
102
131
67
99
126
64
97
121
69
95
119
73
93
115
74
101
120
87
115
133
102
119
140
105
118
139
101
117
135
98
155
159
144
167
164
155
160
157
147
162
157
147
163
155
142
149
139
122
134
122
106
139
129
116
152
144
133
151
143
130
149
142
130
143
134
118
115
102
88
42
35
28
60
48
37
122
91
72
100
70
47
133
90
65
122
82
58
119
75
54
133
83
58
130
79
52
80
52
35
38
27
17
83
59
40
58
41
25
60
37
23
100
60
38
78
48
30
68
40
24
100
63
39
89
55
31
85
52
33
85
50
31
71
39
22
53
34
20
51
35
22
62
46
25
82
60
30
85
61
33
93
68
40
98
74
45
100
78
49
107
87
57
113
94
67
121
102
78
124
108
84
131
119
101
159
154
142
142
142
130
129
134
118
123
133
109
114
128
94
114
126
89
146
129
116
144
104
103
138
98
94
141
100
91
129
82
69
130
82
68
143
100
85
147
104
83
139
99
80
140
95
77
128
88
71
113
75
60
115
72
55
115
73
53
88
56
37
83
65
50
119
124
104
120
133
111
103
116
93
90
105
82
88
107
77
107
129
89
160
174
144
100
126
75
92
110
81
87
104
78
99
120
95
119
143
122
125
148
127
118
144
116
109
138
97
112
140
91
113
141
86
120
143
99
118
139
101
111
132
94
86
106
68
85
106
73
105
127
97
102
129
97
103
135
102
116
153
119
113
155
116
104
146
99
107
148
96
101
140
86
111
143
104
143
166
155
147
168
164
150
167
166
156
169
169
147
158
149
125
139
116
117
138
98
112
141
90
132
162
127
150
175
149
154
180
153
153
180
150
147
175
134
133
164
103
122
154
89
113
142
87
105
133
83
104
130
80
101
126
77
102
126
84
101
124
82
104
126
82
110
132
89
113
138
91
116
141
92
107
132
79
134
145
118
174
171
162
167
163
153
160
155
142
158
151
135
147
138
120
134
121
105
131
117
102
136
125
110
141
130
115
150
141
127
145
136
120
102
87
73
43
36
28
78
58
48
135
94
70
127
87
60
136
93
68
111
74
48
122
79
52
131
81
56
101
62
39
32
23
13
45
29
19
85
57
40
56
35
21
80
49
32
85
52
28
74
47
27
97
61
39
116
69
45
79
48
24
65
40
22
77
47
29
65
40
24
41
28
15
36
27
14
71
53
29
83
59
30
86
62
33
92
69
39
100
75
47
105
81
53
110
89
60
116
95
69
120
100
76
124
108
87
144
134
121
163
162
151
136
140
123
127
135
113
120
134
103
111
128
88
127
131
102
162
132
129
156
105
105
137
99
95
137
100
88
144
94
78
130
81
70
136
91
76
148
103
81
141
96
75
149
101
78
120
82
61
115
75
60
110
72
56
104
71
54
83
55
38
102
91
77
134
142
125
120
128
108
102
111
87
88
100
75
78
98
62
79
104
54
141
157
124
107
131
87
101
119
91
102
119
94
113
132
112
124
143
128
124
145
131
122
146
126
117
142
106
114
142
92
110
140
82
116
142
89
115
139
91
99
123
74
76
100
51
81
106
67
105
131
97
108
137
105
113
146
115
117
159
126
111
156
119
107
151
106
102
145
90
99
139
83
105
137
97
135
160
143
141
165
156
143
163
158
146
160
157
130
141
128
107
123
92
106
130
84
111
142
83
122
154
101
135
164
119
141
169
127
144
172
129
141
169
122
131
161
102
124
155
93
117
147
90
109
138
88
105
133
84
104
131
84
103
127
82
103
126
81
103
127
79
107
131
80
114
137
85
116
140
84
113
139
79
119
140
96
171
173
162
168
164
155
153
147
131
147
141
122
147
139
121
139
128
110
133
119
100
129
116
96
129
115
96
145
135
118
153
142
126
95
81
68
44
37
33
93
74
62
111
78
53
133
87
60
138
95
70
114
74
50
123
82
56
76
47
30
46
30
19
13
11
6
61
44
32
82
51
35
72
47
30
99
64
41
64
39
21
93
60
36
85
53
35
80
47
27
84
50
32
88
57
36
73
41
22
58
34
18
33
23
14
47
33
16
77
58
31
84
62
33
91
67
36
96
71
42
103
78
50
107
82
53
109
88
60
117
97
71
121
101
76
132
117
98
156
152
138
154
157
143
150
155
137
143
155
130
125
144
109
110
131
89
128
124
102
154
115
117
160
104
106
143
103
104
135
98
90
143
96
87
117
83
72
139
97
78
154
107
86
155
106
84
154
108
83
132
90
67
110
73
54
87
56
41
76
51
35
61
43
29
117
114
99
142
145
128
130
134
114
116
121
99
100
108
84
84
100
68
72
93
54
127
140
115
120
146
107
111
135
103
120
143
118
136
158
143
140
162
149
135
157
145
130
153
136
131
151
124
110
141
82
107
140
70
111
141
78
107
136
76
93
122
61
82
109
53
83
112
65
97
124
85
108
139
104
113
150
116
113
156
120
108
153
113
114
158
115
111
152
105
98
140
87
101
138
90
114
144
108
120
149
123
121
146
127
114
132
115
94
113
84
88
108
68
97
123
72
110
140
79
118
151
90
122
156
95
124
159
95
128
162
97
126
158
94
121
153
89
118
149
87
115
142
89
106
131
86
103
128
83
106
131
86
100
126
79
102
126
78
104
129
77
110
135
80
115
138
83
115
137
81
117
143
84
119
142
92
140
151
128
170
166
155
155
147
132
149
141
123
147
138
119
138
125
103
135
119
96
130
113
89
126
109
86
128
114
95
143
126
108
92
79
67
49
44
38
89
72
60
108
71
47
149
98
74
129
84
60
121
75
50
105
70
52
59
38
31
24
16
11
25
20
13
75
52
37
71
48
32
86
56
37
98
61
39
75
47
30
113
74
48
75
47
29
88
55
33
94
58
39
71
41
24
67
39
22
48
28
15
25
19
9
56
41
19
81
59
29
87
64
34
92
68
38
99
74
45
105
79
51
107
82
53
111
88
59
116
95
67
121
104
76
141
130
111
154
153
139
150
153
137
154
159
141
149
162
137
130
152
117
118
136
98
148
132
119
153
110
110
155
102
104
129
97
98
106
76
68
107
81
76
103
82
72
139
100
85
150
108
91
146
100
77
151
105
82
126
86
64
103
69
49
85
57
40
59
35
22
72
61
48
131
132
116
145
148
130
140
143
125
130
134
113
116
123
98
98
110
80
77
92
63
124
135
115
129
155
118
127
152
120
131
154
132
143
166
150
154
176
165
157
179
171
151
175
163
147
168
147
122
152
100
108
143
73
104
138
66
94
127
59
84
117
51
83
113
55
86
115
69
89
119
78
98
132
93
107
147
109
110
154
112
108
154
109
120
162
120
120
160
115
110
150
103
109
149
99
101
142
83
90
129
71
84
120
69
73
103
58
68
95
50
79
103
60
92
117
66
107
136
74
117
153
84
117
154
84
111
152
76
112
153
73
110
147
71
105
136
70
106
133
75
104
127
79
98
118
80
100
119
84
103
126
88
99
124
79
99
123
74
103
128
74
110
135
78
116
138
82
118
140
85
123
147
91
122
147
93
123
142
100
148
154
130
163
157
140
152
141
126
140
127
106
131
116
90
129
112
86
125
104
78
115
93
66
111
88
64
127
102
84
65
55
45
50
45
37
69
51
37
127
85
62
153
104
78
121
73
49
119
76
51
86
57
41
59
41
29
25
18
12
38
27
18
52
38
28
44
30
20
118
74
52
86
52
28
87
54
31
104
66
41
76
46
27
98
62
39
96
59
37
62
38
22
55
31
17
36
23
11
37
27
13
70
51
25
87
62
30
90
66
36
95
70
40
100
75
45
102
78
49
106
82
51
110
86
55
116
95
65
134
117
94
156
150
132
162
163
147
167
170
156
166
171
154
155
166
141
132
152
115
126
134
107
144
120
115
155
110
109
148
101
101
107
80
75
97
71
62
93
78
69
87
68
56
125
88
74
133
97
82
147
101
78
148
102
82
104
70
51
100
66
45
88
57
39
65
40
25
97
92
77
133
137
121
140
143
126
141
143
123
133
136
113
122
129
100
110
121
90
93
104
78
128
135
119
124
150
108
128
155
113
140
161
133
149
171
150
159
181
167
163
185
172
159
183
170
154
179
160
141
169
134
122
155
98
100
136
65
87
124
54
77
112
47
85
114
63
101
128
91
104
134
99
106
141
104
111
153
112
108
153
108
105
152
103
116
160
113
121
162
116
120
159
114
120
159
111
109
151
91
87
131
58
77
121
48
68
104
44
65
93
45
76
100
57
88
111
65
102
130
72
112
146
76
108
147
71
97
141
57
99
141
55
100
136
59
95
123
62
95
117
66
91
107
66
87
101
68
93
108
76
96
116
82
89
112
73
87
111
65
97
122
66
108
133
72
115
137
77
120
142
83
122
145
89
121
146
92
114
138
90
110
128
90
140
150
123
156
150
128
145
132
109
132
114
87
123
103
73
120
97
68
111
86
58
110
83
58
125
96
76
58
46
36
68
60
50
94
65
46
152
102
76
138
93
65
135
85
59
125
78
53
64
41
26
42
29
19
5
5
0
29
23
15
20
16
9
66
43
29
101
66
44
94
61
38
96
64
41
75
46
26
78
47
27
106
69
43
91
54
35
71
43
27
47
29
16
39
29
16
42
30
18
83
57
29
91
65
32
94
68
37
98
72
42
102
78
47
104
80
49
110
85
55
115
90
59
127
107
79
153
141
122
163
159
144
167
168
154
173
175
162
172
177
159
167
174
150
141
154
120
140
136
118
146
114
110
157
118
115
134
98
94
102
71
64
109
85
76
110
89
80
112
78
63
130
94
80
129
90
72
163
116
93
143
100
81
96
65
51
109
73
56
91
59
44
74
52
39
99
99
86
119
122
108
131
133
115
136
137
118
128
130
107
120
127
97
111
121
91
102
110
86
136
142
125
120
147
96
115
146
79
128
156
99
138
163
124
152
174
151
156
180
160
153
179
160
151
179
159
146
174
147
130
160
117
108
140
85
83
117
55
78
110
54
97
125
86
116
144
116
121
151
125
120
154
124
120
160
124
111
154
110
102
150
97
110
157
104
120
161
116
124
162
119
125
164
118
117
156
104
102
145
76
89
135
60
81
119
56
73
103
54
79
105
61
89
112
70
95
119
75
101
133
71
99
139
60
91
134
54
88
129
53
89
123
53
84
108
53
84
99
58
83
96
61
80
92
61
85
99
68
84
104
67
77
102
61
76
102
55
84
110
55
99
124
63
110
136
71
117
141
79
119
143
85
116
142
89
106
134
84
101
128
80
99
127
80
123
138
102
146
142
115
138
119
93
132
111
82
122
98
67
105
78
49
98
72
49
137
106
87
70
53
42
47
42
34
117
80
58
116
75
52
131
85
61
134
87
61
125
81
57
73
46
29
19
16
8
25
20
13
42
30
20
29
18
13
58
43
31
67
39
24
109
68
44
80
50
29
70
43
22
98
59
35
100
63
38
56
35
22
47
31
18
41
25
11
33
23
13
51
37
21
87
60
29
92
66
35
98
71
40
99
72
42
102
75
46
106
79
49
114
87
57
125
102
74
149
134
112
152
145
130
160
158
144
165
166
150
168
169
152
170
172
153
166
172
148
148
152
126
155
134
127
164
127
123
154
118
113
138
103
94
105
72
62
111
88
79
130
98
86
142
98
82
124
91
79
138
97
75
167
119
94
128
88
72
93
63
52
96
65
51
68
43
33
66
57
44
91
94
81
106
108
94
121
124
104
131
134
111
125
129
103
122
127
100
115
122
95
105
111
87
142
146
129
130
154
113
119
151
81
119
151
78
123
152
85
133
157
114
141
165
134
145
170
144
150
174
154
144
170
144
128
156
119
116
145
103
90
120
72
83
111
65
98
125
93
114
142
115
125
154
131
134
166
144
127
165
136
110
152
110
103
149
97
116
158
111
125
162
122
130
165
129
130
165
125
121
158
110
110
152
90
99
143
75
88
128
60
90
118
69
98
122
85
106
129
97
108
130
100
101
131
82
91
132
57
87
130
52
82
119
53
77
107
50
77
98
52
75
88
54
77
87
59
76
86
58
75
90
60
78
96
61
78
99
58
74
100
52
75
103
49
89
115
58
104
129
69
109
137
72
111
139
77
112
140
86
108
136
86
101
129
81
92
122
72
96
123
71
117
131
87
137
135
99
130
113
83
115
89
60
103
77
47
117
88
66
138
105
89
77
61
48
52
39
32
96
67
47
113
77
55
120
82
56
128
83
58
131
84
61
102
67
45
30
20
11
58
42
31
47
30
22
33
23
16
43
29
18
71
45
30
105
69
44
86
55
32
75
43
24
109
67
44
90
58
40
49
33
17
31
21
10
31
20
10
26
18
11
73
50
25
88
60
30
84
57
28
90
63
33
99
72
42
104
76
47
112
85
54
124
101
72
140
129
106
135
135
115
140
140
124
156
155
138
160
158
142
167
166
150
169
168
151
155
158
136
150
144
124
170
139
138
162
126
124
142
104
97
123
86
76
95
65
56
112
84
72
147
105
87
150
106
86
142
100
79
153
111
87
148
106
83
94
66
50
89
59
45
83
54
40
57
39
26
64
67
49
85
92
76
101
105
88
116
119
98
127
130
106
123
127
100
118
122
96
112
116
92
103
107
85
142
145
130
140
161
133
128
155
103
118
149
82
116
147
72
124
151
88
119
146
96
120
147
105
134
161
126
133
159
126
120
146
110
110
136
102
97
124
86
90
117
77
104
130
99
119
147
120
125
155
132
135
167
147
125
160
134
108
145
104
108
147
102
124
161
126
124
160
125
130
164
132
132
165
133
126
158
118
113
149
101
111
149
97
103
139
84
108
136
94
115
139
110
116
140
112
116
140
113
115
142
109
94
127
74
81
118
51
79
110
51
75
99
52
75
93
56
76
88
58
77
88
61
78
89
63
73
87
56
72
88
52
77
95
53
75
98
48
74
101
48
84
112
57
97
123
65
99
130
65
101
132
69
108
135
80
105
134
82
99
128
79
95
123
72
90
121
61
95
128
58
99
132
56
119
133
71
124
114
75
114
90
62
148
114
93
135
100
83
64
50
38
47
32
23
100
66
49
124
77
56
133
83
60
144
95
69
129
82
56
85
57
42
29
22
15
68
47
31
44
29
18
24
19
11
27
20
13
49
32
19
100
66
41
77
46
25
96
55
34
99
62
40
49
29
13
51
32
17
53
31
18
39
26
14
33
24
12
81
55
27
91
62
32
84
57
27
91
64
34
100
74
42
113
85
52
125
102
72
143
131
106
140
139
117
122
123
102
127
126
106
155
153
134
164
161
145
168
166
151
171
169
153
162
159
139
164
147
133
174
143
146
140
103
100
150
105
95
124
81
70
110
76
66
139
100
84
160
115
94
159
112
90
162
113
90
155
109
87
123
84
67
72
51
36
85
55
40
85
54
38
64
51
33
69
76
54
82
92
69
100
104
85
110
114
92
122
125
100
120
122
94
112
114
93
104
108
86
93
97
75
138
141
125
148
164
147
138
158
123
119
147
87
112
143
66
114
145
67
102
134
58
102
134
63
106
136
75
109
139
88
107
134
92
102
129
92
100
128
87
98
125
82
107
134
98
116
143
112
119
146
117
122
152
124
118
148
119
108
141
101
110
147
104
125
160
126
123
159
125
126
159
133
131
160
135
125
153
122
114
147
107
113
149
106
117
149
109
123
151
116
122
147
120
121
146
119
118
143
114
117
141
115
102
127
94
79
106
57
76
102
54
76
97
57
77
92
60
79
90
62
78
90
62
81
93
65
82
95
65
77
92
56
75
93
49
73
95
44
71
97
41
79
107
52
89
119
58
91
123
57
94
125
63
96
124
67
95
126
72
90
120
69
90
119
67
93
124
60
99
136
57
97
137
47
102
140
52
120
144
70
114
106
73
126
98
81
121
92
73
59
48
37
26
15
9
94
60
46
117
75
56
131
85
62
141
94
67
108
70
44
29
21
14
36
27
18
79
51
35
41
30
18
20
18
10
23
17
9
79
53
32
121
75
48
94
60
39
112
66
44
76
45
27
51
30
15
57
35
19
59
38
22
31
21
10
48
38
22
97
75
45
98
73
43
99
74
44
108
84
53
123
100
71
139
124
97
148
144
119
149
148
126
136
135
112
125
124
102
123
121
101
157
152
133
169
165
147
169
166
148
173
170
152
177
166
152
175
150
146
162
134
136
123
89
85
142
97
89
125
78
67
123
80
64
152
104
84
154
107
85
167
117
96
167
115
94
152
104
83
109
76
60
77
55
44
95
63
49
81
50
35
76
64
45
75
86
62
86
95
72
99
103
80
107
109
86
118
119
92
120
123
93
114
118
91
99
102
77
88
91
69
135
137
123
148
164
155
142
160
137
116
140
86
101
131
55
96
130
44
90
124
38
90
125
42
91
124
50
93
125
63
95
124
73
99
126
83
104
133
89
103
133
87
102
130
86
103
131
86
101
129
83
99
128
80
102
130
84
99
130
77
101
138
86
117
153
112
123
157
123
124
157
131
132
160
137
122
151
123
118
149
117
122
155
121
124
155
119
127
156
123
129
154
127
125
148
124
120
144
117
114
135
108
101
121
91
79
101
59
75
96
53
74
91
53
78
90
61
81
93
66
81
94
65
89
103
74
100
114
88
105
118
92
98
114
81
82
102
54
72
95
39
76
101
47
84
112
57
88
117
56
92
120
63
88
116
63
88
114
65
86
114
66
88
116
67
98
126
65
102
133
57
103
136
48
109
144
53
122
145
68
116
95
67
113
82
65
111
81
59
44
33
21
19
16
10
60
44
31
66
42
30
95
67
47
117
79
56
48
32
16
1
4
0
50
36
24
56
39
26
41
28
21
16
13
6
38
27
17
87
56
37
114
70
45
86
53
30
104
65
42
50
29
15
38
22
8
62
38
24
51
34
20
22
16
5
86
78
59
160
149
135
149
136
122
147
135
119
154
143
127
161
152
137
162
157
143
156
154
136
150
149
128
135
134
112
123
122
102
131
128
109
152
149
129
165
161
142
172
168
149
177
174
154
181
169
157
175
147
150
134
105
105
102
74
70
119
81
76
130
85
75
137
92
78
160
111
91
168
121
101
166
117
97
158
109
87
159
111
88
97
67
50
68
47
36
86
56
39
69
47
31
77
74
53
78
90
63
90
96
72
98
100
77
117
118
90
139
141
106
156
164
119
166
175
129
147
153
110
107
108
79
135
136
122
144
164
159
138
157
141
99
124
75
80
113
37
81
117
32
88
123
35
93
127
42
86
119
41
84
115
49
88
118
62
96
124
78
105
135
91
109
139
96
107
137
92
96
127
73
85
116
55
82
113
49
79
110
45
78
111
42
84
123
58
102
140
91
113
148
108
116
151
115
120
153
124
116
148
119
118
151
122
132
163
135
134
164
134
131
160
129
134
158
131
127
148
123
121
142
116
109
129
99
94
113
78
84
100
60
80
94
52
77
90
52
82
93
63
83
95
66
87
101
71
105
119
94
124
136
119
134
145
132
137
149
135
125
138
115
86
103
62
81
100
56
83
104
61
84
108
59
89
112
65
88
108
66
84
104
63
87
109
67
91
113
70
98
121
65
100
126
55
108
132
51
115
142
60
121
123
74
132
96
77
131
92
73
132
97
73
35
27
17
20
19
10
54
42
34
39
25
17
113
76
54
90
59
42
11
8
4
9
7
2
66
45
34
37
23
14
8
7
2
21
17
8
72
46
32
105
65
43
82
49
27
80
48
25
72
46
27
53
35
23
44
24
13
53
33
19
36
24
11
40
35
26
150
142
131
193
185
178
186
176
171
178
169
163
177
168
163
168
160
151
160
154
142
154
151
135
148
146
127
137
133
113
125
122
102
138
135
116
160
156
137
169
164
145
180
174
154
188
182
164
179
164
157
163
133
138
131
94
94
120
86
85
108
78
75
121
80
71
153
107
94
172
126
107
170
124
106
154
108
87
153
105
83
140
94
72
90
56
38
80
52
37
84
53
37
61
49
31
68
76
48
74
86
56
86
91
65
101
103
73
143
146
110
177
186
144
194
207
161
199
215
167
195
207
160
150
157
114
147
149
128
136
157
151
129
146
132
86
109
64
68
101
29
80
114
35
92
128
43
95
129
47
87
119
44
83
111
46
84
113
57
92
120
74
104
133
92
110
139
98
106
136
91
103
133
80
85
117
50
77
109
37
70
103
28
66
102
27
71
111
40
89
129
69
102
138
90
109
143
102
117
147
114
123
150
121
132
161
134
143
171
147
142
170
145
136
163
134
133
155
126
121
141
110
112
132
99
104
124
87
92
111
69
88
103
61
85
98
57
83
95
58
84
96
62
85
98
66
97
111
85
129
141
125
148
160
150
150
162
154
145
156
148
147
157
149
124
135
116
87
101
69
82
98
64
83
100
67
84
100
67
84
99
65
82
98
62
84
101
64
88
105
65
93
112
59
97
118
53
111
129
58
120
134
67
120
100
74
145
104
81
152
107
85
94
65
46
20
14
9
30
28
20
22
16
11
66
45
31
138
90
63
84
53
32
6
5
2
36
28
22
61
42
30
29
18
8
12
12
5
45
33
17
104
66
45
111
69
44
102
60
33
77
48
29
57
36
20
53
33
20
54
32
18
47
30
15
22
15
3
111
107
101
207
199
194
197
189
184
180
172
166
173
165
159
170
162
155
163
154
146
156
149
139
151
147
133
145
142
124
131
128
109
122
117
99
134
130
111
168
164
145
186
182
159
197
191
163
191
183
166
159
142
140
155
120
124
149
106
105
134
101
97
98
72
64
122
86
76
158
120
105
158
122
105
154
113
96
150
106
88
147
103
84
127
84
63
101
61
41
94
58
39
77
49
34
65
62
41
70
82
55
74
84
56
85
89
65
112
116
84
173
182
142
200
214
172
204
224
178
206
225
177
207
227
178
181
195
145
163
168
141
117
139
127
112
130
109
79
102
56
69
100
34
81
113
39
93
126
48
97
129
53
94
122
55
86
111
52
81
106
53
85
112
70
99
127
91
106
135
95
105
134
89
105
134
84
89
122
53
77
109
35
78
108
36
74
107
34
68
107
34
80
120
55
104
140
87
115
146
102
122
149
114
129
155
125
143
170
147
151
178
159
150
177
156
142
167
142
133
155
125
114
136
94
106
125
82
104
122
80
100
117
75
95
110
68
94
108
67
92
107
66
87
103
63
90
105
69
109
123
97
143
154
140
159
170
164
159
170
167
153
164
158
143
153
145
135
145
135
94
105
83
79
90
65
82
92
69
85
96
70
83
96
65
81
96
60
82
97
60
85
99
60
88
103
55
93
108
52
106
117
58
130
127
83
133
103
82
159
116
92
156
112
90
76
52
37
35
31
27
19
16
13
58
37
23
131
86
60
115
75
50
46
31
19
9
9
6
72
52
35
51
35
20
17
13
6
33
25
14
100
63
41
95
62
39
111
70
43
108
68
44
53
33
17
64
39
25
49
29
18
57
36
21
39
24
13
22
15
7
171
167
162
215
206
205
199
189
186
181
173
167
173
164
158
166
157
151
158
149
141
152
144
135
150
140
130
144
136
124
133
126
112
123
116
102
126
121
105
171
169
144
201
198
165
210
206
169
181
168
153
156
133
133
149
111
109
154
113
111
134
104
96
98
70
59
138
104
93
165
129
115
154
116
100
145
101
83
137
95
77
127
84
67
129
84
64
102
64
43
90
57
39
71
50
32
75
77
54
77
88
62
82
89
67
90
95
74
124
129
102
192
204
164
210
227
181
213
232
184
214
233
184
214
232
183
191
205
154
170
174
146
98
119
99
95
115
84
81
105
53
79
107
42
88
115
47
96
125
56
100
128
65
101
123
69
93
111
63
78
99
52
68
93
50
85
112
74
101
128
90
105
132
90
104
131
85
95
124
61
86
114
40
88
114
46
88
116
46
85
117
49
96
130
68
116
150
98
125
155
112
127
153
117
132
157
127
144
169
145
146
171
151
145
170
149
145
167
144
131
154
120
109
130
83
107
125
81
109
124
85
108
122
84
101
116
73
103
119
75
100
120
73
96
116
69
99
116
76
116
129
103
138
150
135
160
169
163
160
171
169
159
169
167
143
152
146
129
136
128
101
105
91
84
87
71
84
91
70
92
101
76
89
101
72
87
102
69
89
104
67
91
106
65
89
104
56
90
104
49
102
108
57
139
121
96
135
100
81
126
88
67
127
89
69
50
32
22
23
17
12
46
25
13
107
68
47
148
97
70
92
60
41
18
12
8
35
26
18
83
56
37
36
25
14
17
13
6
56
38
22
108
68
41
77
47
29
124
79
53
90
56
36
77
47
29
62
35
20
46
27
13
53
35
21
26
15
4
43
37
29
192
186
183
216
206
205
202
191
190
186
177
172
170
163
157
161
154
146
156
148
139
150
142
132
147
137
127
142
135
125
134
128
117
126
118
109
125
118
103
179
175
143
216
214
170
209
203
169
170
150
146
144
113
113
143
106
102
161
123
117
114
84
75
102
71
62
136
102
90
169
130
114
164
120
101
155
107
87
132
89
70
129
86
66
129
86
67
84
55
36
75
48
30
80
68
45
82
90
64
85
94
70
86
94
71
95
100
82
124
128
108
196
210
171
212
231
183
215
232
184
217
234
185
211
228
179
177
191
140
151
156
130
93
113
85
104
124
93
109
131
88
104
127
71
97
124
59
98
124
62
101
124
71
105
123
78
94
109
68
74
94
51
60
84
42
72
96
56
90
113
75
100
123
84
102
123
77
99
122
65
95
118
52
95
117
52
98
124
55
107
135
72
117
147
94
127
158
111
132
160
120
130
157
120
133
158
126
138
162
137
140
161
140
140
158
136
137
156
129
123
144
104
105
124
74
108
125
80
107
122
83
107
121
81
106
122
77
106
124
77
104
125
76
101
124
71
109
129
80
125
140
112
129
141
122
144
153
141
153
162
155
150
162
155
140
151
143
129
137
129
122
130
120
118
126
114
105
114
97
96
107
83
95
108
78
95
109
78
94
110
74
96
111
71
93
110
63
88
103
46
110
111
64
157
127
107
138
99
81
116
82
59
105
73
52
67
42
28
59
33
19
74
45
30
94
63
50
105
68
48
41
30
21
3
5
1
72
47
32
74
47
31
23
17
8
21
18
8
66
43
26
85
52
29
93
58
33
104
64
40
62
38
19
77
50
34
40
26
11
57
33
19
53
33
20
28
18
6
76
71
62
216
208
204
220
209
208
207
197
196
191
181
178
168
161
155
154
149
139
149
145
134
148
141
129
144
136
126
140
132
124
134
127
118
126
118
110
132
123
107
193
184
146
221
217
169
190
178
159
161
137
140
141
111
113
125
94
90
117
82
77
104
69
61
109
75
65
136
101
86
160
118
100
160
113
95
155
109
88
136
93
72
125
84
66
103
69
53
73
46
30
84
58
40
89
84
60
86
95
69
91
98
74
90
97
75
98
103
85
117
120
103
180
191
157
205
221
177
208
225
178
204
222
173
183
197
151
134
141
106
131
133
119
106
127
98
120
139
112
131
148
121
130
148
116
112
137
87
102
130
72
106
131
77
106
128
76
97
116
74
88
107
67
80
100
56
77
96
52
83
102
59
87
105
62
89
106
60
94
113
61
94
115
55
95
116
54
103
127
66
114
142
85
124
153
104
130
158
114
133
160
122
129
156
118
123
150
113
129
151
120
130
146
121
127
143
117
126
143
109
118
135
88
108
126
75
109
124
78
106
119
78
107
119
78
106
123
80
105
127
79
106
131
78
108
130
76
113
132
81
125
140
105
128
141
117
130
140
123
133
141
126
132
142
131
128
139
129
133
145
138
141
154
150
143
157
152
136
149
138
121
133
114
105
120
93
103
120
90
100
117
83
99
115
77
97
114
71
94
109
55
135
122
90
143
107
92
121
85
66
128
88
64
96
63
43
77
47
35
78
44
30
63
46
33
56
36
23
86
58
37
25
19
12
23
17
11
78
50
32
60
36
21
29
20
14
18
13
6
53
34
21
80
46
27
110
68
43
70
44
24
81
53
32
58
35
22
49
31
19
60
38
23
45
27
13
25
17
5
134
127
121
231
221
219
225
213
213
213
203
200
192
184
178
166
161
152
151
148
137
147
143
131
146
140
128
143
136
125
138
130
121
134
125
117
129
120
111
143
133
116
200
190
151
213
204
165
171
154
144
152
122
124
134
104
106
113
84
82
107
73
68
107
71
64
132
91
80
161
117
103
159
116
100
151
104
86
153
107
88
133
90
72
118
78
60
81
52
38
72
44
31
92
69
52
91
91
69
91
97
74
92
99
76
90
98
75
94
102
80
107
112
90
147
155
126
176
188
152
182
196
154
168
181
137
134
142
103
86
88
66
123
124
116
113
136
108
125
146
123
133
149
127
140
154
133
135
153
122
113
141
91
109
139
82
112
138
87
112
137
97
113
135
97
112
131
93
100
121
77
92
116
60
93
117
57
88
111
55
85
103
53
83
101
50
81
102
47
94
119
64
107
135
82
119
148
99
125
152
110
128
156
118
121
147
110
107
132
92
104
124
88
105
120
89
104
120
85
108
125
83
113
130
80
112
125
75
110
123
77
107
119
77
103
116
74
102
119
75
104
127
77
106
131
77
113
135
82
117
134
85
117
132
89
117
131
98
118
128
105
113
121
101
115
127
112
128
141
130
145
157
155
147
160
160
150
165
163
148
160
153
136
148
134
119
132
112
113
128
101
104
120
88
99
115
80
99
114
75
110
117
77
155
128
107
151
111
91
117
82
61
132
92
68
97
67
48
98
58
45
61
43
33
51
38
30
65
42
28
85
54
36
15
10
5
39
26
15
90
57
35
76
45
29
25
17
9
34
22
13
63
42
26
98
59
38
98
60
40
52
33
19
81
53
35
55
34
21
59
39
24
41
26
10
36
24
10
39
31
22
197
187
184
236
223
223
229
217
217
214
204
202
187
180
174
163
158
149
152
148
137
147
141
131
148
140
130
144
136
126
140
132
123
135
128
119
132
123
114
155
144
129
201
188
157
195
180
156
159
137
135
143
114
114
132
105
104
110
83
81
100
71
67
120
87
80
157
111
94
153
109
94
130
90
75
153
100
82
151
105
86
127
83
64
120
80
61
75
49
36
79
52
38
93
82
64
93
97
76
92
98
76
92
100
76
93
103
77
97
106
81
102
112
88
119
127
101
137
148
117
140
152
116
120
127
93
85
89
66
67
69
54
125
127
117
99
121
88
123
142
120
139
154
136
145
159
142
142
159
136
133
155
119
125
152
107
128
154
114
132
159
121
128
153
118
125
147
113
124
148
108
118
147
88
112
144
75
110
139
75
99
122
67
78
97
53
74
93
48
85
108
59
98
123
74
109
137
88
116
143
100
117
142
104
104
128
91
90
113
74
88
106
70
91
107
73
96
111
72
109
125
81
115
129
83
108
122
73
101
116
69
98
113
68
93
107
63
91
110
63
96
117
67
100
125
72
111
131
82
117
133
88
112
127
85
108
119
85
104
113
86
98
107
81
106
118
96
134
145
134
150
162
159
153
164
165
154
168
165
152
164
156
139
151
138
119
131
111
115
126
101
109
119
90
103
115
83
103
112
78
132
123
98
136
105
86
141
102
80
129
88
64
124
83
61
58
36
22
72
44
35
36
27
19
28
19
11
35
26
16
52
32
24
21
14
8
71
46
30
86
53
30
81
48
26
41
23
11
56
34
22
85
52
29
121
76
50
72
45
26
58
37
21
68
44
27
53
32
18
58
35
20
36
22
9
22
14
4
83
75
72
228
217
216
233
223
222
228
218
216
214
203
199
186
178
172
162
156
148
152
146
136
147
138
129
149
140
130
145
135
125
141
134
124
138
133
122
135
127
118
159
145
132
199
182
160
172
155
146
153
130
132
146
117
120
124
95
96
98
76
73
85
62
55
126
92
82
161
112
95
143
101
87
123
79
66
165
119
102
153
112
95
138
93
72
108
74
54
79
51
37
91
67
51
95
93
71
98
107
84
99
110
86
102
114
87
103
115
86
104
116
88
106
117
93
110
120
98
113
124
100
106
116
91
90
94
74
75
79
61
69
71
54
124
126
113
72
97
53
99
120
90
129
146
126
136
151
136
146
160
144
159
176
159
157
177
158
145
168
143
138
163
132
134
160
128
131
156
126
139
165
129
139
168
115
130
162
94
124
155
88
118
149
84
93
115
70
70
88
52
83
101
64
95
114
77
103
124
89
113
132
100
111
129
99
95
113
81
79
99
64
83
99
66
90
104
70
104
118
77
114
127
82
118
132
84
112
126
79
96
111
65
88
103
57
81
98
49
82
101
51
88
107
59
95
114
71
104
121
82
111
126
92
109
122
88
102
113
82
94
105
76
90
99
72
97
109
85
126
137
121
146
157
150
153
165
160
152
164
158
148
159
149
132
140
125
110
117
93
109
114
89
106
111
86
105
110
84
114
114
87
142
118
99
125
90
69
133
95
73
140
99
74
90
59
42
47
32
22
49
32
22
26
19
10
13
11
5
35
25
19
33
22
17
52
31
17
87
49
31
97
57
34
82
47
30
47
26
15
63
34
19
107
65
42
94
60
39
62
39
21
86
55
37
57
35
20
61
38
19
61
36
21
29
17
8
14
12
4
142
134
132
231
220
219
229
218
217
226
215
213
212
201
198
186
178
171
164
156
148
154
146
137
147
138
127
147
137
127
144
135
122
141
134
120
139
132
119
135
126
116
155
142
131
182
165
151
157
137
133
165
141
146
148
123
130
120
90
90
107
83
79
105
77
68
127
88
75
145
93
81
143
101
88
141
98
82
148
108
90
128
88
69
141
94
74
98
67
47
80
52
37
89
74
56
106
111
89
106
118
94
106
117
95
108
120
94
109
121
94
107
119
92
107
120
95
109
121
99
106
114
97
94
101
85
87
94
78
79
83
65
75
78
62
133
136
126
74
103
49
83
104
64
103
119
92
125
141
121
158
171
161
160
176
168
153
173
162
144
169
150
139
165
138
134
159
130
136
161
136
143
169
142
147
175
128
143
174
109
138
171
101
132
165
93
115
140
86
77
94
62
84
98
71
102
115
91
108
122
102
112
125
107
111
127
107
104
120
97
85
104
76
82
98
66
96
109
75
106
118
80
110
121
79
118
130
84
120
131
88
108
119
78
90
104
60
81
98
50
80
99
50
83
102
56
88
106
68
97
112
81
103
117
90
100
112
86
93
105
76
87
99
69
89
100
70
89
101
73
106
120
95
122
136
115
134
149
130
136
148
133
130
141
125
115
122
98
103
107
76
104
104
76
106
105
77
104
106
74
121
112
88
131
100
80
152
114
91
128
88
65
119
84
65
47
32
21
82
52
38
51
31
18
22
17
9
16
13
8
27
19
14
33
21
12
83
48
30
95
56
33
113
70
43
70
42
24
63
37
20
100
61
35
99
61
37
61
40
21
79
49
29
77
50
31
41
26
12
60
39
22
42
27
15
19
14
5
19
20
13
183
175
173
225
213
213
229
218
216
226
215
212
209
199
195
184
176
169
166
158
151
157
148
139
147
138
127
142
133
121
142
134
120
139
131
117
139
129
118
136
126
117
152
141
133
160
147
140
165
142
142
164
138
140
112
90
90
112
80
77
97
73
66
98
71
63
109
74
65
136
98
88
155
120
106
152
116
97
134
94
75
132
88
68
121
76
55
84
56
38
74
50
36
90
85
65
114
123
99
108
119
96
110
121
98
114
125
99
116
126
101
112
121
97
110
119
96
108
118
98
103
112
94
94
101
85
90
97
79
90
96
79
105
109
97
153
158
151
90
122
61
91
113
63
92
107
68
104
119
88
152
164
151
160
173
165
149
166
156
135
157
140
136
160
138
126
150
125
130
153
133
128
151
130
143
170
129
157
187
125
155
189
112
146
181
96
131
161
89
98
118
77
97
109
89
113
126
109
118
132
118
111
125
111
108
123
108
106
124
105
95
116
92
83
100
73
101
114
86
109
121
88
113
124
86
119
127
88
127
133
95
122
131
93
106
119
83
102
118
77
88
107
60
84
103
60
84
101
63
88
103
73
90
103
78
90
103
78
86
99
72
87
99
68
88
100
69
91
103
73
96
110
80
105
120
92
119
134
109
116
131
105
109
121
94
111
116
90
104
104
74
100
100
67
103
100
67
109
106
74
125
109
90
138
103
83
133
96
74
137
96
75
82
54
40
45
33
24
63
43
27
30
18
9
15
13
6
19
15
9
4
4
1
46
27
18
99
61
40
98
64
38
106
67
42
85
50
31
100
61
39
104
63
40
92
56
35
60
37
18
86
55
34
58
35
20
57
37
20
46
30
14
21
16
5
13
11
3
47
43
37
202
191
189
224
213
211
228
217
215
223
212
211
205
196
193
181
173
166
162
156
149
157
152
142
147
141
128
140
132
118
139
129
117
137
127
118
138
128
120
138
127
119
149
139
131
163
152
148
177
154
159
159
130
132
118
87
87
124
86
86
106
72
67
105
70
63
92
69
63
117
95
88
123
96
86
116
80
62
128
85
65
141
92
72
120
76
57
81
54
36
73
55
41
107
108
87
117
127
102
109
120
98
107
120
96
109
119
95
111
119
96
105
113
91
103
110
89
103
110
92
99
107
88
94
101
83
97
103
86
112
122
107
138
149
141
169
176
172
100
132
63
100
125
65
90
110
60
87
105
60
111
126
90
139
152
129
141
155
145
135
154
140
129
150
127
113
135
109
114
137
117
114
138
117
136
163
124
161
191
132
164
197
118
155
189
92
145
176
84
125
148
97
107
120
103
111
124
112
120
133
122
119
132
120
112
127
113
101
120
104
97
117
98
84
100
78
98
111
85
114
124
95
120
127
97
126
131
98
134
137
106
131
136
108
118
128
96
115
129
89
104
121
79
91
110
71
83
100
63
82
97
67
83
96
72
86
99
74
86
99
70
87
100
68
89
102
69
94
106
73
93
107
72
101
117
84
108
124
95
104
121
91
102
115
85
108
116
88
105
109
77
93
98
57
94
95
55
131
121
96
123
96
83
128
92
70
133
93
71
126
89
71
46
32
19
57
44
34
33
22
12
34
22
12
27
18
11
17
14
7
17
13
7
61
37
21
83
50
30
87
55
33
95
59
41
85
51
30
87
55
36
81
49
31
67
39
23
84
54
30
71
46
27
50
29
14
66
39
21
43
28
14
25
19
8
13
9
1
94
87
81
214
202
201
222
210
209
227
216
214
221
210
209
204
195
192
180
172
166
163
156
148
156
148
139
144
135
124
137
128
116
136
127
114
138
128
118
138
128
120
138
128
120
147
138
131
169
157
155
175
153
157
156
125
128
122
88
89
116
80
81
123
83
78
117
78
70
68
53
48
80
64
56
101
73
60
132
87
68
144
96
74
135
93
74
121
80
64
76
49
32
78
68
50
128
130
109
121
128
104
109
120
98
108
120
100
104
116
97
104
114
95
99
108
88
101
109
90
103
111
93
97
106
88
96
106
89
110
121
106
129
142
131
152
165
163
182
191
190
106
138
66
107
137
70
96
119
63
93
112
61
97
112
69
102
118
81
111
127
99
120
136
109
103
123
90
104
127
96
109
132
111
109
133
109
134
160
121
163
192
134
170
201
117
168
200
99
162
194
102
143
168
113
109
126
104
100
115
101
109
124
111
117
130
119
110
124
111
95
111
96
89
105
88
80
96
73
91
103
78
108
117
90
120
124
98
129
130
103
132
133
104
133
137
109
128
137
105
122
134
99
114
130
91
97
119
79
88
106
68
81
96
63
79
93
63
82
96
64
84
100
62
85
101
60
87
101
61
92
105
67
87
101
63
93
109
74
96
113
82
96
114
84
96
112
82
101
114
85
99
109
72
88
96
49
95
99
59
116
103
86
121
91
74
134
97
76
150
112
92
67
48
34
66
45
34
83
58
42
45
30
17
44
26
18
50
32
24
16
15
10
37
26
15
69
43
27
60
35
18
84
53
36
74
44
30
81
50
29
75
45
26
79
49
32
65
39
22
94
58
37
51
31
17
64
38
23
74
46
28
39
24
12
27
20
8
16
15
5
137
129
124
213
203
201
218
208
207
223
211
209
218
206
204
202
191
189
178
170
164
161
153
146
152
142
134
144
133
125
139
129
119
136
126
114
140
129
120
141
131
123
142
132
124
151
142
136
172
155
157
170
140
145
143
112
115
118
83
83
114
80
78
111
75
68
97
64
55
74
63
54
98
72
61
126
83
64
142
92
69
141
97
77
102
73
56
87
56
42
76
54
39
107
102
84
139
141
118
124
132
107
108
122
98
100
118
96
100
117
99
97
110
92
99
112
95
106
119
103
112
123
108
110
122
106
112
127
110
126
142
129
131
146
138
145
157
156
180
189
186
107
139
71
108
139
70
97
123
63
98
117
69
97
113
74
97
112
76
97
114
77
98
119
81
95
118
81
103
125
95
109
131
105
108
128
101
132
154
113
164
191
126
175
205
118
178
209
118
175
204
123
152
179
113
115
136
100
93
111
93
90
108
91
92
108
93
82
96
78
79
92
74
75
89
67
72
87
62
76
91
65
90
102
77
103
108
83
114
114
86
123
121
93
131
132
103
131
138
106
130
139
105
119
135
98
103
125
85
88
107
66
76
91
54
75
91
55
77
96
56
80
98
53
84
101
56
87
102
59
87
100
58
80
93
52
79
95
57
88
105
73
90
106
78
89
104
77
91
105
72
86
100
58
85
98
48
108
105
72
120
95
80
128
96
76
147
111
90
89
68
55
19
16
7
78
57
46
67
42
27
38
22
13
47
34
24
41
33
22
13
11
5
56
38
24
69
39
22
94
58
32
79
50
30
74
45
28
93
57
35
74
43
23
63
38
22
85
54
31
65
39
22
45
26
10
66
41
22
65
42
24
34
23
10
26
19
8
26
28
18
168
160
154
208
201
196
215
207
205
221
210
206
215
204
201
199
188
185
173
165
159
154
145
139
145
135
128
140
129
121
136
126
117
135
126
114
139
129
119
145
135
126
146
136
129
148
138
136
172
151
154
173
136
140
130
103
103
120
84
80
115
77
70
118
78
71
105
72
64
80
60
49
117
78
62
154
99
80
149
98
77
128
89
70
73
49
34
71
48
33
74
58
41
133
131
109
139
143
119
122
133
108
110
125
100
94
112
88
93
109
90
93
108
92
102
119
102
106
124
108
112
129
114
115
131
116
113
128
114
125
141
131
131
145
139
123
136
127
155
165
156
108
135
81
104
131
76
96
118
69
98
115
75
96
110
77
93
107
77
95
112
79
109
128
97
108
128
99
107
126
100
107
125
100
102
119
92
123
149
96
157
187
106
175
206
118
183
213
125
179
210
127
154
183
107
117
141
87
87
106
81
83
101
80
72
89
64
57
73
46
58
73
48
62
77
52
63
78
52
64
80
53
74
85
61
87
90
64
99
98
69
114
110
79
125
121
90
130
132
97
130
136
100
119
134
95
102
122
80
83
104
59
74
91
49
69
88
46
74
94
48
80
100
48
85
103
51
88
104
58
86
100
57
77
92
50
72
88
51
75
90
58
77
93
63
81
96
67
80
94
59
76
93
50
87
97
57
135
115
93
139
106
88
134
99
77
124
98
79
13
12
7
14
12
10
34
26
18
36
24
14
22
17
10
57
41
34
15
11
6
28
19
11
74
48
30
101
63
41
70
46
29
69
44
27
70
42
25
87
51
30
73
40
24
88
56
36
79
51
29
41
24
9
59
30
16
70
44
27
50
30
17
39
27
16
13
12
2
56
56
48
181
175
168
207
200
195
217
208
206
221
209
207
212
202
201
195
185
182
167
159
153
148
139
132
141
131
124
135
125
117
130
121
111
132
123
113
138
129
120
150
140
131
145
136
129
140
130
128
153
132
133
158
120
123
134
101
97
121
82
74
126
81
75
125
86
81
100
74
68
103
75
63
145
104
88
156
104
83
157
106
84
116
80
62
72
45
31
70
44
29
98
88
68
144
145
122
135
139
116
121
131
109
104
117
95
87
101
80
85
99
79
90
104
84
101
117
99
103
123
105
109
130
112
110
129
112
103
117
101
104
117
105
104
118
104
90
105
86
131
143
125
100
122
83
105
127
85
98
117
75
91
107
71
89
102
73
93
106
80
95
110
82
106
120
94
108
123
97
107
123
98
105
120
98
101
118
93
120
145
98
152
181
108
172
201
120
178
209
123
178
210
123
154
183
101
117
143
77
87
108
66
72
88
59
64
80
48
57
74
41
54
70
40
56
72
43
55
72
39
56
72
39
63
73
42
74
77
46
86
82
48
102
93
58
115
106
72
119
117
81
117
120
83
111
120
78
98
113
68
78
97
52
71
90
44
69
88
40
74
94
42
79
99
45
84
102
50
87
103
57
85
102
58
75
95
53
71
89
54
71
86
56
70
84
54
72
86
56
75
90
56
74
92
50
108
104
73
147
113
97
146
108
85
160
120
98
64
46
36
6
7
3
53
39
31
34
23
13
31
26
16
58
43
30
55
41
31
13
9
4
31
20
11
86
56
36
67
43
29
13
11
5
39
25
16
65
41
25
84
51
29
96
59
37
71
44
26
70
46
29
41
25
10
72
44
27
57
36
22
42
25
13
31
22
13
4
4
0
90
87
80
183
179
171
205
196
192
215
204
203
218
207
206
210
202
200
193
185
179
167
159
152
150
141
134
138
129
120
132
123
114
126
116
107
127
119
109
138
129
120
151
142
133
146
138
132
151
137
135
141
112
112
141
103
100
137
88
80
136
86
81
118
79
74
93
74
66
92
75
66
117
85
71
139
99
83
138
93
72
135
95
76
97
66
51
85
58
43
81
59
44
128
124
105
139
145
124
122
130
106
112
121
99
92
103
83
83
95
75
83
96
73
85
97
74
88
104
81
92
111
88
102
120
100
106
122
105
101
116
99
89
101
82
77
90
71
74
93
69
124
141
120
91
108
79
98
115
83
87
104
71
81
96
64
77
90
61
85
99
72
94
108
82
94
109
79
91
107
76
96
111
84
102
118
92
108
125
101
129
149
120
152
175
133
162
189
129
167
198
130
168
198
120
145
174
89
103
129
62
81
104
53
64
82
46
67
83
48
66
83
48
56
73
39
50
67
32
49
68
30
53
69
32
59
69
35
66
69
34
75
72
36
92
81
44
105
90
54
107
99
63
107
105
67
100
105
62
89
100
54
68
91
41
67
86
37
72
90
39
77
97
44
82
103
49
87
106
55
86
105
58
78
100
53
73
94
51
75
93
59
79
95
67
79
93
66
78
92
65
75
90
57
91
102
66
154
133
111
158
120
101
150
113
93
117
90
74
11
11
5
44
33
25
77
52
37
33
20
12
34
26
14
81
58
40
24
20
13
35
24
15
39
28
15
83
56
36
27
18
11
28
19
11
68
45
27
54
33
20
81
50
28
87
52
33
53
35
19
57
36
21
66
43
23
73
47
28
42
29
16
38
26
15
14
11
5
12
10
5
122
120
107
184
180
170
201
193
189
210
201
199
214
204
202
208
199
195
190
182
175
166
159
152
152
145
137
138
129
119
127
119
108
121
112
100
122
113
104
135
125
117
144
134
126
158
146
142
168
146
145
149
112
111
153
112
104
168
119
112
141
98
94
93
68
58
89
73
64
94
75
64
125
89
77
136
98
82
132
90
72
94
64
47
88
60
42
79
54
36
87
75
59
143
145
128
139
147
129
119
129
107
98
107
85
87
97
77
80
93
70
78
91
66
80
93
68
78
93
67
88
105
79
97
112
92
90
103
87
92
105
91
96
108
94
84
100
84
80
104
80
133
152
133
84
98
73
87
103
76
79
95
64
80
95
61
71
86
53
73
88
57
82
97
66
81
98
61
77
96
58
82
100
67
92
108
80
110
127
104
132
150
132
148
168
147
155
179
146
159
186
143
158
182
131
133
158
89
83
110
42
72
94
42
70
88
49
71
89
53
70
87
52
64
81
47
55
72
38
51
68
32
58
73
37
64
75
41
68
73
40
74
71
37
84
74
37
95
81
43
98
88
49
95
92
53
90
93
50
79
89
43
61
84
33
63
82
34
70
88
42
79
97
49
82
104
53
87
107
58
84
103
56
76
98
50
77
96
55
88
105
75
96
111
85
97
110
87
98
111
88
90
106
78
130
123
100
146
114
97
158
122
103
148
115
95
49
36
25
4
7
2
81
62
45
81
53
38
31
23
15
37
26
15
78
49
34
19
14
7
69
43
29
68
42
26
53
37
22
16
14
8
69
43
27
84
52
30
30
17
8
83
49
31
83
51
30
47
30
16
50
29
14
79
51
30
55
35
21
37
25
13
26
19
11
10
8
1
36
34
25
148
146
129
179
176
165
199
192
187
207
199
196
211
203
200
205
196
191
187
180
173
162
157
147
149
145
134
136
128
118
122
113
101
116
107
94
115
106
95
127
118
108
140
129
121
169
150
144
160
126
123
157
115
106
175
131
116
154
114
103
96
63
54
107
73
61
134
101
88
116
82
67
133
89
74
125
85
67
131
90
73
102
66
49
94
60
41
70
49
35
105
105
88
143
155
134
138
148
129
118
129
109
84
94
73
74
87
65
74
87
63
77
90
65
82
95
71
82
97
74
96
113
93
100
119
101
87
104
88
92
106
92
99
116
102
99
122
106
94
122
100
137
156
140
75
92
56
79
96
61
76
93
56
73
90
48
69
86
46
71
86
50
73
88
53
72
90
53
70
91
51
72
93
56
81
98
67
102
118
96
126
145
129
143
165
150
152
176
159
155
179
157
148
170
143
124
146
107
83
107
54
74
94
46
74
90
52
77
94
58
74
91
56
67
83
52
62
78
47
57
74
40
63
79
43
65
81
45
69
79
45
73
76
41
78
77
36
84
79
39
84
82
41
83
83
41
79
82
40
72
82
39
66
83
38
67
86
41
74
91
50
79
96
54
79
97
52
84
103
57
82
101
55
80
99
55
89
106
70
101
117
89
103
119
93
104
118
92
108
121
98
123
129
108
144
122
104
136
102
82
134
97
76
121
90
71
15
13
6
36
28
19
99
70
50
60
37
24
25
20
12
49
31
19
90
56
37
53
30
19
95
53
35
99
57
35
66
42
25
19
15
7
80
50
33
60
34
21
40
25
14
69
45
26
68
43
24
42
27
12
59
37
20
65
41
21
40
25
12
41
26
17
28
20
10
13
11
4
61
60
47
150
148
129
177
174
164
195
192
183
204
197
191
209
200
198
201
191
187
183
176
168
158
154
145
146
142
132
130
124
112
117
109
97
110
104
90
109
102
88
119
111
101
145
130
124
172
147
144
171
134
133
178
134
124
160
116
101
103
65
55
109
67
60
136
97
86
158
117
102
142
97
80
132
81
61
125
83
64
130
90
72
116
76
57
106
70
50
70
55
43
118
126
106
134
149
124
131
143
124
106
118
98
77
90
64
80
93
67
78
90
67
87
100
78
101
117
96
102
120
103
100
119
103
102
125
107
95
113
97
93
109
95
102
121
110
112
138
125
107
133
116
140
156
142
